; generated by Slic3r 1.1.7 on 2014-10-24 at 20:53:08

; perimeters extrusion width = 0.50mm
; infill extrusion width = 1.02mm
; solid infill extrusion width = 0.85mm
; top infill extrusion width = 0.85mm

G21 ; set units to millimeters
M107
M190 S35 ; wait for bed temperature to be reached
M104 S210 ; set temperature
G28 ; home all axes
G1 Z5 F200; lift nozzle


M109 S210 ; wait for temperature to be reached
G90 ; use absolute coordinates
G92 E0
M82 ; use absolute distances for extrusion
G1 F1800.000 E-5.00000
G92 E0
G1 Z0.350 F7800.000
G1 X87.815 Y87.221 F7800.000
G1 E5.00000 F1800.000
G1 X88.848 Y86.313 E5.15349 F2109.496
G1 X89.570 Y85.753 E5.25543
G1 X90.515 Y85.107 E5.38307
G1 X91.701 Y84.417 E5.53624
G1 X92.518 Y84.007 E5.63818
G1 X93.569 Y83.556 E5.76580
G1 X94.867 Y83.108 E5.91900
G1 X95.743 Y82.864 E6.02052
G1 X96.863 Y82.624 E6.14831
G1 X97.995 Y82.457 E6.27596
G1 X99.132 Y82.364 E6.40325
G1 X100.509 Y82.352 E6.55692
G1 X101.421 Y82.400 E6.65878 F2109.496
G1 X102.555 Y82.529 E6.78618
G1 X103.684 Y82.732 E6.91415
G1 X105.014 Y83.072 E7.06726
G1 X105.880 Y83.351 E7.16875
G1 X106.946 Y83.767 E7.29647
G1 X107.982 Y84.250 E7.42404
G1 X109.184 Y84.922 E7.57760
G1 X109.950 Y85.413 E7.67916
G1 X110.873 Y86.088 E7.80677
G1 X111.753 Y86.823 E7.93465
G1 X112.740 Y87.778 E8.08793
G1 X113.354 Y88.449 E8.18941
G1 X114.074 Y89.338 E8.31707
G1 X114.736 Y90.273 E8.44482
G1 X115.446 Y91.450 E8.59827
G1 X115.869 Y92.257 E8.69993
G1 X116.337 Y93.301 E8.82755
G1 X116.738 Y94.377 E8.95564
G1 X117.121 Y95.693 E9.10860
G1 X117.323 Y96.582 E9.21036
G1 X117.508 Y97.710 E9.33780
G1 X117.619 Y98.850 E9.46566
G1 X117.653 Y100.223 E9.61894
G1 X117.620 Y101.134 E9.72063
G1 X117.510 Y102.275 E9.84850
G1 X117.326 Y103.401 E9.97585
G1 X117.007 Y104.739 E10.12927
G1 X116.743 Y105.608 E10.23065
G1 X116.343 Y106.684 E10.35875
G1 X115.876 Y107.729 E10.48637
G1 X115.225 Y108.938 E10.63962
G1 X114.744 Y109.714 E10.74148
G1 X114.084 Y110.650 E10.86923
G1 X113.365 Y111.539 E10.99688
G1 X112.427 Y112.541 E11.14996
G1 X111.764 Y113.167 E11.25165
G1 X110.886 Y113.902 E11.37953
G1 X109.963 Y114.578 E11.50713
G1 X108.799 Y115.306 E11.66028
G1 X107.996 Y115.743 E11.76228
G1 X106.961 Y116.227 E11.88983
G1 X105.894 Y116.644 E12.01755
G1 X104.808 Y116.990 E12.14470
G1 X103.470 Y117.310 E12.29822
G1 X102.571 Y117.469 E12.40008
G1 X101.437 Y117.598 E12.52747
G1 X100.294 Y117.655 E12.65510
G1 X98.920 Y117.622 E12.80856
G1 X98.011 Y117.545 E12.91026
G1 X96.878 Y117.379 E13.03800
G1 X95.759 Y117.140 E13.16574
G1 X94.441 Y116.757 E13.31890
G1 X93.583 Y116.450 E13.42050
G1 X92.532 Y116.000 E13.54811
G1 X91.512 Y115.483 E13.67565
G1 X90.333 Y114.773 E13.82923
G1 X89.583 Y114.256 E13.93089
G1 X88.681 Y113.552 E14.05858
G1 X87.826 Y112.790 E14.18632
G1 X86.871 Y111.803 E14.33957
G1 X86.278 Y111.112 E14.44116
G1 X85.588 Y110.201 E14.56870
G1 X84.957 Y109.245 E14.69654
G1 X84.389 Y108.250 E14.82435
G1 X83.797 Y107.011 E14.97749
G1 X83.454 Y106.163 E15.07954
G1 X83.090 Y105.081 E15.20700
G1 X82.796 Y103.975 E15.33460
G1 X82.541 Y102.626 E15.48783
G1 X82.427 Y101.720 E15.58974
G1 X82.353 Y100.581 E15.71705
G1 X82.352 Y99.435 E15.84494
G1 X82.451 Y98.065 E15.99816
G1 X82.573 Y97.159 E16.10012
G1 X82.793 Y96.040 E16.22740
G1 X83.085 Y94.934 E16.35503
G1 X83.533 Y93.634 E16.50850
G1 X83.883 Y92.788 E16.61064
G1 X84.381 Y91.764 E16.73764
G1 X84.948 Y90.769 E16.86545
G1 X85.714 Y89.627 E17.01883
G1 X86.268 Y88.900 E17.12081
G1 X87.015 Y88.036 E17.24828
G1 X87.762 Y87.275 E17.36731
G1 F1800.000 E12.36731
G92 E0
G1 X109.259 Y101.148 F7800.000
G1 E5.00000 F1800.000
G1 X109.027 Y101.360 E5.03509 F738.324
G1 X108.759 Y101.525 E5.07018
G1 X108.466 Y101.639 E5.10526
G1 X108.157 Y101.697 E5.14034
G1 X107.843 Y101.697 E5.17543
G1 X107.576 Y101.647 E5.20567
G1 X107.240 Y101.525 E5.24552
G1 X106.973 Y101.360 E5.28060
G1 X106.741 Y101.148 E5.31569
G1 X106.577 Y100.932 E5.34593
G1 X106.411 Y100.616 E5.38579
G1 X106.325 Y100.313 E5.42088
G1 X106.296 Y100.000 E5.45596
G1 X106.325 Y99.687 E5.49104
G1 X106.411 Y99.384 E5.52612
G1 X106.551 Y99.103 E5.56121
G1 X106.741 Y98.852 E5.59630
G1 X106.973 Y98.640 E5.63138
G1 X107.240 Y98.475 E5.66647
G1 X107.534 Y98.361 E5.70155
G1 X107.843 Y98.303 E5.73663
G1 X108.157 Y98.303 E5.77172
G1 X108.424 Y98.353 E5.80196
G1 X108.760 Y98.475 E5.84182 F738.324
G1 X109.027 Y98.640 E5.87690
G1 X109.259 Y98.852 E5.91199
G1 X109.449 Y99.103 E5.94708
G1 X109.589 Y99.384 E5.98216
G1 X109.675 Y99.687 E6.01725
G1 X109.704 Y100.000 E6.05233
G1 X109.675 Y100.313 E6.08741
G1 X109.589 Y100.616 E6.12249
G1 X109.449 Y100.897 E6.15758
G1 X109.304 Y101.088 E6.18430
G1 F1800.000 E1.18430
G92 E0
G1 X108.461 Y97.998 F7800.000
G1 X93.704 Y100.000 F7800.000
G1 E5.00000 F1800.000
G1 X93.675 Y100.313 E5.03509 F738.324
G1 X93.589 Y100.616 E5.07016
G1 X93.449 Y100.897 E5.10526
G1 X93.259 Y101.148 E5.14034
G1 X93.027 Y101.360 E5.17542
G1 X92.759 Y101.525 E5.21051
G1 X92.507 Y101.623 E5.24075
G1 X92.157 Y101.697 E5.28060
G1 X91.843 Y101.697 E5.31569
G1 X91.534 Y101.639 E5.35078
G1 X91.240 Y101.525 E5.38586
G1 X90.973 Y101.360 E5.42094
G1 X90.741 Y101.148 E5.45603
G1 X90.551 Y100.897 E5.49112
G1 X90.411 Y100.616 E5.52620
G1 X90.325 Y100.313 E5.56129
G1 X90.296 Y100.000 E5.59637
G1 X90.325 Y99.687 E5.63145
G1 X90.411 Y99.384 E5.66653
G1 X90.551 Y99.103 E5.70162
G1 X90.741 Y98.852 E5.73670
G1 X90.941 Y98.669 E5.76695
G1 X91.240 Y98.475 E5.80681
G1 X91.534 Y98.361 E5.84189
G1 X91.843 Y98.303 E5.87697
G1 X92.157 Y98.303 E5.91206
G1 X92.424 Y98.353 E5.94230
G1 X92.760 Y98.475 E5.98215 F738.324
G1 X93.027 Y98.640 E6.01723
G1 X93.259 Y98.852 E6.05232
G1 X93.449 Y99.103 E6.08741
G1 X93.589 Y99.384 E6.12249
G1 X93.675 Y99.687 E6.15758
G1 X93.697 Y99.925 E6.18430
G1 X92.417 Y97.996 F7800.000
G1 X98.973 Y93.360 F7800.000
G1 X98.741 Y93.148 E6.21938 F738.324
G1 X98.577 Y92.932 E6.24962
G1 X98.411 Y92.616 E6.28948
G1 X98.325 Y92.313 E6.32457
G1 X98.296 Y92.000 E6.35965
G1 X98.325 Y91.687 E6.39474
G1 X98.411 Y91.384 E6.42981
G1 X98.551 Y91.103 E6.46490
G1 X98.741 Y90.852 E6.49999
G1 X98.973 Y90.640 E6.53508
G1 X99.241 Y90.475 E6.57017
G1 X99.534 Y90.361 E6.60524
G1 X99.843 Y90.303 E6.64033
G1 X100.157 Y90.303 E6.67541
G1 X100.424 Y90.353 E6.70566
G1 X100.760 Y90.475 E6.74551 F738.324
G1 X101.027 Y90.640 E6.78059
G1 X101.259 Y90.852 E6.81568
G1 X101.449 Y91.103 E6.85077
G1 X101.589 Y91.384 E6.88585
G1 X101.675 Y91.687 E6.92094
G1 X101.704 Y92.000 E6.95602
G1 X101.675 Y92.313 E6.99110
G1 X101.589 Y92.616 E7.02618
G1 X101.449 Y92.897 E7.06128
G1 X101.259 Y93.148 E7.09636
G1 X101.027 Y93.360 E7.13144
G1 X100.759 Y93.525 E7.16653
G1 X100.466 Y93.639 E7.20161
G1 X100.157 Y93.697 E7.23669
G1 X99.843 Y93.697 E7.27178
G1 X99.534 Y93.639 E7.30687
G1 X99.240 Y93.525 E7.34195
G1 X99.037 Y93.399 E7.36866
G1 F1800.000 E2.36866
G92 E0
G1 X100.546 Y90.018 F7800.000
G1 X99.454 Y95.981 F7800.000
G1 E5.00000 F1800.000
G1 X100.069 Y95.945 E5.06876 F1054.748
G1 X100.489 Y95.971 E5.11577 F1054.748
G1 X100.971 Y96.059 E5.17045
G1 X101.439 Y96.205 E5.22515
G1 X101.886 Y96.406 E5.27981
G1 X102.306 Y96.660 E5.33451
G1 X102.692 Y96.962 E5.38920
G1 X103.038 Y97.308 E5.44389
G1 X103.340 Y97.694 E5.49859
G1 X103.594 Y98.114 E5.55325
G1 X103.795 Y98.561 E5.60795
G1 X103.941 Y99.029 E5.66263
G1 X104.029 Y99.511 E5.71733
G1 X104.059 Y100.000 E5.77203
G1 X104.029 Y100.489 E5.82669
G1 X103.941 Y100.971 E5.88138
G1 X103.795 Y101.439 E5.93608
G1 X103.594 Y101.886 E5.99075
G1 X103.340 Y102.306 E6.04545
G1 X103.038 Y102.692 E6.10014
G1 X102.637 Y103.081 E6.16248
G1 X102.306 Y103.340 E6.20948
G1 X101.886 Y103.594 E6.26414
G1 X101.439 Y103.795 E6.31884
G1 X100.971 Y103.941 E6.37352
G1 X100.489 Y104.029 E6.42824
G1 X100.000 Y104.059 E6.48288
G1 X99.511 Y104.029 E6.53759
G1 X99.029 Y103.941 E6.59228
G1 X98.561 Y103.795 E6.64697
G1 X98.114 Y103.594 E6.70164
G1 X97.694 Y103.340 E6.75634
G1 X97.308 Y103.038 E6.81103
G1 X96.962 Y102.692 E6.86572
G1 X96.659 Y102.306 E6.92042
G1 X96.406 Y101.886 E6.97508
G1 X96.205 Y101.439 E7.02978
G1 X96.059 Y100.971 E7.08445
G1 X95.971 Y100.489 E7.13917
G1 X95.941 Y100.000 E7.19382
G1 X95.971 Y99.511 E7.24854
G1 X96.059 Y99.029 E7.30321
G1 X96.205 Y98.561 E7.35792
G1 X96.406 Y98.114 E7.41258
G1 X96.660 Y97.694 E7.46728
G1 X96.962 Y97.308 E7.52197
G1 X97.308 Y96.962 E7.57665
G1 X97.694 Y96.660 E7.63135
G1 X98.114 Y96.406 E7.68602
G1 X98.561 Y96.205 E7.74072
G1 X99.029 Y96.059 E7.79540
G1 X99.380 Y95.995 E7.83523
G1 X99.572 Y96.627 F7800.000
G1 X99.619 Y96.622 E7.84055 F738.324
G1 X100.000 Y96.599 E7.88309 F738.324
G1 X100.410 Y96.624 E7.92892
G1 X100.814 Y96.698 E7.97473
G1 X101.206 Y96.820 E8.02056
G1 X101.580 Y96.989 E8.06637
G1 X101.932 Y97.201 E8.11219
G1 X102.255 Y97.455 E8.15801
G1 X102.545 Y97.745 E8.20383
G1 X102.799 Y98.068 E8.24965
G1 X103.011 Y98.420 E8.29546
G1 X103.180 Y98.794 E8.34128
G1 X103.302 Y99.186 E8.38710
G1 X103.376 Y99.590 E8.43292
G1 X103.401 Y100.000 E8.47874
G1 X103.376 Y100.410 E8.52455
G1 X103.293 Y100.842 E8.57362
G1 X103.180 Y101.206 E8.61617
G1 X103.011 Y101.580 E8.66198
G1 X102.799 Y101.932 E8.70780
G1 X102.545 Y102.255 E8.75362
G1 X102.232 Y102.563 E8.80269
G1 X101.932 Y102.799 E8.84524
G1 X101.580 Y103.011 E8.89105
G1 X101.206 Y103.180 E8.93688
G1 X100.814 Y103.302 E8.98269
G1 X100.410 Y103.376 E9.02852
G1 X100.000 Y103.401 E9.07432
G1 X99.590 Y103.376 E9.12015
G1 X99.186 Y103.302 E9.16597
G1 X98.794 Y103.180 E9.21179
G1 X98.420 Y103.011 E9.25760
G1 X98.068 Y102.799 E9.30342
G1 X97.745 Y102.545 E9.34924
G1 X97.455 Y102.255 E9.39506
G1 X97.201 Y101.932 E9.44088
G1 X96.989 Y101.580 E9.48669
G1 X96.820 Y101.206 E9.53251
G1 X96.698 Y100.814 E9.57833
G1 X96.624 Y100.410 E9.62415
G1 X96.601 Y99.971 E9.67321
G1 X96.624 Y99.590 E9.71577
G1 X96.698 Y99.186 E9.76158
G1 X96.820 Y98.794 E9.80740
G1 X96.989 Y98.420 E9.85321
G1 X97.201 Y98.068 E9.89904
G1 X97.455 Y97.745 E9.94485
G1 X97.745 Y97.455 E9.99067
G1 X98.068 Y97.201 E10.03650
G1 X98.420 Y96.989 E10.08231
G1 X98.794 Y96.820 E10.12813
G1 X99.186 Y96.698 E10.17394
G1 X99.498 Y96.641 E10.20934
G1 X99.777 Y96.275 F7800.000
G1 F1800.000 E5.20934
G92 E0
G1 X99.843 Y106.303 F7800.000
G1 E5.00000 F1800.000
G1 X100.157 Y106.303 E5.03509 F738.324
G1 X100.424 Y106.353 E5.06533
G1 X100.760 Y106.475 E5.10518 F738.324
G1 X101.027 Y106.640 E5.14026
G1 X101.259 Y106.852 E5.17535
G1 X101.449 Y107.103 E5.21044
G1 X101.589 Y107.384 E5.24553
G1 X101.675 Y107.687 E5.28062
G1 X101.704 Y108.000 E5.31569
G1 X101.675 Y108.313 E5.35078
G1 X101.589 Y108.616 E5.38586
G1 X101.449 Y108.897 E5.42095
G1 X101.259 Y109.148 E5.45603
G1 X101.027 Y109.360 E5.49112
G1 X100.759 Y109.525 E5.52621
G1 X100.466 Y109.639 E5.56129
G1 X100.157 Y109.697 E5.59637
G1 X99.843 Y109.697 E5.63146
G1 X99.534 Y109.639 E5.66655
G1 X99.240 Y109.525 E5.70163
G1 X98.973 Y109.360 E5.73671
G1 X98.741 Y109.148 E5.77179
G1 X98.551 Y108.897 E5.80688
G1 X98.411 Y108.616 E5.84196
G1 X98.325 Y108.313 E5.87706
G1 X98.296 Y108.000 E5.91213
G1 X98.325 Y107.687 E5.94722
G1 X98.411 Y107.384 E5.98230
G1 X98.551 Y107.103 E6.01739
G1 X98.741 Y106.852 E6.05247
G1 X98.973 Y106.640 E6.08756
G1 X99.241 Y106.475 E6.12265
G1 X99.534 Y106.361 E6.15772
G1 X99.769 Y106.317 E6.18444
G1 X100.668 Y106.092 F7800.000
G1 X102.943 Y108.867 F7800.000
G1 X103.024 Y108.000 E6.28159 F1054.748
G1 X102.972 Y107.445 E6.34383
G1 X102.820 Y106.908 E6.40611
G1 X102.571 Y106.408 E6.46836
G1 X102.235 Y105.963 E6.53063
G1 X101.822 Y105.587 E6.59292
G1 X101.348 Y105.293 E6.65515
G1 X100.710 Y105.046 E6.73150
G1 X100.747 Y104.650 E6.77587
G1 X101.129 Y104.580 E6.81919
G1 X101.673 Y104.411 E6.88273
G1 X102.192 Y104.177 E6.94631
G1 X102.680 Y103.882 E7.00983
G1 X103.042 Y103.598 E7.06127
G1 X103.531 Y103.128 E7.13689
G1 X103.882 Y102.680 E7.20045
G1 X104.177 Y102.192 E7.26403
G1 X104.411 Y101.673 E7.32754
G1 X104.580 Y101.129 E7.39112
G1 X104.654 Y100.726 E7.43679
G1 X105.071 Y100.706 E7.48333
G1 X105.180 Y101.092 E7.52811
G1 X105.429 Y101.592 E7.59036
G1 X105.765 Y102.037 E7.65264
G1 X106.178 Y102.413 E7.71491
G1 X106.652 Y102.707 E7.77715
G1 X107.172 Y102.908 E7.83938
G1 X107.721 Y103.011 E7.90167
G1 X108.279 Y103.011 E7.96394
G1 X108.876 Y102.899 E8.03174
G1 X108.639 Y103.537 E8.10773
G1 X108.392 Y104.089 E8.17519
G1 X108.109 Y104.624 E8.24265
G1 X107.793 Y105.139 E8.31010
G1 X107.444 Y105.633 E8.37755
G1 X107.064 Y106.103 E8.44500
G1 X106.654 Y106.547 E8.51247
G1 X106.216 Y106.964 E8.57992
G1 X105.753 Y107.352 E8.64737
G1 X105.265 Y107.709 E8.71482
G1 X104.755 Y108.034 E8.78229
G1 X104.225 Y108.324 E8.84974
G1 X103.677 Y108.580 E8.91719
G1 X103.013 Y108.840 E8.99669
G1 X104.654 Y99.274 F7800.000
G1 X104.580 Y98.871 E9.04238 F1054.748
G1 X104.411 Y98.327 E9.10592
G1 X104.177 Y97.808 E9.16949
G1 X103.882 Y97.320 E9.23301
G1 X103.531 Y96.872 E9.29659
G1 X103.128 Y96.469 E9.36014
G1 X102.680 Y96.118 E9.42370
G1 X102.192 Y95.823 E9.48729
G1 X101.673 Y95.589 E9.55080
G1 X101.129 Y95.420 E9.61438
G1 X100.747 Y95.350 E9.65768
G1 X100.710 Y94.954 E9.70205
G1 X101.348 Y94.707 E9.77837
G1 X101.822 Y94.413 E9.84065
G1 X102.235 Y94.037 E9.90293
G1 X102.571 Y93.592 E9.96517
G1 X102.820 Y93.092 E10.02746
G1 X102.972 Y92.556 E10.08969
G1 X103.024 Y92.000 E10.15195
G1 X102.943 Y91.133 E10.24911
G1 X103.677 Y91.420 E10.33697
G1 X104.225 Y91.676 E10.40443
G1 X104.755 Y91.966 E10.47188
G1 X105.265 Y92.291 E10.53934
G1 X105.753 Y92.648 E10.60679
G1 X106.216 Y93.036 E10.67424
G1 X106.654 Y93.453 E10.74169
G1 X107.064 Y93.897 E10.80916
G1 X107.444 Y94.367 E10.87662
G1 X107.793 Y94.861 E10.94406
G1 X108.109 Y95.376 E11.01151
G1 X108.392 Y95.911 E11.07898
G1 X108.639 Y96.463 E11.14643
G1 X108.876 Y97.101 E11.22241
G1 X108.279 Y96.989 E11.29022
G1 X107.721 Y96.989 E11.35251
G1 X107.172 Y97.092 E11.41474
G1 X106.652 Y97.293 E11.47698
G1 X106.178 Y97.587 E11.53925
G1 X105.765 Y97.963 E11.60153
G1 X105.429 Y98.408 E11.66378
G1 X105.180 Y98.908 E11.72607
G1 X105.071 Y99.294 E11.77082
G1 X104.729 Y99.277 E11.80899
G1 X99.253 Y95.350 F7800.000
G1 X98.871 Y95.420 E11.85230 F1054.748
G1 X98.327 Y95.589 E11.91585
G1 X97.808 Y95.823 E11.97943
G1 X97.320 Y96.118 E12.04295
G1 X96.872 Y96.469 E12.10653
G1 X96.469 Y96.872 E12.17008
G1 X96.118 Y97.320 E12.23363
G1 X95.823 Y97.808 E12.29722
G1 X95.589 Y98.327 E12.36073
G1 X95.420 Y98.871 E12.42431
G1 X95.346 Y99.274 E12.46998
G1 X94.929 Y99.294 E12.51652
G1 X94.820 Y98.908 E12.56130
G1 X94.571 Y98.408 E12.62355
G1 X94.235 Y97.963 E12.68583
G1 X93.822 Y97.587 E12.74811
G1 X93.348 Y97.293 E12.81034
G1 X92.828 Y97.092 E12.87258
G1 X92.279 Y96.989 E12.93486
G1 X91.721 Y96.989 E12.99714
G1 X91.103 Y97.105 E13.06721
G1 X91.480 Y96.185 E13.17813
G1 X91.745 Y95.641 E13.24560
G1 X92.044 Y95.116 E13.31305
G1 X92.377 Y94.611 E13.38049
G1 X92.742 Y94.129 E13.44795
G1 X93.137 Y93.672 E13.51541
G1 X93.561 Y93.241 E13.58287
G1 X94.012 Y92.838 E13.65032
G1 X94.489 Y92.466 E13.71778
G1 X94.988 Y92.125 E13.78523
G1 X95.508 Y91.817 E13.85269
G1 X96.047 Y91.543 E13.92014
G1 X96.603 Y91.305 E13.98760
G1 X97.055 Y91.145 E14.04117
G1 X96.976 Y92.000 E14.13699
G1 X97.028 Y92.555 E14.19922
G1 X97.180 Y93.092 E14.26151
G1 X97.429 Y93.592 E14.32376
G1 X97.765 Y94.037 E14.38603
G1 X98.178 Y94.413 E14.44831
G1 X98.652 Y94.707 E14.51054
G1 X99.290 Y94.954 E14.58689
G1 X99.260 Y95.275 E14.62290
G1 X95.346 Y100.726 F7800.000
G1 X95.420 Y101.129 E14.66859 F1054.748
G1 X95.589 Y101.673 E14.73213
G1 X95.823 Y102.192 E14.79570
G1 X96.118 Y102.679 E14.85921
G1 X96.469 Y103.128 E14.92280
G1 X96.872 Y103.531 E14.98635
G1 X97.320 Y103.882 E15.04991
G1 X97.808 Y104.177 E15.11349
G1 X98.327 Y104.411 E15.17701
G1 X98.871 Y104.580 E15.24058
G1 X99.253 Y104.650 E15.28389
G1 X99.290 Y105.046 E15.32826
G1 X98.652 Y105.293 E15.40458
G1 X98.178 Y105.587 E15.46686
G1 X97.765 Y105.963 E15.52914
G1 X97.429 Y106.408 E15.59139
G1 X97.180 Y106.908 E15.65368
G1 X97.028 Y107.444 E15.71590
G1 X96.976 Y108.000 E15.77816
G1 X97.055 Y108.855 E15.87399
G1 X96.603 Y108.695 E15.92756
G1 X96.047 Y108.457 E15.99501
G1 X95.508 Y108.183 E16.06247
G1 X94.988 Y107.875 E16.12992
G1 X94.489 Y107.534 E16.19738
G1 X94.012 Y107.162 E16.26483
G1 X93.561 Y106.759 E16.33228
