; generated by Slic3r 1.1.7 on 2014-10-03 at 20:49:33

; perimeters extrusion width = 0.50mm
; infill extrusion width = 1.02mm
; solid infill extrusion width = 0.85mm
; top infill extrusion width = 0.85mm

G21 ; set units to millimeters
M107
M190 S35 ; wait for bed temperature to be reached
M104 S210 ; set temperature
G28 ; home all axes
G1 Z5 F300; lift nozzle


M109 S210 ; wait for temperature to be reached
G90 ; use absolute coordinates
G92 E0
M82 ; use absolute distances for extrusion
G1 F1800.000 E-5.00000
G92 E0
G1 Z0.350 F7800.000
G1 X66.890 Y61.166 F7800.000
G1 E5.00000 F1800.000
G1 X68.644 Y59.680 E5.24430 F2700.000
G1 X70.799 Y58.878 E5.48861
G1 X72.006 Y58.768 E5.61747
G1 X127.994 Y58.768 E11.56681
G1 X130.258 Y59.165 E11.81111
G1 X132.253 Y60.309 E12.05542 F2700.000
G1 X133.739 Y62.062 E12.29972
G1 X134.540 Y64.217 E12.54402
G1 X134.651 Y65.425 E12.67289
G1 X134.651 Y134.575 E20.02094
G1 X134.254 Y136.840 E20.26524
G1 X133.110 Y138.834 E20.50955
G1 X131.356 Y140.320 E20.75385
G1 X129.201 Y141.122 E20.99815
G1 X127.994 Y141.232 E21.12702
G1 X72.006 Y141.232 E27.07636
G1 X69.742 Y140.835 E27.32066
G1 X67.747 Y139.691 E27.56496
G1 X66.261 Y137.938 E27.80927
G1 X65.460 Y135.783 E28.05357
G1 X65.349 Y134.575 E28.18243
G1 X65.349 Y65.425 E35.53048
G1 X65.746 Y63.160 E35.77479
G1 X66.853 Y61.231 E36.01112
G1 F1800.000 E31.01112
G92 E0
G1 X90.628 Y101.544 F7800.000
G1 E5.00000 F1800.000
G1 X90.351 Y101.767 E5.03773 F945.000
G1 X90.073 Y101.924 E5.07162
G1 X89.776 Y102.038 E5.10552
G1 X89.464 Y102.107 E5.13941
G1 X89.146 Y102.128 E5.17329
G1 X88.864 Y102.107 E5.20332
G1 X88.553 Y102.038 E5.23722
G1 X88.222 Y101.908 E5.27496
G1 X87.977 Y101.767 E5.30499
G1 X87.727 Y101.569 E5.33889
G1 X87.508 Y101.337 E5.37278
G1 X87.327 Y101.075 E5.40667
G1 X87.175 Y100.754 E5.44441
G1 X87.091 Y100.484 E5.47445
G1 X87.042 Y100.168 E5.50835
G1 X87.041 Y99.849 E5.54224
G1 X87.087 Y99.534 E5.57613
G1 X87.195 Y99.195 E5.61387
G1 X87.318 Y98.941 E5.64391
G1 X87.497 Y98.677 E5.67781
G1 X87.713 Y98.442 E5.71172
G1 X87.962 Y98.243 E5.74561
G1 X88.272 Y98.069 E5.78335
G1 X88.535 Y97.966 E5.81339
G1 X88.846 Y97.895 E5.84730
G1 X89.164 Y97.871 E5.88117
G1 X89.446 Y97.892 E5.91118
G1 X89.793 Y97.966 E5.94891 F945.000
G1 X90.090 Y98.083 E5.98281
G1 X90.366 Y98.243 E6.01673
G1 X90.615 Y98.442 E6.05062
G1 X90.831 Y98.677 E6.08452
G1 X91.010 Y98.941 E6.11842
G1 X91.148 Y99.229 E6.15232
G1 X91.241 Y99.534 E6.18622
G1 X91.287 Y99.849 E6.22013
G1 X91.286 Y100.168 E6.25402
G1 X91.237 Y100.484 E6.28792
G1 X91.141 Y100.788 E6.32181
G1 X91.001 Y101.075 E6.35571
G1 X90.820 Y101.337 E6.38961
G1 X90.679 Y101.489 E6.41167
G1 F1800.000 E1.41167
G92 E0
G1 X89.450 Y97.537 F7800.000
G1 X87.789 Y103.175 F7800.000
G1 E5.00000 F1800.000
G1 X88.207 Y103.307 E5.04667 F1350.000
G1 X88.715 Y103.413 E5.10173
G1 X89.231 Y103.442 E5.15672
G1 X89.614 Y103.413 E5.19744
G1 X90.249 Y103.267 E5.26674
G1 X90.606 Y103.127 E5.30749
G1 X91.059 Y102.875 E5.36253
G1 X91.566 Y102.465 E5.43179
G1 X91.826 Y102.184 E5.47253
G1 X92.124 Y101.760 E5.52759
G1 X92.355 Y101.297 E5.58263
G1 X92.513 Y100.804 E5.63765
G1 X92.596 Y100.292 E5.69275
G1 X92.601 Y100.157 E5.70706
G1 X92.601 Y99.774 E5.74778
G1 X92.529 Y99.261 E5.80287
G1 X92.380 Y98.764 E5.85792
G1 X92.159 Y98.296 E5.91299
G1 X91.869 Y97.866 E5.96805
G1 X91.780 Y97.765 E5.98237
G1 X91.519 Y97.484 E6.02312
G1 X91.115 Y97.160 E6.07817
G1 X90.667 Y96.899 E6.13331
G1 X90.542 Y96.848 E6.14763
G1 X90.185 Y96.708 E6.18835
G1 X89.679 Y96.592 E6.24347
G1 X89.164 Y96.553 E6.29839
G1 X88.649 Y96.592 E6.35331
G1 X88.143 Y96.708 E6.40844
G1 X87.789 Y96.847 E6.44891
G1 X87.789 Y92.139 E6.94921
G1 X95.336 Y92.139 E7.75116
G1 X95.336 Y107.861 E9.42179
G1 X87.789 Y107.861 E10.22372
G1 X87.789 Y103.250 E10.71369
G1 X87.132 Y101.935 F7800.000
G1 X87.624 Y102.321 E10.78011 F1350.000
G1 X87.988 Y102.525 E10.82456
G1 X88.380 Y102.673 E10.86902
G1 X88.789 Y102.760 E10.91350
G1 X89.207 Y102.785 E10.95794
G1 X89.623 Y102.747 E11.00238
G1 X90.030 Y102.647 E11.04684
G1 X90.340 Y102.525 E11.08224
G1 X90.705 Y102.321 E11.12670
G1 X91.035 Y102.064 E11.17115
G1 X91.323 Y101.761 E11.21561
G1 X91.563 Y101.417 E11.26009
G1 X91.748 Y101.042 E11.30456
G1 X91.875 Y100.644 E11.34901
G1 X91.944 Y100.145 E11.40255
G1 X91.944 Y99.812 E11.43792
G1 X91.885 Y99.397 E11.48242
G1 X91.764 Y98.997 E11.52689
G1 X91.585 Y98.618 E11.57138
G1 X91.350 Y98.271 E11.61586
G1 X91.067 Y97.963 E11.66035
G1 X90.741 Y97.701 E11.70482
G1 X90.378 Y97.491 E11.74935
G1 X89.989 Y97.337 E11.79381
G1 X89.581 Y97.243 E11.83833
G1 X89.164 Y97.212 E11.88272
G1 X88.747 Y97.243 E11.92712
G1 X88.339 Y97.337 E11.97164
G1 X87.950 Y97.491 E12.01611
G1 X87.588 Y97.701 E12.06063
G1 X87.132 Y98.065 E12.12262
G1 X87.132 Y91.482 E12.82213
G1 X95.993 Y91.482 E13.76371
G1 X95.993 Y108.518 E15.57399
G1 X87.132 Y108.518 E16.51556
G1 X87.132 Y102.010 E17.20708
G1 X86.475 Y109.175 F7800.000
G1 X86.475 Y90.825 E19.15700 F945.000
G1 X96.650 Y90.825 E20.23823
G1 X96.650 Y109.175 E22.18814
G1 X86.550 Y109.175 E23.26139
G1 X86.725 Y108.742 F7800.000
G1 X88.285 Y107.404 F7800.000
G1 X88.245 Y107.364 E23.26741 F2700.000
G1 X88.245 Y106.393 E23.37060
G1 X89.257 Y107.404 E23.52255
G1 X90.228 Y107.404 E23.62573
G1 X88.245 Y105.422 E23.92362
G1 X88.245 Y104.451 E24.02682
G1 X91.199 Y107.404 E24.47064
G1 X92.170 Y107.404 E24.57383
G1 X88.626 Y103.861 E25.10632
G1 X89.608 Y103.871 E25.21061
G1 X93.141 Y107.404 E25.74156
G1 X94.112 Y107.404 E25.84474
G1 X90.398 Y103.691 E26.40279
G1 X91.065 Y103.387 E26.48068
G1 X94.879 Y107.201 E27.05388
G1 X94.879 Y106.230 E27.15706
G1 X91.648 Y102.999 E27.64262
G1 X92.139 Y102.518 E27.71559
G1 X94.879 Y105.259 E28.12748
G1 X94.879 Y104.288 E28.23066
G1 X92.540 Y101.949 E28.58221
G1 X92.840 Y101.278 E28.66031
G1 X94.879 Y103.317 E28.96676
G1 X94.879 Y102.346 E29.06994
G1 X93.027 Y100.494 E29.34828
G1 X93.027 Y99.522 E29.45153
G1 X94.879 Y101.375 E29.72997
G1 X94.879 Y100.404 E29.83315
G1 X92.566 Y98.091 E30.18076
G1 X91.096 Y96.620 F7800.000
G1 X88.245 Y93.770 E30.60917 F2700.000
G1 X88.245 Y92.799 E30.71234
G1 X94.879 Y99.433 E31.70931
G1 X94.879 Y98.462 E31.81250
G1 X89.013 Y92.596 E32.69407
G1 X89.984 Y92.596 E32.79726
G1 X94.879 Y97.491 E33.53290
G1 X94.879 Y96.520 E33.63608
G1 X90.955 Y92.596 E34.22580
G1 X91.926 Y92.596 E34.32899
G1 X94.879 Y95.549 E34.77278
G1 X94.879 Y94.578 E34.87596
G1 X92.897 Y92.596 E35.17383
G1 X93.868 Y92.596 E35.27701
G1 X94.879 Y93.607 E35.42895
G1 X94.879 Y92.636 E35.53214
G1 X94.839 Y92.596 E35.53815
G1 X89.636 Y96.131 F7800.000
G1 X88.245 Y94.741 E35.74711 F2700.000
G1 X88.245 Y95.712 E35.85029
G1 X88.667 Y96.133 E35.91363
G1 F1800.000 E30.91363
G92 E0
G1 X81.059 Y101.746 F7800.000
G1 E5.00000 F1800.000
G1 X80.752 Y101.924 E5.03773 F945.000
G1 X80.454 Y102.038 E5.07162
G1 X80.142 Y102.107 E5.10552
G1 X79.860 Y102.128 E5.13555
G1 X79.542 Y102.107 E5.16943
G1 X79.196 Y102.027 E5.20717
G1 X78.933 Y101.924 E5.23721
G1 X78.656 Y101.767 E5.27110
G1 X78.405 Y101.569 E5.30500
G1 X78.186 Y101.337 E5.33888
G1 X77.988 Y101.043 E5.37662
G1 X77.865 Y100.788 E5.40666
G1 X77.770 Y100.484 E5.44056
G1 X77.719 Y100.132 E5.47830
G1 X77.719 Y99.849 E5.50833
G1 X77.765 Y99.534 E5.54222
G1 X77.858 Y99.229 E5.57613
G1 X77.996 Y98.941 E5.61003
G1 X78.199 Y98.650 E5.64776
G1 X78.391 Y98.442 E5.67781
G1 X78.640 Y98.243 E5.71170
G1 X78.950 Y98.069 E5.74944
G1 X79.213 Y97.966 E5.77947
G1 X79.524 Y97.895 E5.81339
G1 X79.842 Y97.871 E5.84726
G1 X80.124 Y97.892 E5.87727
G1 X80.471 Y97.966 E5.91501 F945.000
G1 X80.768 Y98.083 E5.94890
G1 X81.044 Y98.243 E5.98281
G1 X81.293 Y98.442 E6.01670
G1 X81.510 Y98.677 E6.05061
G1 X81.689 Y98.941 E6.08451
G1 X81.826 Y99.229 E6.11841
G1 X81.919 Y99.534 E6.15231
G1 X81.965 Y99.849 E6.18621
G1 X81.964 Y100.168 E6.22010
G1 X81.915 Y100.484 E6.25400
G1 X81.819 Y100.788 E6.28790
G1 X81.679 Y101.074 E6.32178
G1 X81.498 Y101.337 E6.35569
G1 X81.280 Y101.569 E6.38958
G1 X81.117 Y101.699 E6.41165
G1 F1800.000 E1.41165
G92 E0
G1 X80.138 Y97.537 F7800.000
G1 X81.221 Y103.174 F7800.000
G1 E5.00000 F1800.000
G1 X81.217 Y107.861 E5.49805 F1350.000
G1 X73.671 Y107.861 E6.29995
G1 X73.671 Y92.139 E7.97057
G1 X81.217 Y92.139 E8.77247
G1 X81.221 Y96.849 E9.27291
G1 X80.863 Y96.708 E9.31373
G1 X80.358 Y96.592 E9.36886
G1 X79.842 Y96.553 E9.42379
G1 X79.327 Y96.592 E9.47871
G1 X78.821 Y96.708 E9.53384
G1 X78.465 Y96.848 E9.57456
G1 X78.340 Y96.899 E9.58888
G1 X77.891 Y97.160 E9.64401
G1 X77.488 Y97.484 E9.69903
G1 X77.227 Y97.766 E9.73984
G1 X77.137 Y97.866 E9.75415
G1 X76.848 Y98.296 E9.80921
G1 X76.626 Y98.764 E9.86425
G1 X76.513 Y99.131 E9.90503
G1 X76.478 Y99.261 E9.91936
G1 X76.405 Y99.774 E9.97439
G1 X76.410 Y100.292 E10.02940
G1 X76.467 Y100.671 E10.07018
G1 X76.493 Y100.803 E10.08449
G1 X76.652 Y101.297 E10.13955
G1 X76.882 Y101.760 E10.19459
G1 X77.180 Y102.184 E10.24965
G1 X77.538 Y102.559 E10.30467
G1 X77.838 Y102.798 E10.34543
G1 X78.400 Y103.127 E10.41470
G1 X78.886 Y103.307 E10.46973
G1 X79.393 Y103.413 E10.52478
G1 X79.775 Y103.442 E10.56550
G1 X80.292 Y103.413 E10.62050
G1 X80.799 Y103.307 E10.67556
G1 X81.149 Y103.196 E10.71463
G1 X81.878 Y101.933 F7800.000
G1 X81.873 Y108.518 E11.41439 F1350.000
G1 X73.013 Y108.518 E12.35587
G1 X73.013 Y91.482 E14.16614
G1 X81.873 Y91.482 E15.10762
G1 X81.878 Y98.067 E15.80740
G1 X81.419 Y97.701 E15.86982
G1 X81.057 Y97.491 E15.91434
G1 X80.667 Y97.337 E15.95880
G1 X80.259 Y97.243 E16.00333
G1 X79.842 Y97.212 E16.04772
G1 X79.426 Y97.243 E16.09212
G1 X79.017 Y97.337 E16.13664
G1 X78.628 Y97.491 E16.18111
G1 X78.266 Y97.701 E16.22563
G1 X77.940 Y97.963 E16.27009
G1 X77.656 Y98.271 E16.31460
G1 X77.422 Y98.618 E16.35908
G1 X77.242 Y98.997 E16.40355
G1 X77.121 Y99.397 E16.44805
G1 X77.062 Y99.812 E16.49252
G1 X77.065 Y100.230 E16.53696
G1 X77.131 Y100.643 E16.58146
G1 X77.258 Y101.042 E16.62593
G1 X77.444 Y101.417 E16.67040
G1 X77.683 Y101.761 E16.71488
G1 X77.971 Y102.064 E16.75933
G1 X78.302 Y102.321 E16.80381
G1 X78.667 Y102.525 E16.84826
G1 X79.058 Y102.673 E16.89272
G1 X79.468 Y102.760 E16.93720
G1 X79.885 Y102.785 E16.98164
G1 X80.302 Y102.747 E17.02607
G1 X80.708 Y102.647 E17.07055
G1 X81.095 Y102.487 E17.11499
G1 X81.383 Y102.321 E17.15038
G1 X81.819 Y101.979 E17.20927
G1 X82.531 Y109.175 F7800.000
G1 X72.356 Y109.175 E18.29046 F945.000
G1 X72.356 Y90.825 E20.24037
G1 X82.531 Y90.825 E21.32157
G1 X82.531 Y109.100 E23.26351
G1 X82.098 Y108.925 F7800.000
G1 X80.761 Y107.201 F7800.000
G1 X74.127 Y100.567 E24.26049 F2700.000
G1 X74.127 Y101.538 E24.36367
G1 X79.993 Y107.404 E25.24525
G1 X79.022 Y107.404 E25.34843
G1 X74.127 Y102.509 E26.08408
G1 X74.127 Y103.480 E26.18726
G1 X78.051 Y107.404 E26.77698
G1 X77.080 Y107.404 E26.88017
G1 X74.127 Y104.451 E27.32396
G1 X74.127 Y105.422 E27.42714
G1 X76.109 Y107.404 E27.72501
G1 X75.138 Y107.404 E27.82819
G1 X74.127 Y106.393 E27.98013
G1 X74.127 Y107.364 E28.08332
G1 X74.167 Y107.404 E28.08933
G1 X77.885 Y103.354 F7800.000
G1 X80.762 Y106.231 E28.52170 F2700.000
G1 X80.763 Y105.261 E28.62480
G1 X79.371 Y103.869 E28.83393
G1 X80.341 Y103.868 E28.93694
G1 X80.764 Y104.291 E29.00051
G1 X76.453 Y101.922 F7800.000
G1 X74.127 Y99.596 E29.35008 F2700.000
G1 X74.127 Y98.625 E29.45327
G1 X75.976 Y100.474 E29.73116
G1 X75.982 Y99.509 E29.83376
G1 X74.127 Y97.654 E30.11248
G1 X74.127 Y96.683 E30.21567
G1 X76.163 Y98.719 E30.52162
G1 X76.464 Y98.049 E30.59966
G1 X74.127 Y95.712 E30.95087
G1 X74.127 Y94.741 E31.05406
G1 X76.868 Y97.482 E31.46598
G1 X77.359 Y97.002 E31.53895
G1 X74.127 Y93.770 E32.02467
G1 X74.127 Y92.799 E32.12785
G1 X77.934 Y96.606 E32.70005
G1 X78.603 Y96.304 E32.77801
G1 X74.895 Y92.596 E33.33527
G1 X75.866 Y92.596 E33.43846
G1 X79.399 Y96.129 E33.96945
G1 X80.377 Y96.136 E34.07338
G1 X76.837 Y92.596 E34.60541
G1 X77.808 Y92.596 E34.70860
G1 X80.763 Y95.551 E35.15277
G1 X80.763 Y94.579 E35.25604
G1 X78.779 Y92.596 E35.55416
G1 X79.750 Y92.596 E35.65735
G1 X80.762 Y93.607 E35.80942
G1 X80.761 Y92.636 E35.91269
G1 X80.721 Y92.596 E35.91871
G1 F1800.000 E30.91871
G92 E0
G1 X87.948 Y126.796 F7800.000
G1 E5.00000 F1800.000
G1 X87.727 Y126.619 E5.03004 F945.000
G1 X87.508 Y126.387 E5.06393
G1 X87.327 Y126.125 E5.09783
G1 X87.187 Y125.838 E5.13172
G1 X87.091 Y125.534 E5.16562
G1 X87.042 Y125.218 E5.19953
G1 X87.041 Y124.899 E5.23341
G1 X87.087 Y124.584 E5.26731
G1 X87.180 Y124.279 E5.30121
G1 X87.318 Y123.991 E5.33511
G1 X87.497 Y123.727 E5.36901
G1 X87.713 Y123.492 E5.40292
G1 X87.993 Y123.274 E5.44064
G1 X88.238 Y123.133 E5.47069
G1 X88.571 Y123.008 E5.50841
G1 X88.882 Y122.942 E5.54229
G1 X89.164 Y122.921 E5.57230
G1 X89.446 Y122.942 E5.60230
G1 X89.793 Y123.016 E5.64004 F945.000
G1 X90.090 Y123.133 E5.67393
G1 X90.366 Y123.293 E5.70785
G1 X90.615 Y123.492 E5.74175
G1 X90.807 Y123.700 E5.77179
G1 X91.010 Y123.991 E5.80952
G1 X91.148 Y124.279 E5.84342
G1 X91.231 Y124.549 E5.87346
G1 X91.287 Y124.899 E5.91120
G1 X91.286 Y125.218 E5.94509
G1 X91.244 Y125.498 E5.97514
G1 X91.141 Y125.838 E6.01287
G1 X91.001 Y126.125 E6.04676
G1 X90.842 Y126.358 E6.07680
G1 X90.601 Y126.619 E6.11454
G1 X90.351 Y126.817 E6.14842
G1 X90.073 Y126.974 E6.18232
G1 X89.810 Y127.077 E6.21236
G1 X89.464 Y127.157 E6.25010
G1 X89.182 Y127.178 E6.28013
G1 X88.864 Y127.157 E6.31401
G1 X88.518 Y127.077 E6.35175
G1 X88.255 Y126.974 E6.38179
G1 X88.011 Y126.836 E6.41157
G1 F1800.000 E1.41157
G92 E0
G1 X89.529 Y122.597 F7800.000
G1 X87.789 Y128.225 F7800.000
G1 E5.00000 F1800.000
G1 X88.207 Y128.357 E5.04667 F1350.000
G1 X88.715 Y128.463 E5.10173
G1 X89.231 Y128.492 E5.15672
G1 X89.614 Y128.463 E5.19744
G1 X90.249 Y128.317 E5.26674
G1 X90.606 Y128.177 E5.30749
G1 X91.059 Y127.925 E5.36253
G1 X91.566 Y127.515 E5.43179
G1 X91.826 Y127.234 E5.47253
G1 X92.124 Y126.810 E5.52759
G1 X92.355 Y126.347 E5.58263
G1 X92.513 Y125.854 E5.63765
G1 X92.596 Y125.342 E5.69275
G1 X92.601 Y125.207 E5.70706
G1 X92.601 Y124.824 E5.74778
G1 X92.529 Y124.311 E5.80287
G1 X92.380 Y123.814 E5.85792
G1 X92.159 Y123.346 E5.91299
G1 X91.869 Y122.916 E5.96805
G1 X91.780 Y122.815 E5.98237
G1 X91.519 Y122.534 E6.02312
G1 X91.115 Y122.210 E6.07817
G1 X90.667 Y121.949 E6.13331
G1 X90.542 Y121.898 E6.14763
G1 X90.185 Y121.758 E6.18835
G1 X89.679 Y121.642 E6.24347
G1 X89.164 Y121.603 E6.29839
G1 X88.649 Y121.642 E6.35331
G1 X88.143 Y121.758 E6.40844
G1 X87.789 Y121.897 E6.44891
G1 X87.789 Y117.189 E6.94921
G1 X95.336 Y117.189 E7.75116
G1 X95.336 Y132.911 E9.42179
G1 X87.789 Y132.911 E10.22372
G1 X87.789 Y128.300 E10.71369
G1 X87.132 Y126.985 F7800.000
G1 X87.624 Y127.371 E10.78011 F1350.000
G1 X87.988 Y127.575 E10.82456
G1 X88.380 Y127.723 E10.86902
G1 X88.789 Y127.810 E10.91350
G1 X89.207 Y127.835 E10.95794
G1 X89.623 Y127.797 E11.00238
G1 X90.030 Y127.697 E11.04684
G1 X90.340 Y127.575 E11.08224
G1 X90.705 Y127.371 E11.12670
G1 X91.035 Y127.114 E11.17115
G1 X91.323 Y126.811 E11.21561
G1 X91.563 Y126.467 E11.26009
G1 X91.748 Y126.092 E11.30456
G1 X91.875 Y125.694 E11.34901
G1 X91.944 Y125.195 E11.40255
G1 X91.944 Y124.862 E11.43792
G1 X91.885 Y124.447 E11.48242
G1 X91.764 Y124.047 E11.52689
G1 X91.585 Y123.668 E11.57138
G1 X91.350 Y123.321 E11.61586
G1 X91.067 Y123.013 E11.66035
G1 X90.741 Y122.751 E11.70482
G1 X90.378 Y122.541 E11.74935
G1 X89.989 Y122.387 E11.79381
G1 X89.581 Y122.293 E11.83833
G1 X89.164 Y122.262 E11.88272
G1 X88.747 Y122.293 E11.92712
G1 X88.339 Y122.387 E11.97164
G1 X87.950 Y122.541 E12.01611
G1 X87.588 Y122.751 E12.06063
G1 X87.132 Y123.115 E12.12262
G1 X87.132 Y116.532 E12.82213
G1 X95.993 Y116.532 E13.76371
G1 X95.993 Y133.568 E15.57399
G1 X87.132 Y133.568 E16.51556
G1 X87.132 Y127.060 E17.20708
G1 X86.475 Y134.225 F7800.000
G1 X86.475 Y115.875 E19.15700 F945.000
G1 X96.650 Y115.875 E20.23823
G1 X96.650 Y134.225 E22.18814
G1 X86.550 Y134.225 E23.26139
G1 X86.725 Y133.792 F7800.000
G1 X88.285 Y132.454 F7800.000
G1 X88.245 Y132.414 E23.26741 F2700.000
G1 X88.245 Y131.443 E23.37060
G1 X89.257 Y132.454 E23.52255
G1 X90.228 Y132.454 E23.62573
G1 X88.245 Y130.472 E23.92362
G1 X88.245 Y129.501 E24.02682
G1 X91.199 Y132.454 E24.47064
G1 X92.170 Y132.454 E24.57383
G1 X88.626 Y128.911 E25.10632
