; generated by Slic3r 1.1.7 on 2014-10-25 at 14:28:50

; perimeters extrusion width = 0.50mm
; infill extrusion width = 0.70mm
; solid infill extrusion width = 0.70mm
; top infill extrusion width = 0.70mm

G21 ; set units to millimeters
M107
M190 S35 ; wait for bed temperature to be reached
M104 S210 ; set temperature
G28 ; home all axes
G1 Z5 F200; lift nozzle


M109 S210 ; wait for temperature to be reached
G90 ; use absolute coordinates
G92 E0
M82 ; use absolute distances for extrusion
G1 F1800.000 E-5.00000
G92 E0
G1 Z0.350 F7800.000
G1 X67.076 Y77.183 F7800.000
G1 E5.00000 F1800.000
G1 X68.830 Y75.696 E5.24727 F2700.000
G1 X70.985 Y74.895 E5.49455
G1 X72.192 Y74.784 E5.62498
G1 X127.808 Y74.784 E11.60663
G1 X130.072 Y75.181 E11.85390
G1 X132.067 Y76.325 E12.10118 F2700.000
G1 X133.553 Y78.079 E12.34845
G1 X134.354 Y80.234 E12.59572
G1 X134.465 Y81.442 E12.72615
G1 X134.452 Y86.817 E13.30431
G1 X134.284 Y88.267 E13.46129
G1 X133.855 Y89.802 E13.63276
G1 X133.507 Y90.633 E13.72965
G1 X119.767 Y120.311 E17.24707
G1 X118.917 Y121.550 E17.40876
G1 X117.835 Y122.691 E17.57780
G1 X117.441 Y123.027 E17.63357
G1 X116.611 Y123.628 E17.74379
G1 X116.124 Y123.926 E17.80518
G1 X115.255 Y124.363 E17.90982
G1 X114.674 Y124.602 E17.97731
G1 X113.801 Y124.877 E18.07583
G1 X113.140 Y125.033 E18.14888
G1 X112.284 Y125.156 E18.24188
G1 X111.687 Y125.202 E18.30630
G1 X111.267 Y125.216 E18.35148
G1 X88.204 Y125.195 E20.83200
G1 X86.871 Y125.035 E20.97637
G1 X85.335 Y124.606 E21.14793
G1 X83.886 Y123.932 E21.31973
G1 X82.566 Y123.033 E21.49152
G1 X81.426 Y121.952 E21.66051
G1 X81.090 Y121.558 E21.71622
G1 X80.488 Y120.728 E21.82651
G1 X80.191 Y120.242 E21.88769
G1 X79.859 Y119.612 E21.96433
G1 X66.388 Y90.393 E25.42492
G1 X66.150 Y89.814 E25.49219
G1 X65.874 Y88.938 E25.59096
G1 X65.718 Y88.274 E25.66433
G1 X65.595 Y87.422 E25.75698
G1 X65.549 Y86.825 E25.82134
G1 X65.535 Y81.442 E26.40037
G1 X65.932 Y79.177 E26.64764
G1 X67.039 Y77.248 E26.88685
G1 F1800.000 E21.88685
G92 E0
G1 X107.799 Y112.690 F7800.000
G1 E5.00000 F1800.000
G1 X106.964 Y113.344 E5.11412 F1350.000
G1 X106.073 Y113.921 E5.22825
G1 X105.135 Y114.418 E5.34237
G1 X104.157 Y114.829 E5.45648
G1 X103.147 Y115.152 E5.57059
G1 X102.112 Y115.385 E5.68472
G1 X101.060 Y115.526 E5.79884
G1 X100.000 Y115.573 E5.91295
G1 X98.940 Y115.526 E6.02708
G1 X97.888 Y115.385 E6.14118
G1 X96.853 Y115.153 E6.25530
G1 X95.843 Y114.829 E6.36943
G1 X94.865 Y114.418 E6.48354
G1 X93.927 Y113.921 E6.59765
G1 X93.036 Y113.344 E6.71178
G1 X92.201 Y112.690 E6.82590
G1 X91.426 Y111.965 E6.94002
G1 X90.718 Y111.175 E7.05413
G1 X90.083 Y110.325 E7.16827
G1 X89.526 Y109.422 E7.28239
G1 X89.075 Y108.522 E7.39066
G1 X88.661 Y107.487 E7.51059
G1 X88.360 Y106.469 E7.62471
G1 X88.150 Y105.429 E7.73881
G1 X88.033 Y104.374 E7.85296
G1 X88.009 Y103.314 E7.96706
G1 X88.080 Y102.255 E8.08119
G1 X88.235 Y101.260 E8.18947
G1 X88.499 Y100.177 E8.30939
G1 X88.845 Y99.174 E8.42353
G1 X89.278 Y98.205 E8.53765
G1 X89.768 Y97.326 E8.64591
G1 X90.391 Y96.401 E8.76585
G1 X91.063 Y95.580 E8.87997
G1 X91.767 Y94.860 E8.98825
G1 X92.611 Y94.132 E9.10818
G1 X93.475 Y93.516 E9.22229
G1 X94.344 Y93.006 E9.33060
G1 X95.349 Y92.524 E9.45053
G1 X96.344 Y92.156 E9.56464
G1 X97.316 Y91.892 E9.67293
G1 X98.413 Y91.691 E9.79286
G1 X99.469 Y91.597 E9.90695
G1 X100.531 Y91.597 E10.02109
G1 X101.533 Y91.686 E10.12939
G1 X102.632 Y91.878 E10.24929 F1350.000
G1 X103.656 Y92.156 E10.36340
G1 X104.651 Y92.524 E10.47754
G1 X105.610 Y92.978 E10.59166
G1 X106.525 Y93.516 E10.70577
G1 X107.389 Y94.132 E10.81991
G1 X108.195 Y94.822 E10.93404
G1 X108.937 Y95.580 E11.04813
G1 X109.609 Y96.401 E11.16225
G1 X110.205 Y97.278 E11.27636
G1 X110.722 Y98.205 E11.39049
G1 X111.133 Y99.124 E11.49877
G1 X111.501 Y100.177 E11.61872
G1 X111.757 Y101.207 E11.73282
G1 X111.920 Y102.255 E11.84693
G1 X111.991 Y103.314 E11.96108
G1 X111.967 Y104.375 E12.07519
G1 X111.850 Y105.429 E12.18930
G1 X111.640 Y106.469 E12.30341
G1 X111.339 Y107.487 E12.41753
G1 X110.969 Y108.423 E12.52582
G1 X110.474 Y109.422 E12.64576
G1 X109.917 Y110.325 E12.75987
G1 X109.282 Y111.175 E12.87400
G1 X108.574 Y111.966 E12.98811
G1 X107.854 Y112.639 E13.09416
G1 X107.372 Y112.191 F7800.000
G1 X106.582 Y112.809 E13.20202 F945.000
G1 X105.761 Y113.340 E13.30717
G1 X104.854 Y113.823 E13.41773
G1 X103.929 Y114.212 E13.52559
G1 X102.974 Y114.518 E13.63345
G1 X102.020 Y114.732 E13.73860
G1 X101.002 Y114.871 E13.84916
G1 X100.000 Y114.915 E13.95702
G1 X98.998 Y114.871 E14.06488
G1 X98.004 Y114.738 E14.17274
G1 X97.026 Y114.518 E14.28060
G1 X96.071 Y114.212 E14.38846
G1 X95.146 Y113.823 E14.49632
G1 X94.260 Y113.354 E14.60418
G1 X93.418 Y112.809 E14.71204
G1 X92.628 Y112.191 E14.81990
G1 X91.896 Y111.506 E14.92776
G1 X91.227 Y110.758 E15.03562
G1 X90.642 Y109.975 E15.14077
G1 X90.100 Y109.102 E15.25134
G1 X89.651 Y108.205 E15.35920
G1 X89.283 Y107.272 E15.46706
G1 X88.998 Y106.311 E15.57492
G1 X88.800 Y105.328 E15.68277
G1 X88.689 Y104.331 E15.79064
G1 X88.667 Y103.328 E15.89849
G1 X88.733 Y102.328 E16.00636
G1 X88.884 Y101.362 E16.11151
G1 X89.130 Y100.364 E16.22206
G1 X89.457 Y99.415 E16.32993
G1 X89.855 Y98.523 E16.43508
G1 X90.354 Y97.624 E16.54564
G1 X90.918 Y96.795 E16.65350
G1 X91.554 Y96.019 E16.76136
G1 X92.255 Y95.302 E16.86922
G1 X93.017 Y94.650 E16.97708
G1 X93.833 Y94.068 E17.08494
G1 X94.676 Y93.572 E17.19009
G1 X95.604 Y93.130 E17.30065
G1 X96.545 Y92.783 E17.40851
G1 X97.513 Y92.520 E17.51638
G1 X98.475 Y92.347 E17.62152
G1 X99.499 Y92.254 E17.73207
G1 X100.501 Y92.254 E17.83994 F945.000
G1 X101.500 Y92.343 E17.94781
G1 X102.487 Y92.520 E18.05566
G1 X103.455 Y92.783 E18.16351
G1 X104.396 Y93.130 E18.27138
G1 X105.302 Y93.560 E18.37924
G1 X106.167 Y94.068 E18.48710
G1 X106.983 Y94.650 E18.59497
G1 X107.745 Y95.302 E18.70283
G1 X108.447 Y96.019 E18.81068
G1 X109.082 Y96.795 E18.91854
G1 X109.646 Y97.624 E19.02640
G1 X110.134 Y98.500 E19.13427
G1 X110.544 Y99.415 E19.24213
G1 X110.870 Y100.364 E19.34999
G1 X111.112 Y101.337 E19.45784
G1 X111.267 Y102.328 E19.56570
G1 X111.331 Y103.303 E19.67086
G1 X111.311 Y104.331 E19.78142
G1 X111.200 Y105.328 E19.88928
G1 X111.002 Y106.311 E19.99714
G1 X110.717 Y107.272 E20.10499
G1 X110.358 Y108.182 E20.21015
G1 X109.900 Y109.102 E20.32071
G1 X109.373 Y109.955 E20.42857
G1 X108.773 Y110.758 E20.53643
G1 X108.104 Y111.506 E20.64429
G1 X107.426 Y112.140 E20.74408
G1 F1800.000 E15.74408
G92 E0
G1 X99.429 Y91.759 F7800.000
G1 X112.327 Y106.463 F7800.000
G1 E5.00000 F1800.000
G1 X112.778 Y106.528 E5.04894 F1350.000
G1 X112.778 Y115.320 E5.99450
G1 X112.754 Y115.619 E6.02679
G1 X112.699 Y115.849 E6.05220
G1 X112.608 Y116.067 E6.07761
G1 X112.485 Y116.268 E6.10302
G1 X112.331 Y116.448 E6.12846
G1 X112.152 Y116.602 E6.15389
G1 X111.950 Y116.725 E6.17930
G1 X111.732 Y116.816 E6.20471
G1 X111.502 Y116.871 E6.23013
G1 X111.203 Y116.894 E6.26241
G1 X88.797 Y116.894 E8.67224
G1 X88.498 Y116.871 E8.70453
G1 X88.268 Y116.816 E8.72994
G1 X88.050 Y116.725 E8.75535
G1 X87.848 Y116.602 E8.78076
G1 X87.669 Y116.448 E8.80620
G1 X87.515 Y116.268 E8.83163
G1 X87.392 Y116.067 E8.85705
G1 X87.301 Y115.849 E8.88246
G1 X87.246 Y115.619 E8.90786
G1 X87.222 Y115.320 E8.94015
G1 X87.222 Y106.528 E9.88572
G1 X87.673 Y106.463 E9.93466
G1 X88.039 Y107.701 E10.07351
G1 X88.450 Y108.742 E10.19387
G1 X88.951 Y109.742 E10.31423
G1 X89.539 Y110.695 E10.43462
G1 X90.209 Y111.592 E10.55503
G1 X90.956 Y112.425 E10.67539
G1 X91.773 Y113.190 E10.79577
G1 X92.655 Y113.880 E10.91614
G1 X93.594 Y114.489 E11.03655
G1 X94.583 Y115.012 E11.15690
G1 X95.694 Y115.471 E11.28621
G1 X96.681 Y115.787 E11.39764
G1 X97.773 Y116.033 E11.51802
G1 X98.882 Y116.181 E11.63836
G1 X100.000 Y116.230 E11.75876
G1 X101.118 Y116.181 E11.87911
G1 X102.227 Y116.033 E11.99949
G1 X103.320 Y115.787 E12.11990
G1 X104.385 Y115.446 E12.24025
G1 X105.417 Y115.012 E12.36061
G1 X106.406 Y114.489 E12.48100
G1 X107.345 Y113.880 E12.60139
G1 X108.227 Y113.190 E12.72177
G1 X109.044 Y112.425 E12.84213
G1 X109.791 Y111.592 E12.96251
G1 X110.461 Y110.695 E13.08290
G1 X111.048 Y109.743 E13.20326
G1 X111.550 Y108.742 E13.32365
G1 X111.961 Y107.701 E13.44404
G1 X112.306 Y106.535 E13.57481
G1 X112.316 Y100.732 F7800.000
G1 X112.132 Y99.991 E13.65695 F1350.000
G1 X111.767 Y98.932 E13.77734
G1 X111.310 Y97.910 E13.89772
G1 X110.765 Y96.933 E14.01812
G1 X110.135 Y96.008 E14.13848
G1 X109.427 Y95.141 E14.25886
G1 X108.644 Y94.342 E14.37919
G1 X107.794 Y93.614 E14.49959
G1 X106.882 Y92.964 E14.62000
G1 X105.917 Y92.397 E14.74037
G1 X104.906 Y91.918 E14.86074
G1 X103.856 Y91.530 E14.98115
G1 X102.776 Y91.236 E15.10152
G1 X101.675 Y91.039 E15.22183
G1 X100.560 Y90.940 E15.34225
G1 X99.440 Y90.940 E15.46266
G1 X98.326 Y91.039 E15.58298
G1 X97.224 Y91.236 E15.70334
G1 X96.144 Y91.530 E15.82376
G1 X95.094 Y91.918 E15.94412
G1 X94.083 Y92.397 E16.06447
G1 X93.117 Y92.964 E16.18490
G1 X92.206 Y93.614 E16.30527
G1 X91.298 Y94.401 E16.43458
G1 X90.573 Y95.141 E16.54597
G1 X89.865 Y96.008 E16.66636
G1 X89.235 Y96.933 E16.78673
G1 X88.690 Y97.910 E16.90709
G1 X88.233 Y98.932 E17.02747
G1 X87.868 Y99.991 E17.14787
G1 X87.684 Y100.732 E17.23002
G1 X87.222 Y100.675 E17.28007
G1 X87.222 Y92.703 E18.13753
G1 X87.170 Y92.023 E18.21088
G1 X86.995 Y91.276 E18.29343
G1 X86.944 Y91.145 E18.30854
G1 X86.704 Y90.566 E18.37596
G1 X86.305 Y89.911 E18.45848
G1 X85.809 Y89.329 E18.54067
G1 X85.227 Y88.833 E18.62287
G1 X84.693 Y88.506 E18.69026
G1 X84.572 Y88.434 E18.70538
G1 X83.862 Y88.143 E18.78791
G1 X83.115 Y87.968 E18.87046
G1 X82.435 Y87.915 E18.94382
G1 X75.431 Y87.915 E19.69709
G1 X75.132 Y87.892 E19.72938
G1 X74.902 Y87.837 E19.75478
G1 X74.684 Y87.746 E19.78020
G1 X74.483 Y87.623 E19.80561
G1 X74.303 Y87.469 E19.83104
G1 X74.149 Y87.289 E19.85648
G1 X74.026 Y87.088 E19.88189
G1 X73.935 Y86.870 E19.90730
G1 X73.880 Y86.640 E19.93271
G1 X73.857 Y86.341 E19.96500
G1 X73.857 Y83.106 E20.31294
G1 X126.143 Y83.106 E25.93661
G1 X126.143 Y86.341 E26.28455
G1 X126.120 Y86.640 E26.31684
G1 X126.065 Y86.870 E26.34225
G1 X125.974 Y87.088 E26.36766
G1 X125.851 Y87.289 E26.39307
G1 X125.697 Y87.469 E26.41851
G1 X125.517 Y87.623 E26.44394
G1 X125.316 Y87.746 E26.46935
G1 X125.098 Y87.837 E26.49477
G1 X124.868 Y87.892 E26.52017
G1 X124.569 Y87.915 E26.55246
G1 X117.565 Y87.915 E27.30574
G1 X116.885 Y87.968 E27.37910
G1 X116.138 Y88.143 E27.46164
G1 X115.428 Y88.434 E27.54413
G1 X115.307 Y88.506 E27.55925
G1 X114.773 Y88.833 E27.62667
G1 X114.191 Y89.329 E27.70887
G1 X113.695 Y89.911 E27.79107
G1 X113.296 Y90.566 E27.87357
G1 X113.056 Y91.145 E27.94100
G1 X113.005 Y91.276 E27.95611
G1 X112.830 Y92.023 E28.03863
G1 X112.778 Y92.703 E28.11201
G1 X112.778 Y100.675 E28.96948
G1 X112.390 Y100.723 E29.01146
G1 F1800.000 E24.01146
G92 E0
G1 X126.800 Y82.449 F7800.000
G1 E5.00000 F1800.000
G1 X126.800 Y86.367 E5.42139 F1350.000
G1 X126.771 Y86.743 E5.46201
G1 X126.692 Y87.073 E5.49855
G1 X126.562 Y87.387 E5.53508
G1 X126.384 Y87.677 E5.57162
G1 X126.163 Y87.935 E5.60818
G1 X125.905 Y88.156 E5.64473
G1 X125.615 Y88.334 E5.68127
G1 X125.301 Y88.464 E5.71781
G1 X124.971 Y88.543 E5.75434
G1 X124.595 Y88.572 E5.79496
G1 X117.585 Y88.572 E6.54882
G1 X116.892 Y88.638 E6.62378
G1 X116.335 Y88.771 E6.68536
G1 X115.723 Y89.023 E6.75646
G1 X115.159 Y89.367 E6.82758
G1 X114.657 Y89.795 E6.89851
G1 X114.287 Y90.229 E6.95987
G1 X113.885 Y90.861 E7.04043
G1 X113.634 Y91.473 E7.11155
G1 X113.482 Y92.116 E7.18267
G1 X113.435 Y92.723 E7.24815
G1 X113.435 Y115.345 E9.68127
G1 X113.405 Y115.722 E9.72189
G1 X113.326 Y116.052 E9.75843
G1 X113.196 Y116.366 E9.79496
G1 X113.018 Y116.656 E9.83150
G1 X112.797 Y116.914 E9.86806
G1 X112.539 Y117.135 E9.90462
G1 X112.249 Y117.312 E9.94115
G1 X111.936 Y117.442 E9.97768
G1 X111.605 Y117.522 E10.01422
G1 X111.229 Y117.551 E10.05485
G1 X88.771 Y117.551 E12.47023
G1 X88.395 Y117.522 E12.51085
G1 X88.064 Y117.442 E12.54739
G1 X87.751 Y117.312 E12.58393
G1 X87.461 Y117.135 E12.62046
G1 X87.203 Y116.914 E12.65702
G1 X86.982 Y116.656 E12.69358
G1 X86.804 Y116.366 E12.73012
G1 X86.674 Y116.052 E12.76665
G1 X86.595 Y115.722 E12.80318
G1 X86.565 Y115.345 E12.84381
G1 X86.565 Y92.723 E15.27692
G1 X86.518 Y92.116 E15.34238
G1 X86.334 Y91.390 E15.42299
G1 X86.115 Y90.861 E15.48456
G1 X85.771 Y90.297 E15.55567
G1 X85.343 Y89.795 E15.62659
G1 X84.841 Y89.367 E15.69751
G1 X84.353 Y89.068 E15.75906
G1 X83.665 Y88.771 E15.83965
G1 X83.021 Y88.619 E15.91078
G1 X82.415 Y88.572 E15.97625
G1 X75.405 Y88.572 E16.73011
G1 X75.029 Y88.543 E16.77073
G1 X74.699 Y88.464 E16.80726
G1 X74.385 Y88.334 E16.84380
G1 X74.095 Y88.156 E16.88034
G1 X73.837 Y87.935 E16.91690
G1 X73.616 Y87.677 E16.95345
G1 X73.438 Y87.387 E16.98999
G1 X73.308 Y87.073 E17.02653
G1 X73.229 Y86.743 E17.06306
G1 X73.200 Y86.366 E17.10369
G1 X73.200 Y82.449 E17.52507
G1 X126.725 Y82.449 E23.28203
G1 X127.458 Y81.792 F7800.000
G1 X127.458 Y86.392 E23.77686 F945.000
G1 X127.422 Y86.846 E23.82582
G1 X127.318 Y87.277 E23.87349
G1 X127.149 Y87.686 E23.92114
G1 X126.917 Y88.064 E23.96880
G1 X126.629 Y88.401 E24.01649
G1 X126.292 Y88.689 E24.06417
G1 X125.914 Y88.921 E24.11183
G1 X125.505 Y89.090 E24.15949
G1 X125.074 Y89.194 E24.20714
G1 X124.620 Y89.230 E24.25611
G1 X117.606 Y89.230 E25.01055
G1 X117.072 Y89.271 E25.06813
G1 X116.497 Y89.413 E25.13181
G1 X116.019 Y89.611 E25.18752
G1 X115.545 Y89.901 E25.24723
G1 X115.123 Y90.261 E25.30688
G1 X114.787 Y90.655 E25.36252
G1 X114.474 Y91.157 E25.42618
G1 X114.262 Y91.670 E25.48590
G1 X114.133 Y92.210 E25.54561
G1 X114.092 Y92.744 E25.60319
G1 X114.092 Y115.371 E28.03689
G1 X114.056 Y115.825 E28.08585
G1 X113.953 Y116.256 E28.13351
G1 X113.783 Y116.665 E28.18117
G1 X113.551 Y117.043 E28.22883
G1 X113.264 Y117.380 E28.27651
G1 X112.926 Y117.668 E28.32420
G1 X112.549 Y117.900 E28.37186
G1 X112.139 Y118.069 E28.41951
G1 X111.708 Y118.173 E28.46717
G1 X111.254 Y118.208 E28.51614
G1 X88.746 Y118.208 E30.93707
G1 X88.292 Y118.173 E30.98604
G1 X87.861 Y118.069 E31.03370
G1 X87.451 Y117.900 E31.08136
G1 X87.074 Y117.668 E31.12902
G1 X86.736 Y117.380 E31.17670
G1 X86.449 Y117.043 E31.22438
G1 X86.217 Y116.665 E31.27204
G1 X86.047 Y116.256 E31.31970
G1 X85.944 Y115.825 E31.36736
G1 X85.908 Y115.371 E31.41633
G1 X85.908 Y92.744 E33.85002
G1 X85.867 Y92.210 E33.90760
G1 X85.725 Y91.635 E33.97127
G1 X85.526 Y91.157 E34.02699
G1 X85.237 Y90.683 E34.08670
G1 X84.877 Y90.261 E34.14634
G1 X84.455 Y89.901 E34.20599
G1 X84.013 Y89.631 E34.26170
G1 X83.468 Y89.400 E34.32537
G1 X82.928 Y89.271 E34.38509
G1 X82.394 Y89.230 E34.44267
G1 X75.380 Y89.230 E35.19711
G1 X74.926 Y89.194 E35.24607
G1 X74.495 Y89.090 E35.29373
G1 X74.086 Y88.921 E35.34139
G1 X73.708 Y88.689 E35.38905
G1 X73.371 Y88.401 E35.43673
G1 X73.083 Y88.064 E35.48442
G1 X72.851 Y87.686 E35.53208
G1 X72.682 Y87.277 E35.57973
G1 X72.578 Y86.846 E35.62739
G1 X72.542 Y86.392 E35.67636
G1 X72.542 Y81.792 E36.17119
G1 X127.383 Y81.792 E42.06949
G1 X127.208 Y82.225 F7800.000
G1 F1800.000 E37.06949
G92 E0
G1 X96.450 Y116.193 F7800.000
G1 E5.00000 F1800.000
G1 X96.498 Y116.241 E5.00736 F2700.000
G1 X95.650 Y116.438 E5.10101
G1 X94.813 Y115.601 E5.22829
G1 X94.605 Y116.438 E5.32104
G1 X92.473 Y114.306 E5.64539
G1 X92.515 Y116.438 F7800.000
G1 X87.679 Y111.602 E6.38097 F2700.000
G1 X87.679 Y112.647 E6.49338
G1 X91.470 Y116.438 E7.06998
G1 X90.424 Y116.438 E7.18239
G1 X87.679 Y113.692 E7.60002
G1 X87.679 Y114.737 E7.71243
G1 X89.379 Y116.438 E7.97108
G1 X88.144 Y116.247 E8.10556
G1 X87.869 Y115.973 E8.14727
G1 X89.289 Y111.121 F7800.000
G1 X87.679 Y109.512 E8.39213 F2700.000
G1 X87.963 Y108.751 E8.47950
G1 X87.815 Y108.603 E8.50193
G1 X87.679 Y110.557 F7800.000
G1 X93.560 Y116.438 E9.39648 F2700.000
G1 X87.423 Y106.167 F7800.000
G1 X87.361 Y105.532 E9.49837 F900.000
G1 X87.301 Y104.441 E9.67268
G1 X87.287 Y103.315 E9.85231
G1 X87.324 Y102.190 E10.03197
G1 X87.413 Y101.030 E10.21770
G1 F1800.000 E5.21770
G92 E0
G1 X103.526 Y116.394 F7800.000
G1 E5.00000 F1800.000
G1 X103.570 Y116.438 E5.00669 F2700.000
G1 X104.115 Y116.012 E5.08117
G1 X104.542 Y116.438 E5.14601
G1 X104.830 Y115.754 E5.22582
G1 X105.514 Y116.438 E5.32983
