; generated by Slic3r 1.1.7 on 2014-10-24 at 22:01:05

; perimeters extrusion width = 0.50mm
; infill extrusion width = 1.02mm
; solid infill extrusion width = 0.85mm
; top infill extrusion width = 0.85mm

G21 ; set units to millimeters
M107
M190 S35 ; wait for bed temperature to be reached
M104 S210 ; set temperature
G28 ; home all axes
G1 Z5 F200; lift nozzle


M109 S210 ; wait for temperature to be reached
G90 ; use absolute coordinates
G92 E0
M82 ; use absolute distances for extrusion
G1 F1800.000 E-5.00000
G92 E0
G1 Z0.350 F7800.000
G1 X43.654 Y42.387 F7800.000
G1 E5.00000 F1800.000
G1 X45.431 Y40.928 E5.24727 F2700.000
G1 X48.704 Y40.068 E5.61118
G1 X86.804 Y40.068 E9.70900
G1 X89.068 Y40.465 E9.95628
G1 X91.063 Y41.609 E10.20355 F2700.000
G1 X92.549 Y43.363 E10.45083
G1 X93.350 Y45.518 E10.69810
G1 X93.461 Y46.725 E10.82853
G1 X93.460 Y72.203 E13.56878
G1 X92.281 Y173.054 E24.41650
G1 X91.858 Y175.314 E24.66377
G1 X90.691 Y177.295 E24.91105
G1 X88.920 Y178.761 E25.15832
G1 X85.625 Y179.633 E25.52495
G1 X47.525 Y179.633 E29.62277
G1 X45.260 Y179.236 E29.87005
G1 X43.266 Y178.093 E30.11732
G1 X41.779 Y176.339 E30.36460
G1 X40.978 Y174.184 E30.61187
G1 X40.868 Y172.976 E30.74230
G1 X40.868 Y122.072 E36.21725
G1 X42.047 Y46.621 E44.33334
G1 X42.480 Y44.363 E44.58061
G1 X43.616 Y42.451 E44.81982
G1 F1800.000 E39.81982
G92 E0
G1 X76.906 Y61.461 F7800.000
G1 E5.00000 F1800.000
G1 X76.422 Y62.000 E5.07789 F1350.000
G1 X75.836 Y62.425 E5.15578
G1 X75.353 Y62.640 E5.21262
G1 X75.174 Y62.720 E5.23366
G1 X74.466 Y62.870 E5.31154
G1 X73.742 Y62.870 E5.38943
G1 X73.033 Y62.720 E5.46733
G1 X72.372 Y62.425 E5.54521
G1 X71.786 Y62.000 E5.62309
G1 X71.301 Y61.461 E5.70097
G1 X70.939 Y60.834 E5.77886
G1 X70.715 Y60.145 E5.85676
G1 X70.640 Y59.425 E5.93464
G1 X70.715 Y58.705 E6.01255
G1 X70.939 Y58.016 E6.09043
G1 X71.301 Y57.389 E6.16833
G1 X71.786 Y56.851 E6.24621
G1 X72.214 Y56.540 E6.30307
G1 X72.372 Y56.425 E6.32410
G1 X73.033 Y56.131 E6.40198
G1 X73.742 Y55.980 E6.47988
G1 X74.466 Y55.980 E6.55776
G1 X74.983 Y56.090 E6.61461
G1 X75.174 Y56.131 E6.63564 F1350.000
G1 X75.836 Y56.425 E6.71354
G1 X76.422 Y56.851 E6.79142
G1 X76.906 Y57.389 E6.86931
G1 X77.268 Y58.016 E6.94719
G1 X77.492 Y58.705 E7.02509
G1 X77.568 Y59.425 E7.10297
G1 X77.492 Y60.146 E7.18089
G1 X77.268 Y60.834 E7.25876
G1 X76.944 Y61.396 E7.32859
G1 X76.372 Y61.073 F7800.000
G1 X75.979 Y61.509 E7.39162 F1350.000
G1 X75.505 Y61.853 E7.45466
G1 X75.086 Y62.040 E7.50408
G1 X74.970 Y62.091 E7.51768
G1 X74.397 Y62.213 E7.58071
G1 X73.811 Y62.213 E7.64375
G1 X73.237 Y62.091 E7.70679
G1 X72.702 Y61.853 E7.76981
G1 X72.228 Y61.509 E7.83284
G1 X71.836 Y61.073 E7.89587
G1 X71.543 Y60.565 E7.95891
G1 X71.362 Y60.008 E8.02194
G1 X71.300 Y59.425 E8.08497
G1 X71.362 Y58.842 E8.14802
G1 X71.543 Y58.285 E8.21104
G1 X71.836 Y57.777 E8.27408
G1 X72.228 Y57.342 E8.33711
G1 X72.600 Y57.072 E8.38654
G1 X72.702 Y56.997 E8.40015
G1 X73.237 Y56.759 E8.46317
G1 X73.811 Y56.637 E8.52621
G1 X74.397 Y56.637 E8.58924 F1350.000
G1 X74.970 Y56.759 E8.65227
G1 X75.390 Y56.946 E8.70170
G1 X75.505 Y56.997 E8.71531
G1 X75.979 Y57.342 E8.77833
G1 X76.372 Y57.777 E8.84137
G1 X76.665 Y58.285 E8.90439
G1 X76.846 Y58.842 E8.96744
G1 X76.907 Y59.425 E9.03046
G1 X76.846 Y60.008 E9.09351
G1 X76.665 Y60.565 E9.15653
G1 X76.409 Y61.008 E9.21151
G1 X75.837 Y60.685 F7800.000
G1 X75.537 Y61.018 E9.25968 F945.000
G1 X75.175 Y61.281 E9.30786
G1 X74.818 Y61.440 E9.34986
G1 X74.328 Y61.556 E9.40409
G1 X73.880 Y61.556 E9.45227
G1 X73.442 Y61.463 E9.50045
G1 X73.032 Y61.281 E9.54862
G1 X72.670 Y61.018 E9.59680
G1 X72.370 Y60.685 E9.64498
G1 X72.146 Y60.297 E9.69315
G1 X72.008 Y59.871 E9.74133
G1 X71.961 Y59.425 E9.78951
G1 X72.008 Y58.980 E9.83769
G1 X72.146 Y58.554 E9.88586
G1 X72.370 Y58.166 E9.93404
G1 X72.670 Y57.833 E9.98222
G1 X72.986 Y57.603 E10.02422
G1 X73.442 Y57.387 E10.07845
G1 X73.880 Y57.294 E10.12663
G1 X74.328 Y57.294 E10.17481
G1 X74.710 Y57.376 E10.21681
G1 X75.175 Y57.570 E10.27104 F945.000
G1 X75.537 Y57.833 E10.31921
G1 X75.837 Y58.166 E10.36739
G1 X76.061 Y58.554 E10.41557
G1 X76.200 Y58.980 E10.46375
G1 X76.246 Y59.425 E10.51192
G1 X76.199 Y59.871 E10.56011
G1 X76.061 Y60.297 E10.60828
G1 X75.875 Y60.620 E10.64839
G1 F1800.000 E5.64839
G92 E0
G1 X74.769 Y56.879 F7800.000
G1 X63.136 Y81.825 F7800.000
G1 E5.00000 F1800.000
G1 X63.722 Y82.251 E5.07788 F1350.000
G1 X64.206 Y82.789 E5.15577
G1 X64.568 Y83.416 E5.23366
G1 X64.792 Y84.105 E5.31155
G1 X64.868 Y84.825 E5.38943
G1 X64.792 Y85.546 E5.46734
G1 X64.568 Y86.234 E5.54521
G1 X64.206 Y86.861 E5.62311
G1 X63.722 Y87.400 E5.70100
G1 X63.136 Y87.825 E5.77889
G1 X62.653 Y88.040 E5.83574
G1 X62.474 Y88.120 E5.85677
G1 X61.766 Y88.270 E5.93466
G1 X61.042 Y88.270 E6.01255
G1 X60.333 Y88.120 E6.09043
G1 X59.672 Y87.825 E6.16833
G1 X59.086 Y87.400 E6.24621
G1 X58.601 Y86.861 E6.32410
G1 X58.239 Y86.234 E6.40198
G1 X58.015 Y85.545 E6.47988
G1 X57.940 Y84.825 E6.55775
G1 X58.015 Y84.105 E6.63567
G1 X58.239 Y83.416 E6.71354
G1 X58.601 Y82.789 E6.79144
G1 X59.086 Y82.251 E6.86933
G1 X59.672 Y81.825 E6.94721
G1 X60.333 Y81.531 E7.02510
G1 X61.042 Y81.380 E7.10299
G1 X61.766 Y81.380 E7.18088
G1 X62.283 Y81.490 E7.23773
G1 X62.474 Y81.531 E7.25876 F1350.000
G1 X63.067 Y81.795 E7.32859
G1 X62.805 Y82.397 F7800.000
G1 X63.279 Y82.742 E7.39162 F1350.000
G1 X63.672 Y83.177 E7.45465
G1 X63.965 Y83.685 E7.51768
G1 X64.146 Y84.242 E7.58072
G1 X64.207 Y84.825 E7.64374
G1 X64.146 Y85.408 E7.70679
G1 X63.965 Y85.965 E7.76982
G1 X63.672 Y86.473 E7.83286
G1 X63.279 Y86.909 E7.89589
G1 X62.805 Y87.253 E7.95892
G1 X62.386 Y87.440 E8.00835
G1 X62.270 Y87.491 E8.02195
G1 X61.697 Y87.613 E8.08498
G1 X61.111 Y87.613 E8.14801
G1 X60.537 Y87.491 E8.21105
G1 X60.002 Y87.253 E8.27408
G1 X59.528 Y86.909 E8.33711
G1 X59.136 Y86.473 E8.40014
G1 X58.843 Y85.965 E8.46317
G1 X58.662 Y85.408 E8.52621
G1 X58.600 Y84.825 E8.58923
G1 X58.648 Y84.368 E8.63868
G1 X58.662 Y84.242 E8.65229
G1 X58.843 Y83.685 E8.71531
G1 X59.136 Y83.177 E8.77835
G1 X59.528 Y82.742 E8.84138
G1 X60.002 Y82.397 E8.90441
G1 X60.537 Y82.159 E8.96744
G1 X61.111 Y82.037 E9.03048
G1 X61.697 Y82.037 E9.09351 F1350.000
G1 X62.270 Y82.159 E9.15654
G1 X62.737 Y82.367 E9.21151
G1 X62.475 Y82.970 F7800.000
G1 X62.837 Y83.233 E9.25968 F945.000
G1 X63.137 Y83.566 E9.30786
G1 X63.361 Y83.954 E9.35604
G1 X63.499 Y84.380 E9.40422
G1 X63.546 Y84.825 E9.45239
G1 X63.499 Y85.271 E9.50057
G1 X63.361 Y85.697 E9.54874
G1 X63.137 Y86.085 E9.59692
G1 X62.837 Y86.417 E9.64510
G1 X62.475 Y86.681 E9.69328
G1 X62.118 Y86.840 E9.73528
G1 X61.628 Y86.956 E9.78951
G1 X61.180 Y86.956 E9.83769
G1 X60.742 Y86.863 E9.88586
G1 X60.332 Y86.681 E9.93404
G1 X59.970 Y86.418 E9.98222
G1 X59.670 Y86.085 E10.03039
G1 X59.446 Y85.697 E10.07857
G1 X59.308 Y85.271 E10.12675
G1 X59.261 Y84.825 E10.17492
G1 X59.308 Y84.380 E10.22311
G1 X59.446 Y83.954 E10.27128
G1 X59.670 Y83.566 E10.31946
G1 X59.970 Y83.233 E10.36764
G1 X60.332 Y82.970 E10.41581
G1 X60.742 Y82.787 E10.46399
G1 X61.180 Y82.694 E10.51217
G1 X61.628 Y82.694 E10.56034
G1 X62.010 Y82.776 E10.60234
G1 X62.407 Y82.939 E10.64851 F945.000
G1 X62.120 Y82.361 F7800.000
G1 X72.440 Y70.461 F7800.000
G1 X72.440 Y95.861 E13.38040 F1350.000
G1 X50.368 Y95.861 E15.75430
G1 X50.368 Y48.389 E20.86009
G1 X85.140 Y48.389 E24.59994
G1 X85.140 Y70.461 E26.97385
G1 X72.515 Y70.461 E28.33172
G1 X73.097 Y71.118 F7800.000
G1 X73.097 Y96.518 E31.06360 F1350.000
G1 X49.711 Y96.518 E33.57885
G1 X49.711 Y47.732 E38.82599
G1 X85.797 Y47.732 E42.70718
G1 X85.797 Y71.118 E45.22243
G1 X73.172 Y71.118 E46.58030
G1 X73.754 Y71.775 F7800.000
G1 X73.754 Y97.175 E49.31219 F945.000
G1 X49.054 Y97.175 E51.96878
G1 X49.054 Y47.075 E57.35726
G1 X86.454 Y47.075 E61.37979
G1 X86.454 Y71.775 E64.03639
G1 X73.829 Y71.775 E65.39426
G1 X73.254 Y71.775 F7800.000
G1 X71.983 Y90.367 F7800.000
G1 X65.056 Y83.440 E66.44797 F2700.000
G1 X65.305 Y84.624 E66.57810
G1 X71.983 Y91.301 E67.59382
G1 X71.983 Y92.235 E67.69429
G1 X65.255 Y85.507 E68.71770
G1 X65.048 Y86.234 E68.79902
G1 X71.983 Y93.170 E69.85390
G1 X71.983 Y94.104 E69.95437
G1 X64.736 Y86.856 E71.05672
G1 X64.340 Y87.395 E71.12858
G1 X71.983 Y95.038 E72.29115
G1 X71.416 Y95.405 E72.36382
G1 X63.868 Y87.857 E73.51185
G1 X63.320 Y88.243 E73.58396
G1 X70.482 Y95.405 E74.67332
G1 X69.547 Y95.405 E74.77380
G1 X62.673 Y88.531 E75.81938
G1 X61.914 Y88.705 E75.90320
G1 X68.613 Y95.405 E76.92220
G1 X67.679 Y95.405 E77.02268
G1 X61.001 Y88.727 E78.03844
G1 X59.660 Y88.319 E78.18923
G1 X66.745 Y95.405 E79.26695
G1 X65.811 Y95.405 E79.36742
G1 X50.824 Y80.418 E81.64696
G1 X50.824 Y79.484 E81.74743
G1 X57.900 Y86.560 E82.82374
G1 X57.526 Y85.251 E82.97018
G1 X50.824 Y78.550 E83.98949
G1 X50.824 Y77.616 E84.08996
G1 X57.533 Y84.325 E85.11046
G1 X57.710 Y83.567 E85.19411
G1 X50.824 Y76.681 E86.24150
G1 X50.824 Y75.747 E86.34198
G1 X57.998 Y82.921 E87.43315
G1 X58.372 Y82.361 E87.50559
G1 X50.824 Y74.813 E88.65370
G1 X50.824 Y73.879 E88.75417
G1 X58.823 Y81.878 E89.97083
G1 X59.364 Y81.485 E90.04276
G1 X50.824 Y72.945 E91.34172
G1 X50.824 Y72.011 E91.44219
G1 X59.995 Y81.182 E92.83715
G1 X60.728 Y80.980 E92.91888
G1 X50.824 Y71.076 E94.42530
G1 X50.824 Y70.142 E94.52577
G1 X61.606 Y80.924 E96.16569
G1 X62.786 Y81.170 E96.29539
G1 X50.824 Y69.208 E98.11486
G1 X50.824 Y68.274 E98.21533
G1 X71.983 Y89.433 E101.43371
G1 X71.983 Y88.499 E101.53418
G1 X50.824 Y67.340 E104.75257
G1 X50.824 Y66.406 E104.85304
G1 X71.983 Y87.565 E108.07142
G1 X71.983 Y86.630 E108.17189
G1 X50.824 Y65.472 E111.39028
G1 X50.824 Y64.537 E111.49075
G1 X71.983 Y85.696 E114.70913
G1 X71.983 Y84.762 E114.80960
G1 X50.824 Y63.603 E118.02799
G1 X50.824 Y62.669 E118.12846
G1 X71.983 Y83.828 E121.34684
G1 X71.983 Y82.894 E121.44731
G1 X50.824 Y61.735 E124.66570
G1 X50.824 Y60.801 E124.76617
G1 X71.983 Y81.960 E127.98455
G1 X71.983 Y81.026 E128.08502
G1 X50.824 Y59.867 E131.30340
G1 X50.824 Y58.932 E131.40388
G1 X71.983 Y80.091 E134.62226
G1 X71.983 Y79.157 E134.72273
G1 X50.824 Y57.998 E137.94111
G1 X50.824 Y57.064 E138.04159
G1 X71.983 Y78.223 E141.25997
G1 X71.983 Y77.289 E141.36044
G1 X50.824 Y56.130 E144.57882
G1 X50.824 Y55.196 E144.67930
G1 X71.983 Y76.355 E147.89768
G1 X71.983 Y75.421 E147.99815
G1 X50.824 Y54.262 E151.21653
G1 X50.824 Y53.327 E151.31701
G1 X71.983 Y74.486 E154.53539
G1 X71.983 Y73.552 E154.63586
G1 X50.824 Y52.393 E157.85424
G1 X50.824 Y51.459 E157.95472
G1 X71.983 Y72.618 E161.17310
G1 X71.983 Y71.684 E161.27357
G1 X50.824 Y50.525 E164.49195
G1 X50.824 Y49.591 E164.59243
G1 X71.983 Y70.750 E167.81081
G1 X72.172 Y70.005 E167.89348
G1 X51.013 Y48.846 E171.11186
G1 X51.948 Y48.846 E171.21233
G1 X73.106 Y70.005 E174.43072
G1 X74.041 Y70.005 E174.53119
G1 X52.882 Y48.846 E177.74957
G1 X53.816 Y48.846 E177.85004
G1 X74.975 Y70.005 E181.06843
G1 X75.909 Y70.005 E181.16890
G1 X54.750 Y48.846 E184.38728
G1 X55.684 Y48.846 E184.48775
G1 X76.843 Y70.005 E187.70613
G1 X77.777 Y70.005 E187.80661
G1 X56.618 Y48.846 E191.02499
G1 X68.762 Y48.846 F7800.000
G1 X75.848 Y55.931 E192.10271 F2700.000
G1 X74.506 Y55.524 E192.25349
G1 X67.828 Y48.846 E193.26926
G1 X66.894 Y48.846 E193.36973
G1 X73.593 Y55.545 E194.38874
G1 X72.834 Y55.720 E194.47255
G1 X65.960 Y48.846 E195.51814
G1 X65.026 Y48.846 E195.61862
G1 X72.188 Y56.008 E196.70798
G1 X71.639 Y56.393 E196.78009
G1 X64.092 Y48.846 E197.92812
G1 X63.157 Y48.846 E198.02859
G1 X71.167 Y56.856 E199.24695
G1 X70.772 Y57.394 E199.31882
G1 X62.223 Y48.846 E200.61904
G1 X61.289 Y48.846 E200.71952
G1 X70.459 Y58.016 E202.11436
G1 X70.253 Y58.743 E202.19568
G1 X60.355 Y48.846 E203.70114
G1 X59.421 Y48.846 E203.80162
G1 X70.202 Y59.627 E205.44149
G1 X70.452 Y60.811 E205.57162
G1 X58.487 Y48.846 E207.39157
G1 X57.552 Y48.846 E207.49204
G1 X78.711 Y70.005 E210.71042
G1 X79.646 Y70.005 E210.81090
G1 X72.721 Y63.080 E211.86413
G1 X73.902 Y63.327 E211.99383
G1 X80.580 Y70.005 E213.00959
G1 X81.514 Y70.005 E213.11007
G1 X74.779 Y63.270 E214.13442
G1 X75.512 Y63.069 E214.21615
G1 X82.448 Y70.005 E215.27114
G1 X83.382 Y70.005 E215.37162
G1 X76.143 Y62.766 E216.47270
G1 X76.684 Y62.373 E216.54463
G1 X84.316 Y70.005 E217.70550
G1 X84.683 Y69.437 E217.77816
G1 X77.135 Y61.889 E218.92628
G1 X77.509 Y61.329 E218.99871
G1 X84.683 Y68.503 E220.08989
G1 X84.683 Y67.569 E220.19036
G1 X77.797 Y60.683 E221.23775
G1 X77.974 Y59.926 E221.32140
G1 X84.683 Y66.635 E222.34190
G1 X84.683 Y65.701 E222.44237
G1 X77.982 Y58.999 E223.46167
G1 X77.607 Y57.690 E223.60811
G1 X84.683 Y64.766 E224.68442
G1 X84.683 Y63.832 E224.78489
G1 X69.697 Y48.846 E227.06442
G1 X70.631 Y48.846 E227.16490
G1 X84.683 Y62.898 E229.30234
G1 X84.683 Y61.964 E229.40281
G1 X71.565 Y48.846 E231.39817
G1 X72.499 Y48.846 E231.49864
G1 X84.683 Y61.030 E233.35190
G1 X84.683 Y60.096 E233.45237
G1 X73.433 Y48.846 E235.16355
G1 X74.367 Y48.846 E235.26402
G1 X84.683 Y59.162 E236.83310
G1 X84.683 Y58.227 E236.93357
G1 X75.302 Y48.846 E238.36056
G1 X76.236 Y48.846 E238.46104
G1 X84.683 Y57.293 E239.74594
G1 X84.683 Y56.359 E239.84641
G1 X77.170 Y48.846 E240.98922
G1 X78.104 Y48.846 E241.08969
G1 X84.683 Y55.425 E242.09041
G1 X84.683 Y54.491 E242.19088
G1 X79.038 Y48.846 E243.04951
G1 X79.972 Y48.846 E243.14999
G1 X84.683 Y53.557 E243.86652
G1 X84.683 Y52.622 E243.96700
G1 X80.907 Y48.846 E244.54144
G1 X81.841 Y48.846 E244.64192
G1 X84.683 Y51.688 E245.07427
G1 X84.683 Y50.754 E245.17475
G1 X82.775 Y48.846 E245.46501
G1 X83.709 Y48.846 E245.56548
G1 X84.683 Y49.820 E245.71366
G1 X84.683 Y48.886 E245.81413
G1 X84.643 Y48.846 E245.82022
G1 F1800.000 E240.82022
G92 E0
G1 X64.877 Y95.405 F7800.000
G1 E5.00000 F1800.000
G1 X50.824 Y81.352 E7.13744 F2700.000
G1 X50.824 Y82.286 E7.23792
G1 X63.942 Y95.405 E9.23327
G1 X63.008 Y95.405 E9.33374
G1 X50.824 Y83.221 E11.18700
G1 X50.824 Y84.155 E11.28748
G1 X62.074 Y95.405 E12.99865
G1 X61.140 Y95.405 E13.09912
G1 X50.824 Y85.089 E14.66820
G1 X50.824 Y86.023 E14.76868
G1 X60.206 Y95.405 E16.19567
G1 X59.272 Y95.405 E16.29614
G1 X50.824 Y86.957 E17.58104
G1 X50.824 Y87.891 E17.68151
G1 X58.338 Y95.405 E18.82432
G1 X57.403 Y95.405 E18.92480
G1 X50.824 Y88.826 E19.92551
G1 X50.824 Y89.760 E20.02599
G1 X56.469 Y95.405 E20.88461
G1 X55.535 Y95.405 E20.98509
G1 X50.824 Y90.694 E21.70163
G1 X50.824 Y91.628 E21.80210
G1 X54.601 Y95.405 E22.37655
G1 X53.667 Y95.405 E22.47702
G1 X50.824 Y92.562 E22.90937
G1 X50.824 Y93.496 E23.00985
G1 X52.733 Y95.405 E23.30011
G1 X51.798 Y95.405 E23.40059
G1 X50.824 Y94.431 E23.54876
G1 X50.824 Y95.365 E23.64923
G1 X50.864 Y95.405 E23.65532
G1 F1800.000 E18.65532
G92 E0
G1 X59.154 Y131.582 F7800.000
G1 E5.00000 F1800.000
G1 X59.863 Y131.431 E5.07790 F1350.000
G1 X60.587 Y131.431 E5.15578
G1 X61.104 Y131.541 E5.21263
G1 X61.295 Y131.582 E5.23366 F1350.000
G1 X61.957 Y131.876 E5.31156
G1 X62.542 Y132.302 E5.38944
G1 X63.027 Y132.840 E5.46734
G1 X63.389 Y133.467 E5.54522
G1 X63.613 Y134.156 E5.62312
G1 X63.689 Y134.876 E5.70099
G1 X63.613 Y135.597 E5.77891
G1 X63.389 Y136.285 E5.85677
G1 X63.027 Y136.912 E5.93467
G1 X62.543 Y137.451 E6.01255
G1 X61.957 Y137.876 E6.09045
G1 X61.295 Y138.171 E6.16833
G1 X60.587 Y138.321 E6.24623
G1 X59.863 Y138.321 E6.32411
G1 X59.154 Y138.171 E6.40199
G1 X58.493 Y137.876 E6.47988
G1 X57.907 Y137.451 E6.55777
G1 X57.422 Y136.912 E6.63567
G1 X57.060 Y136.285 E6.71355
G1 X56.836 Y135.596 E6.79144
G1 X56.761 Y134.876 E6.86931
G1 X56.816 Y134.350 E6.92620
G1 X56.836 Y134.156 E6.94723
G1 X57.060 Y133.467 E7.02510
G1 X57.422 Y132.840 E7.10300
G1 X57.907 Y132.302 E7.18088
G1 X58.493 Y131.876 E7.25878
G1 X59.086 Y131.612 E7.32859
G1 X59.358 Y132.210 F7800.000
G1 X59.932 Y132.088 E7.39163 F1350.000
G1 X60.518 Y132.088 E7.45466 F1350.000
G1 X61.091 Y132.210 E7.51768
G1 X61.626 Y132.449 E7.58072
G1 X62.100 Y132.793 E7.64375
G1 X62.493 Y133.229 E7.70679
G1 X62.786 Y133.736 E7.76982
G1 X62.967 Y134.293 E7.83286
G1 X63.028 Y134.876 E7.89588
G1 X62.967 Y135.459 E7.95893
G1 X62.786 Y136.016 E8.02195
G1 X62.556 Y136.415 E8.07139
G1 X62.493 Y136.524 E8.08499
G1 X62.100 Y136.960 E8.14802
G1 X61.626 Y137.304 E8.21106
G1 X61.091 Y137.542 E8.27409
