; generated by Slic3r 1.1.7 on 2014-11-08 at 00:13:17

; perimeters extrusion width = 0.50mm
; infill extrusion width = 1.02mm
; solid infill extrusion width = 0.85mm
; top infill extrusion width = 0.85mm

G21 ; set units to millimeters
M107
M190 S35 ; wait for bed temperature to be reached
M104 S210 ; set temperature
G28 ; home all axes
G1 Z5 F200; lift nozzle


M109 S210 ; wait for temperature to be reached
G90 ; use absolute coordinates
G92 E0
M82 ; use absolute distances for extrusion
G1 F1800.000 E-5.00000
G92 E0
G1 Z0.350 F7800.000
G1 X75.590 Y82.915 F7800.000
G1 E5.00000 F1800.000
G1 X76.673 Y81.977 E5.16809 F2700.000
G1 X77.291 Y81.519 E5.25828
G1 X77.842 Y81.150 E5.33609
G1 X78.500 Y80.755 E5.42604
G1 X79.086 Y80.441 E5.50409
G1 X80.394 Y79.858 E5.67203
G1 X81.753 Y79.406 E5.83998
G1 X83.149 Y79.089 E6.00792
G1 X84.570 Y78.911 E6.17587
G1 X85.674 Y78.865 E6.30556
G1 X114.652 Y78.873 E9.70453
G1 X116.080 Y78.975 E9.87248 F2700.000
G1 X117.492 Y79.217 E10.04042
G1 X118.237 Y79.404 E10.13050
G1 X118.872 Y79.596 E10.20841
G1 X119.596 Y79.855 E10.29859
G1 X120.209 Y80.108 E10.37641
G1 X120.904 Y80.437 E10.46653
G1 X121.490 Y80.749 E10.54440
G1 X122.701 Y81.513 E10.71236
G1 X123.832 Y82.391 E10.88030
G1 X124.871 Y83.376 E11.04824
G1 X125.808 Y84.458 E11.21619
G1 X126.265 Y85.075 E11.30619
G1 X126.635 Y85.627 E11.38419
G1 X127.344 Y86.872 E11.55213
G1 X127.927 Y88.179 E11.72007
G1 X128.185 Y88.902 E11.81011
G1 X128.379 Y89.538 E11.88807
G1 X128.696 Y90.934 E12.05602
G1 X128.808 Y91.693 E12.14601
G1 X128.874 Y92.355 E12.22401
G1 X128.920 Y93.460 E12.35370
G1 X128.920 Y114.478 E14.81907
G1 X128.523 Y116.743 E15.08874
G1 X127.380 Y118.737 E15.35841
G1 X125.626 Y120.223 E15.62808
G1 X123.471 Y121.025 E15.89775
G1 X122.263 Y121.135 E16.03999
G1 X77.737 Y121.135 E21.26272
G1 X75.472 Y120.738 E21.53239
G1 X73.478 Y119.594 E21.80206
G1 X71.991 Y117.841 E22.07173
G1 X71.190 Y115.686 E22.34140
G1 X71.080 Y114.478 E22.48364
G1 X71.088 Y93.133 E24.98734
G1 X71.190 Y91.705 E25.15527
G1 X71.432 Y90.293 E25.32323
G1 X71.619 Y89.548 E25.41342
G1 X71.811 Y88.913 E25.49122
G1 X72.070 Y88.189 E25.58135
G1 X72.323 Y87.576 E25.65922
G1 X72.652 Y86.881 E25.74933
G1 X72.964 Y86.295 E25.82721
G1 X73.728 Y85.084 E25.99516
G1 X74.606 Y83.953 E26.16311
G1 X75.539 Y82.970 E26.32210
G1 F1800.000 E21.32210
G92 E0
G1 X116.307 Y108.522 F7800.000
G1 E5.00000 F1800.000
G1 X83.693 Y108.522 E8.82554 F1350.000
G1 X83.693 Y91.478 E10.82477
G1 X116.307 Y91.478 E14.65031
G1 X116.307 Y108.447 E16.64074
G1 X115.650 Y107.865 F7800.000
G1 X84.350 Y107.865 E20.31213 F1350.000
G1 X84.350 Y92.135 E22.15722
G1 X115.650 Y92.135 E25.82861
G1 X115.650 Y107.790 E27.66490
G1 X114.993 Y107.208 F7800.000
G1 X85.007 Y107.208 E31.18215 F945.000
G1 X85.007 Y92.792 E32.87308
G1 X114.993 Y92.792 E36.39033
G1 X114.993 Y107.133 E38.07247
G1 X114.993 Y107.708 F7800.000
G1 X120.599 Y112.814 F7800.000
G1 X79.401 Y112.814 E42.90481 F1350.000
G1 X79.401 Y93.500 E45.17019
G1 X79.433 Y92.845 E45.24718
G1 X79.524 Y92.236 E45.31937
G1 X79.673 Y91.639 E45.39155
G1 X79.880 Y91.060 E45.46374
G1 X80.144 Y90.503 E45.53593
G1 X80.460 Y89.975 E45.60812
G1 X80.827 Y89.481 E45.68031
G1 X81.240 Y89.025 E45.75250
G1 X81.696 Y88.612 E45.82469
G1 X82.190 Y88.245 E45.89687
G1 X82.718 Y87.929 E45.96906
G1 X83.274 Y87.666 E46.04126
G1 X83.854 Y87.458 E46.11344
G1 X84.451 Y87.309 E46.18563
G1 X85.060 Y87.218 E46.25782
G1 X85.715 Y87.186 E46.33480
G1 X114.285 Y87.186 E49.68588
G1 X114.940 Y87.218 E49.76287
G1 X115.549 Y87.309 E49.83506
G1 X116.146 Y87.458 E49.90724
G1 X116.726 Y87.666 E49.97943
G1 X117.282 Y87.929 E50.05162
G1 X117.810 Y88.245 E50.12381
G1 X118.304 Y88.612 E50.19600
G1 X118.760 Y89.025 E50.26819
G1 X119.173 Y89.481 E50.34037
G1 X119.540 Y89.975 E50.41256
G1 X119.856 Y90.503 E50.48475
G1 X120.120 Y91.060 E50.55694
G1 X120.327 Y91.639 E50.62913
G1 X120.476 Y92.236 E50.70132
G1 X120.567 Y92.845 E50.77350
G1 X120.599 Y93.500 E50.85049
G1 X120.599 Y112.739 E53.10708
G1 X121.256 Y113.471 F7800.000
G1 X78.744 Y113.471 E58.09356 F1350.000
G1 X78.744 Y93.484 E60.43791
G1 X78.779 Y92.780 E60.52058
G1 X78.878 Y92.108 E60.60034
G1 X79.044 Y91.448 E60.68010
G1 X79.273 Y90.808 E60.75986
G1 X79.563 Y90.193 E60.83962
G1 X79.913 Y89.610 E60.91938
G1 X80.318 Y89.064 E60.99915
G1 X80.775 Y88.560 E61.07891
G1 X81.279 Y88.103 E61.15867
G1 X81.825 Y87.698 E61.23842
G1 X82.408 Y87.348 E61.31819
G1 X83.023 Y87.058 E61.39795
G1 X83.663 Y86.829 E61.47771
G1 X84.323 Y86.663 E61.55748
G1 X84.995 Y86.564 E61.63723
G1 X85.699 Y86.529 E61.71989
G1 X114.301 Y86.529 E65.07476
G1 X115.005 Y86.564 E65.15743
G1 X115.677 Y86.663 E65.23718
G1 X116.337 Y86.829 E65.31694
G1 X116.977 Y87.058 E65.39670
G1 X117.592 Y87.348 E65.47646
G1 X118.175 Y87.698 E65.55623
G1 X118.721 Y88.103 E65.63599
G1 X119.225 Y88.560 E65.71575
G1 X119.682 Y89.064 E65.79551
G1 X120.087 Y89.610 E65.87527
G1 X120.437 Y90.193 E65.95504
G1 X120.727 Y90.808 E66.03480
G1 X120.956 Y91.448 E66.11455
G1 X121.122 Y92.108 E66.19432
G1 X121.221 Y92.780 E66.27408
G1 X121.256 Y93.484 E66.35674
G1 X121.256 Y113.396 E68.69230
G1 X121.913 Y114.128 F7800.000
G1 X78.087 Y114.128 E73.83292 F945.000
G1 X78.087 Y93.468 E76.25624
G1 X78.124 Y92.716 E76.34459
G1 X78.233 Y91.979 E76.43192
G1 X78.414 Y91.257 E76.51924
G1 X78.665 Y90.556 E76.60658
G1 X78.983 Y89.883 E76.69391
G1 X79.366 Y89.244 E76.78125
G1 X79.810 Y88.646 E76.86859
G1 X80.310 Y88.095 E76.95592
G1 X80.861 Y87.595 E77.04325
G1 X81.459 Y87.151 E77.13058
G1 X82.098 Y86.768 E77.21792
G1 X82.771 Y86.450 E77.30526
G1 X83.472 Y86.199 E77.39259
G1 X84.194 Y86.018 E77.47992
G1 X84.931 Y85.909 E77.56725
G1 X85.683 Y85.872 E77.65559
G1 X114.317 Y85.872 E81.01424
G1 X115.069 Y85.909 E81.10259
G1 X115.806 Y86.018 E81.18992
G1 X116.528 Y86.199 E81.27725
G1 X117.229 Y86.450 E81.36458
G1 X117.902 Y86.768 E81.45192
G1 X118.541 Y87.151 E81.53926
G1 X119.139 Y87.595 E81.62659
G1 X119.690 Y88.095 E81.71392
G1 X120.190 Y88.646 E81.80126
G1 X120.634 Y89.244 E81.88859
G1 X121.017 Y89.883 E81.97592
G1 X121.335 Y90.556 E82.06326
G1 X121.586 Y91.257 E82.15059
G1 X121.767 Y91.979 E82.23793
G1 X121.876 Y92.716 E82.32526
G1 X121.913 Y93.468 E82.41359
G1 X121.913 Y114.053 E84.82812
G1 X121.480 Y113.878 F7800.000
G1 X119.884 Y91.755 F7800.000
G1 X116.030 Y87.901 E85.46743 F2700.000
G1 X114.868 Y87.672 E85.60633
G1 X120.113 Y92.917 E86.47642
G1 X120.143 Y93.878 E86.58924
G1 X113.907 Y87.643 E87.62364
G1 X112.975 Y87.643 E87.73298
G1 X120.143 Y94.810 E88.92201
G1 X120.143 Y95.743 E89.03134
G1 X116.764 Y92.364 E89.59185
G1 X116.764 Y93.296 E89.70118
G1 X120.143 Y96.675 E90.26169
G1 X120.143 Y97.607 E90.37103
G1 X116.764 Y94.228 E90.93153
G1 X116.764 Y95.160 E91.04087
G1 X120.143 Y98.539 E91.60137
G1 X120.143 Y99.471 E91.71071
G1 X116.764 Y96.092 E92.27121
G1 X116.764 Y97.024 E92.38055
G1 X120.143 Y100.403 E92.94106
G1 X120.143 Y101.335 E93.05039
G1 X116.764 Y97.956 E93.61090
G1 X116.764 Y98.889 E93.72023
G1 X120.143 Y102.268 E94.28074
G1 X120.143 Y103.200 E94.39007
G1 X116.764 Y99.821 E94.95058
G1 X116.764 Y100.753 E95.05991
G1 X120.143 Y104.132 E95.62042
G1 X120.143 Y105.064 E95.72976
G1 X116.764 Y101.685 E96.29026
G1 X116.764 Y102.617 E96.39960
G1 X120.143 Y105.996 E96.96010
G1 X120.143 Y106.928 E97.06944
G1 X116.764 Y103.549 E97.62994
G1 X116.764 Y104.481 E97.73928
G1 X120.143 Y107.860 E98.29979
G1 X120.143 Y108.792 E98.40912
G1 X116.764 Y105.413 E98.96963
G1 X116.764 Y106.346 E99.07896
G1 X120.143 Y109.725 E99.63947
G1 X120.143 Y110.657 E99.74880
G1 X116.764 Y107.278 E100.30931
G1 X116.764 Y108.210 E100.41865
G1 X120.143 Y111.589 E100.97915
G1 X119.979 Y112.357 E101.07132
G1 X116.600 Y108.979 E101.63183
G1 X115.668 Y108.979 E101.74116
G1 X119.047 Y112.357 E102.30167
G1 X118.115 Y112.357 E102.41100
G1 X114.736 Y108.979 E102.97151
G1 X113.804 Y108.979 E103.08084
G1 X117.183 Y112.357 E103.64135
G1 X116.251 Y112.357 E103.75068
G1 X112.872 Y108.979 E104.31119
G1 X111.939 Y108.979 E104.42052
G1 X115.318 Y112.357 E104.98102
G1 X114.386 Y112.357 E105.09036
G1 X111.007 Y108.979 E105.65086
G1 X110.075 Y108.979 E105.76020
G1 X113.454 Y112.357 E106.32070
G1 X112.522 Y112.357 E106.43004
G1 X109.143 Y108.979 E106.99054
G1 X108.211 Y108.979 E107.09988
G1 X111.590 Y112.357 E107.66038
G1 X110.658 Y112.357 E107.76972
G1 X107.279 Y108.979 E108.33022
G1 X106.347 Y108.979 E108.43956
G1 X109.726 Y112.357 E109.00006
G1 X108.793 Y112.357 E109.10939
G1 X105.415 Y108.979 E109.66990
G1 X104.482 Y108.979 E109.77923
G1 X107.861 Y112.357 E110.33974
G1 X106.929 Y112.357 E110.44907
G1 X103.550 Y108.979 E111.00958
G1 X102.618 Y108.979 E111.11891
G1 X105.997 Y112.357 E111.67942
G1 X105.065 Y112.357 E111.78875
G1 X101.686 Y108.979 E112.34926
G1 X100.754 Y108.979 E112.45859
G1 X104.133 Y112.357 E113.01909
G1 X103.201 Y112.357 E113.12843
G1 X99.822 Y108.979 E113.68893
G1 X98.890 Y108.979 E113.79827
G1 X102.269 Y112.357 E114.35877
G1 X101.336 Y112.357 E114.46811
G1 X97.957 Y108.979 E115.02861
G1 X97.025 Y108.979 E115.13795
G1 X100.404 Y112.357 E115.69845
G1 X99.472 Y112.357 E115.80779
G1 X96.093 Y108.979 E116.36829
G1 X95.161 Y108.979 E116.47763
G1 X98.540 Y112.357 E117.03813
G1 X97.608 Y112.357 E117.14746
G1 X94.229 Y108.979 E117.70797
G1 X93.297 Y108.979 E117.81730
G1 X96.676 Y112.357 E118.37781
G1 X95.744 Y112.357 E118.48714
G1 X92.365 Y108.979 E119.04765
G1 X91.433 Y108.979 E119.15698
G1 X94.812 Y112.357 E119.71749
G1 X93.879 Y112.357 E119.82682
G1 X90.500 Y108.979 E120.38732
G1 X89.568 Y108.979 E120.49666
G1 X92.947 Y112.357 E121.05716
G1 X92.015 Y112.357 E121.16650
G1 X88.636 Y108.979 E121.72700
G1 X87.704 Y108.979 E121.83634
G1 X91.083 Y112.357 E122.39684
G1 X90.151 Y112.357 E122.50618
G1 X86.772 Y108.979 E123.06668
G1 X85.840 Y108.979 E123.17602
G1 X89.219 Y112.357 E123.73652
G1 X88.287 Y112.357 E123.84585
G1 X84.908 Y108.979 E124.40636
G1 X83.976 Y108.979 E124.51569
G1 X87.354 Y112.357 E125.07620
G1 X86.422 Y112.357 E125.18553
G1 X79.857 Y105.793 E126.27453
G1 X79.857 Y104.860 E126.38386
G1 X83.236 Y108.239 E126.94437
G1 X83.236 Y107.307 E127.05370
G1 X79.857 Y103.928 E127.61421
G1 X79.857 Y102.996 E127.72354
G1 X83.236 Y106.375 E128.28405
G1 X83.236 Y105.443 E128.39338
G1 X79.857 Y102.064 E128.95389
G1 X79.857 Y101.132 E129.06322
G1 X83.236 Y104.511 E129.62373
G1 X83.236 Y103.579 E129.73306
G1 X79.857 Y100.200 E130.29356
G1 X79.857 Y99.268 E130.40290
G1 X83.236 Y102.647 E130.96340
G1 X83.236 Y101.714 E131.07274
G1 X79.857 Y98.336 E131.63324
G1 X79.857 Y97.403 E131.74258
G1 X83.236 Y100.782 E132.30308
G1 X83.236 Y99.850 E132.41242
G1 X79.857 Y96.471 E132.97292
G1 X79.857 Y95.539 E133.08226
G1 X83.236 Y98.918 E133.64276
G1 X83.236 Y97.986 E133.75210
G1 X79.857 Y94.607 E134.31260
G1 X79.857 Y93.675 E134.42193
G1 X83.236 Y97.054 E134.98244
G1 X83.236 Y96.122 E135.09177
G1 X79.903 Y92.788 E135.64472
G1 X80.052 Y92.005 E135.73823
G1 X83.236 Y95.190 E136.26648
G1 X83.236 Y94.257 E136.37582
G1 X80.279 Y91.300 E136.86638
G1 X80.578 Y90.667 E136.94853
G1 X83.236 Y93.325 E137.38955
G1 X83.236 Y92.393 E137.49888
G1 X80.939 Y90.096 E137.87999
G1 X81.357 Y89.582 E137.95770
G1 X83.236 Y91.461 E138.26939
G1 X83.729 Y91.021 E138.34683
G1 X81.823 Y89.116 E138.66292
G1 X82.341 Y88.701 E138.74070
G1 X84.661 Y91.021 E139.12556
G1 X85.593 Y91.021 E139.23490
G1 X82.915 Y88.343 E139.67922
G1 X83.554 Y88.050 E139.76170
G1 X86.525 Y91.021 E140.25458
G1 X87.457 Y91.021 E140.36392
G1 X84.262 Y87.826 E140.89393
G1 X85.049 Y87.681 E140.98780
G1 X88.390 Y91.021 E141.54188
G1 X89.322 Y91.021 E141.65121
G1 X85.943 Y87.643 E142.21172
G1 X86.875 Y87.643 E142.32105
G1 X90.254 Y91.021 E142.88156
G1 X91.186 Y91.021 E142.99089
G1 X87.807 Y87.643 E143.55139
G1 X88.739 Y87.643 E143.66073
G1 X92.118 Y91.021 E144.22123
G1 X93.050 Y91.021 E144.33057
G1 X89.671 Y87.643 E144.89107
G1 X90.603 Y87.643 E145.00041
G1 X93.982 Y91.021 E145.56091
G1 X94.915 Y91.021 E145.67025
G1 X91.536 Y87.643 E146.23075
G1 X92.468 Y87.643 E146.34009
G1 X95.847 Y91.021 E146.90059
G1 X96.779 Y91.021 E147.00993
G1 X93.400 Y87.643 E147.57043
G1 X94.332 Y87.643 E147.67977
G1 X97.711 Y91.021 E148.24027
G1 X98.643 Y91.021 E148.34960
G1 X95.264 Y87.643 E148.91011
G1 X96.196 Y87.643 E149.01944
G1 X99.575 Y91.021 E149.57995
G1 X100.507 Y91.021 E149.68928
G1 X97.128 Y87.643 E150.24979
G1 X98.061 Y87.643 E150.35912
G1 X101.439 Y91.021 E150.91963
G1 X102.372 Y91.021 E151.02896
G1 X98.993 Y87.643 E151.58947
G1 X99.925 Y87.643 E151.69880
G1 X103.304 Y91.021 E152.25931
G1 X104.236 Y91.021 E152.36864
G1 X100.857 Y87.643 E152.92914
G1 X101.789 Y87.643 E153.03848
G1 X105.168 Y91.021 E153.59898
G1 X106.100 Y91.021 E153.70832
G1 X102.721 Y87.643 E154.26882
G1 X103.653 Y87.643 E154.37816
G1 X107.032 Y91.021 E154.93866
G1 X107.964 Y91.021 E155.04800
G1 X104.585 Y87.643 E155.60850
G1 X105.518 Y87.643 E155.71784
G1 X108.897 Y91.021 E156.27834
G1 X109.829 Y91.021 E156.38768
G1 X106.450 Y87.643 E156.94818
G1 X107.382 Y87.643 E157.05751
G1 X110.761 Y91.021 E157.61802
G1 X111.693 Y91.021 E157.72735
G1 X108.314 Y87.643 E158.28786
G1 X109.246 Y87.643 E158.39719
G1 X112.625 Y91.021 E158.95770
G1 X113.557 Y91.021 E159.06703
G1 X110.178 Y87.643 E159.62754
G1 X111.110 Y87.643 E159.73687
G1 X114.489 Y91.021 E160.29738
G1 X115.421 Y91.021 E160.40671
G1 X112.042 Y87.643 E160.96721
G1 X118.135 Y89.074 F7800.000
G1 X118.711 Y89.650 E161.06283 F2700.000
G1 F1800.000 E156.06283
G92 E0
G1 X85.490 Y112.357 F7800.000
G1 E5.00000 F1800.000
G1 X79.857 Y106.725 E5.93437 F2700.000
G1 X79.857 Y107.657 E6.04371
G1 X84.558 Y112.357 E6.82346
G1 X83.626 Y112.357 E6.93279
G1 X79.857 Y108.589 E7.55792
G1 X79.857 Y109.521 E7.66726
G1 X82.694 Y112.357 E8.13776
G1 X81.762 Y112.357 E8.24709
G1 X79.857 Y110.453 E8.56298
G1 X79.857 Y111.385 E8.67231
G1 X80.830 Y112.357 E8.83357
G1 X79.897 Y112.357 E8.94290
G1 X79.857 Y112.317 E8.94954
M106 S213
M140 S30 ; set bed temperature
G1 F1800.000 E3.94954
G92 E0
G1 Z0.550 F7800.000
G1 X115.893 Y108.108 F7800.000
G1 E5.00000 F1800.000
G1 X84.107 Y108.108 E6.62119 F1800.000
G1 X84.107 Y91.892 E7.44826
G1 X115.893 Y91.892 E9.06945
G1 X115.893 Y108.033 E9.89269
G1 X115.393 Y107.608 F7800.000
G1 X84.607 Y107.608 E11.46288 F1800.000
G1 X84.607 Y92.392 E12.23894
G1 X115.393 Y92.392 E13.80913
G1 X115.393 Y107.533 E14.58137
G1 X114.893 Y107.108 F7800.000
G1 X85.107 Y107.108 E16.10056 F1260.000
G1 X85.107 Y92.892 E16.82562
G1 X114.893 Y92.892 E18.34480
G1 X114.893 Y107.033 E19.06604
G1 X114.893 Y107.608 F7800.000
G1 X121.013 Y113.228 F7800.000
G1 X78.987 Y113.228 E21.20950 F1800.000
G1 X78.987 Y93.490 E22.21619
G1 X79.021 Y92.804 E22.25122
G1 X79.117 Y92.155 E22.28468
G1 X79.276 Y91.519 E22.31815
G1 X79.497 Y90.901 E22.35161
G1 X79.778 Y90.308 E22.38508
G1 X80.115 Y89.745 E22.41854
G1 X80.506 Y89.218 E22.45201
G1 X80.947 Y88.732 E22.48547
G1 X81.433 Y88.291 E22.51894
G1 X81.960 Y87.900 E22.55240
G1 X82.523 Y87.563 E22.58587
G1 X83.116 Y87.282 E22.61933
G1 X83.734 Y87.061 E22.65280
G1 X84.370 Y86.902 E22.68626
G1 X85.019 Y86.806 E22.71973
G1 X85.705 Y86.772 E22.75476
G1 X114.295 Y86.772 E24.21293
G1 X114.981 Y86.806 E24.24796
G1 X115.630 Y86.902 E24.28142
G1 X116.266 Y87.061 E24.31489
G1 X116.884 Y87.282 E24.34835
G1 X117.477 Y87.563 E24.38182
G1 X118.040 Y87.900 E24.41528
G1 X118.567 Y88.291 E24.44874
G1 X119.053 Y88.732 E24.48221
G1 X119.494 Y89.218 E24.51568
G1 X119.885 Y89.745 E24.54914
G1 X120.222 Y90.308 E24.58260
G1 X120.503 Y90.901 E24.61607
G1 X120.724 Y91.519 E24.64954
G1 X120.883 Y92.155 E24.68300
G1 X120.979 Y92.804 E24.71646
G1 X121.013 Y93.490 E24.75149
G1 X121.013 Y113.153 E25.75436
G1 X121.513 Y113.728 F7800.000
G1 X78.487 Y113.728 E27.94882 F1800.000
G1 X78.487 Y93.478 E28.98164
G1 X78.522 Y92.755 E29.01855
G1 X78.626 Y92.058 E29.05452
G1 X78.797 Y91.373 E29.09049
G1 X79.035 Y90.709 E29.12646
G1 X79.336 Y90.072 E29.16243
G1 X79.699 Y89.467 E29.19840
G1 X80.119 Y88.900 E29.23437
G1 X80.593 Y88.378 E29.27034
G1 X81.115 Y87.904 E29.30631
G1 X81.682 Y87.484 E29.34228
G1 X82.287 Y87.121 E29.37825
G1 X82.924 Y86.820 E29.41423
G1 X83.588 Y86.582 E29.45019
G1 X84.272 Y86.411 E29.48616
G1 X84.970 Y86.308 E29.52214
