; generated by Slic3r 1.1.7 on 2014-11-28 at 23:31:14

; perimeters extrusion width = 0.50mm
; infill extrusion width = 1.02mm
; solid infill extrusion width = 0.85mm
; top infill extrusion width = 0.85mm
; support material extrusion width = 0.50mm

G21 ; set units to millimeters
M107
M190 S35 ; wait for bed temperature to be reached
M104 S210 ; set temperature
G28 ; home all axes
G1 Z5 F200; lift nozzle


M109 S210 ; wait for temperature to be reached
G90 ; use absolute coordinates
G92 E0
M82 ; use absolute distances for extrusion
G1 F1800.000 E-5.00000
G92 E0
G1 Z0.350 F7800.000
G1 X10.140 Y10.146 F7800.000
G1 E5.00000 F1800.000
G1 X18.438 Y1.852 E6.37609 F2700.000
G1 X20.501 Y-0.033 E6.70393
G1 X22.441 Y-1.267 E6.97360
G1 X24.685 Y-1.768 E7.24327
G1 X26.965 Y-1.476 E7.51294
G1 X29.057 Y-0.390 E7.78932 F2700.000
G1 X132.345 Y79.252 E23.08789
G1 X133.057 Y79.877 E23.19904
G1 X133.591 Y80.413 E23.28777
G1 X144.617 Y92.047 E25.16793
G1 X145.238 Y92.784 E25.28097
G1 X145.661 Y93.357 E25.36451
G1 X200.320 Y170.934 E36.49577
G1 X201.300 Y173.014 E36.76544
G1 X201.514 Y175.303 E37.03511
G1 X200.830 Y177.751 E37.33328
G1 X200.169 Y179.070 E37.50636
G1 X198.925 Y180.795 E37.75577
G1 X180.984 Y198.735 E40.73173
G1 X179.436 Y199.887 E40.95807
G1 X177.904 Y200.714 E41.16234
G1 X175.722 Y201.439 E41.43200
G1 X173.424 Y201.379 E41.70167
G1 X170.703 Y200.145 E42.05211
G1 X75.940 Y127.757 E56.03934
G1 X75.566 Y127.464 E56.09507
G1 X74.854 Y126.840 E56.20620
G1 X74.180 Y126.152 E56.31912
G1 X73.575 Y125.435 E56.42914
G1 X-0.424 Y29.021 E70.68502
G1 X-1.487 Y26.983 E70.95469
G1 X-1.794 Y24.704 E71.22436
G1 X-1.094 Y21.985 E71.55375
G1 X-0.963 Y21.724 E71.58791
G1 X0.281 Y20.000 E71.83733
G1 X10.087 Y10.199 E73.46361
G1 F1800.000 E68.46361
G92 E0
G1 X68.592 Y73.757 F7800.000
G1 E5.00000 F1800.000
G1 X60.407 Y72.169 E5.97794 F1350.000
G1 X57.690 Y64.287 E6.95588
G1 X63.158 Y57.993 E7.93383
G1 X71.343 Y59.581 E8.91177
G1 X74.060 Y67.463 E9.88971
G1 X68.641 Y73.701 E10.85886
G1 X60.905 Y71.596 F7800.000
G1 X58.435 Y64.431 E11.74780 F1350.000
G1 X63.405 Y58.710 E12.63675
G1 X70.845 Y60.154 E13.52570
G1 X73.315 Y67.319 E14.41464
G1 X68.345 Y73.040 E15.30359
G1 X60.978 Y71.611 E16.18374
G1 X61.402 Y71.023 F7800.000
G1 X59.180 Y64.576 E16.98369 F945.000
G1 X63.653 Y59.427 E17.78364
G1 X70.348 Y60.727 E18.58359
G1 X72.570 Y67.174 E19.38354
G1 X68.097 Y72.323 E20.18349
G1 X61.476 Y71.038 E20.97465
G1 X60.908 Y71.102 F7800.000
G1 X126.857 Y130.040 F7800.000
G1 X134.029 Y125.788 E21.95259 F1350.000
G1 X141.297 Y129.873 E22.93053
G1 X141.393 Y138.210 E23.90847
G1 X134.221 Y142.462 E24.88641
G1 X126.953 Y138.377 E25.86435
G1 X126.858 Y130.115 E26.83350
G1 X127.518 Y130.412 F7800.000
G1 X134.037 Y126.547 E27.72245 F1350.000
G1 X140.644 Y130.260 E28.61139
G1 X140.732 Y137.838 E29.50034
G1 X134.213 Y141.703 E30.38928
G1 X127.606 Y137.990 E31.27823
G1 X127.519 Y130.487 E32.15838
G1 X128.180 Y130.784 F7800.000
G1 X134.046 Y127.305 E32.95833 F945.000
G1 X139.991 Y130.647 E33.75828
G1 X140.070 Y137.466 E34.55823
G1 X134.204 Y140.944 E35.35818
G1 X128.259 Y137.603 E36.15813
G1 X128.181 Y130.859 E36.94928
G1 X128.003 Y130.316 F7800.000
G1 F1800.000 E31.94928
G92 E0
G1 X166.117 Y181.724 F7800.000
G1 E5.00000 F1800.000
G1 X18.276 Y33.883 E29.52408 F1350.000
G1 X33.883 Y18.276 E32.11299
G1 X70.854 Y55.247 E38.24574
G1 X71.175 Y55.587 E38.30067
G1 X71.464 Y55.929 E38.35315
G1 X71.736 Y56.293 E38.40654
G1 X72.005 Y56.699 E38.46357
G1 X119.768 Y104.462 E46.38655
G1 X143.895 Y128.589 E50.38879
G1 X144.301 Y128.857 E50.44583
G1 X144.665 Y129.130 E50.49921
G1 X145.007 Y129.419 E50.55170
G1 X145.347 Y129.740 E50.60661
G1 X181.724 Y166.117 E56.64086
G1 X166.170 Y181.671 E59.22098
G1 X166.117 Y182.653 F7800.000
G1 X17.347 Y33.883 E83.89920 F1350.000
G1 X33.883 Y17.347 E86.64226
G1 X71.325 Y54.789 E92.85317
G1 X71.666 Y55.149 E92.91138
G1 X71.978 Y55.520 E92.96826
G1 X72.274 Y55.915 E93.02609
G1 X72.516 Y56.281 E93.07760
G1 X120.233 Y103.997 E100.99285
G1 X144.313 Y128.078 E104.98734
G1 X144.679 Y128.320 E105.03886
G1 X145.074 Y128.616 E105.09668
G1 X145.445 Y128.928 E105.15357
G1 X145.805 Y129.269 E105.21177
G1 X182.653 Y166.117 E111.32418
G1 X166.170 Y182.600 E114.05844
G1 X166.117 Y183.583 F7800.000
G1 X16.417 Y33.883 E138.89081 F945.000
G1 X33.883 Y16.417 E141.78801
G1 X71.796 Y54.330 E148.07709
G1 X72.156 Y54.711 E148.13857
G1 X72.493 Y55.111 E148.19986
G1 X72.811 Y55.536 E148.26213
G1 X73.028 Y55.863 E148.30813
G1 X120.697 Y103.532 E156.21562
G1 X144.731 Y127.566 E160.20237
G1 X145.058 Y127.783 E160.24837
G1 X145.483 Y128.101 E160.31063
G1 X145.882 Y128.438 E160.37193
G1 X146.263 Y128.798 E160.43341
G1 X183.583 Y166.117 E166.62398
G1 X166.170 Y183.530 E169.51239
G1 X165.988 Y183.100 F7800.000
G1 X166.135 Y181.061 F7800.000
G1 X166.050 Y181.012 E169.52388 F2700.000
G1 X164.255 Y179.216 F7800.000
G1 X166.616 Y180.580 E169.84373 F2700.000
G1 X167.097 Y180.099 E169.92354
G1 X162.459 Y177.421 E170.55175
G1 X160.663 Y175.625 F7800.000
G1 X167.578 Y179.617 E171.48832 F2700.000
G1 X168.060 Y179.136 E171.56813
G1 X158.868 Y173.830 E172.81305
G1 X157.072 Y172.034 F7800.000
G1 X168.541 Y178.655 E174.36634 F2700.000
G1 X169.022 Y178.174 E174.44615
G1 X155.277 Y170.238 E176.30779
G1 X153.481 Y168.443 F7800.000
G1 X169.503 Y177.693 E178.47779 F2700.000
G1 X169.984 Y177.212 E178.55760
G1 X151.686 Y166.647 E181.03596
G1 X149.890 Y164.852 F7800.000
G1 X170.465 Y176.731 E183.82268 F2700.000
G1 X170.946 Y176.250 E183.90249
G1 X148.094 Y163.056 E186.99757
G1 X146.299 Y161.261 F7800.000
G1 X171.427 Y175.768 E190.40101 F2700.000
G1 X171.909 Y175.287 E190.48081
G1 X144.503 Y159.465 E194.19261
G1 X142.708 Y157.669 F7800.000
G1 X172.390 Y174.806 E198.21276 F2700.000
G1 X172.871 Y174.325 E198.29257
G1 X140.912 Y155.874 E202.62108
G1 X139.117 Y154.078 F7800.000
G1 X173.352 Y173.844 E207.25796 F2700.000
G1 X173.833 Y173.363 E207.33777
G1 X137.321 Y152.283 E212.28300
G1 X135.525 Y150.487 F7800.000
G1 X174.314 Y172.882 E217.53658 F2700.000
G1 X174.795 Y172.401 E217.61639
G1 X133.730 Y148.692 E223.17834
G1 X131.934 Y146.896 F7800.000
G1 X175.276 Y171.920 E229.04865 F2700.000
G1 X177.682 Y169.514 F7800.000
G1 X122.956 Y137.918 E236.46075 F2700.000
G1 X124.752 Y139.714 F7800.000
G1 X177.201 Y169.995 E243.56449 F2700.000
G1 X176.720 Y170.476 E243.64429
G1 X126.548 Y141.509 E250.43968
G1 X128.343 Y143.305 F7800.000
G1 X176.239 Y170.957 E256.92670 F2700.000
G1 X175.758 Y171.438 E257.00651
G1 X130.139 Y145.100 E263.18517
G1 X121.161 Y136.123 F7800.000
G1 X178.163 Y169.033 E270.90563 F2700.000
G1 X178.644 Y168.552 E270.98544
G1 X134.297 Y142.948 E276.99192
G1 X134.945 Y142.563 E277.08035
G1 X179.125 Y168.071 E283.06415
G1 X179.606 Y167.589 E283.14396
G1 X135.594 Y142.179 E289.10510
G1 X136.242 Y141.794 E289.19353
G1 X180.088 Y167.108 E295.13199
G1 X180.569 Y166.627 E295.21180
G1 X136.891 Y141.410 E301.12760
G1 X137.539 Y141.025 E301.21603
G1 X181.038 Y166.139 E307.10752
G1 X179.391 Y164.430 F7800.000
G1 X138.188 Y140.641 E312.68815 F2700.000
G1 X138.836 Y140.256 E312.77658
G1 X177.596 Y162.634 E318.02619
G1 X175.800 Y160.838 F7800.000
G1 X139.485 Y139.872 E322.94476 F2700.000
G1 X140.133 Y139.487 E323.03319
G1 X174.004 Y159.043 E327.62074
G1 X172.209 Y157.247 F7800.000
G1 X140.782 Y139.103 E331.87725 F2700.000
G1 X141.430 Y138.718 E331.96568
G1 X170.413 Y155.452 E335.89117
G1 X168.618 Y153.656 F7800.000
G1 X141.849 Y138.201 E339.51671 F2700.000
G1 X141.841 Y137.437 E339.60633
G1 X166.822 Y151.860 E342.98987
G1 X165.027 Y150.065 F7800.000
G1 X141.832 Y136.673 E346.13141 F2700.000
G1 X141.823 Y135.909 E346.22103
G1 X163.231 Y148.269 E349.12057
G1 X161.435 Y146.474 F7800.000
G1 X141.814 Y135.145 E351.77812 F2700.000
G1 X141.805 Y134.381 E351.86774
G1 X159.640 Y144.678 E354.28328
G1 X157.844 Y142.883 F7800.000
G1 X141.796 Y133.617 E356.45683 F2700.000
G1 X141.788 Y132.853 E356.54645
G1 X156.049 Y141.087 E358.47800
G1 X154.253 Y139.291 F7800.000
G1 X141.779 Y132.089 E360.16755 F2700.000
G1 X141.770 Y131.325 E360.25717
G1 X152.458 Y137.496 E361.70473
G1 X150.662 Y135.700 F7800.000
G1 X141.761 Y130.561 E362.91028 F2700.000
G1 X141.752 Y129.797 E362.99990
G1 X148.866 Y133.905 E363.96346
G1 X147.071 Y132.109 F7800.000
G1 X76.272 Y91.233 E373.55261 F2700.000
G1 X78.067 Y93.029 F7800.000
G1 X133.960 Y125.298 E381.12277 F2700.000
G1 X133.311 Y125.683 E381.21120
G1 X79.863 Y94.824 E388.45034
G1 X81.658 Y96.620 F7800.000
G1 X132.663 Y126.067 E395.35844 F2700.000
G1 X132.014 Y126.452 E395.44687
G1 X83.454 Y98.416 E402.02395
G1 X85.249 Y100.211 F7800.000
G1 X131.366 Y126.836 E408.27000 F2700.000
G1 X130.717 Y127.221 E408.35843
G1 X87.045 Y102.007 E414.27345
G1 X88.841 Y103.802 F7800.000
G1 X130.069 Y127.605 E419.85743 F2700.000
G1 X129.420 Y127.990 E419.94587
G1 X90.636 Y105.598 E425.19882
G1 X92.432 Y107.393 F7800.000
G1 X128.772 Y128.374 E430.12075 F2700.000
G1 X128.123 Y128.759 E430.20918
G1 X94.227 Y109.189 E434.80008
G1 X96.023 Y110.985 F7800.000
G1 X127.475 Y129.143 E439.05995 F2700.000
G1 X126.826 Y129.528 E439.14838
G1 X97.818 Y112.780 E443.07722
G1 X99.614 Y114.576 F7800.000
G1 X126.400 Y130.041 E446.70521 F2700.000
G1 X126.409 Y130.805 E446.79483
G1 X101.410 Y116.371 E450.18082
G1 X103.205 Y118.167 F7800.000
G1 X126.418 Y131.569 E453.32481 F2700.000
G1 X126.427 Y132.333 E453.41443
G1 X105.001 Y119.962 E456.31643
G1 X106.796 Y121.758 F7800.000
G1 X126.436 Y133.097 E458.97642 F2700.000
G1 X126.445 Y133.861 E459.06604
G1 X108.592 Y123.554 E461.48404
G1 X110.387 Y125.349 F7800.000
G1 X126.453 Y134.625 E463.66004 F2700.000
G1 X126.462 Y135.389 E463.74966
G1 X112.183 Y127.145 E465.68366
G1 X113.979 Y128.940 F7800.000
G1 X126.471 Y136.153 E467.37567 F2700.000
G1 X126.480 Y136.917 E467.46529
G1 X115.774 Y130.736 E468.91530
G1 X117.570 Y132.531 F7800.000
G1 X126.489 Y137.681 E470.12331 F2700.000
G1 X126.498 Y138.445 E470.21293
G1 X119.365 Y134.327 E471.17894
G1 X133.790 Y119.129 F7800.000
G1 X63.703 Y78.664 E480.67170 F2700.000
G1 X65.498 Y80.460 F7800.000
G1 X135.586 Y120.925 E490.16446 F2700.000
G1 X137.381 Y122.720 F7800.000
G1 X67.294 Y82.255 E499.65722 F2700.000
G1 X69.089 Y84.051 F7800.000
G1 X139.177 Y124.516 E509.14998 F2700.000
G1 X140.972 Y126.312 F7800.000
G1 X70.885 Y85.847 E518.64274 F2700.000
G1 X72.680 Y87.642 F7800.000
G1 X142.768 Y128.107 E528.13551 F2700.000
G1 X145.275 Y130.314 F7800.000
G1 X74.476 Y89.438 E537.72465 F2700.000
G1 X67.458 Y74.002 F7800.000
G1 X117.630 Y102.969 E544.52005 F2700.000
G1 X119.426 Y104.765 F7800.000
G1 X65.478 Y73.618 E551.82682 F2700.000
G1 X63.498 Y73.234 F7800.000
G1 X121.221 Y106.560 E559.64496 F2700.000
G1 X123.017 Y108.356 F7800.000
G1 X61.518 Y72.849 E567.97446 F2700.000
G1 X60.111 Y75.073 F7800.000
G1 X130.199 Y115.538 E577.46722 F2700.000
G1 X131.995 Y117.334 F7800.000
G1 X61.907 Y76.869 E586.95998 F2700.000
G1 X58.316 Y73.278 F7800.000
G1 X128.403 Y113.743 E596.45274 F2700.000
G1 X126.608 Y111.947 F7800.000
G1 X56.520 Y71.482 E605.94550 F2700.000
G1 X54.725 Y69.686 F7800.000
G1 X124.812 Y110.151 E615.43826 F2700.000
G1 X115.834 Y101.174 F7800.000
G1 X68.913 Y74.083 E621.79336 F2700.000
G1 X69.352 Y73.578 E621.87189
G1 X114.039 Y99.378 E627.92433
G1 X112.243 Y97.582 F7800.000
G1 X69.791 Y73.073 E633.67411 F2700.000
G1 X70.230 Y72.567 E633.75264
G1 X110.448 Y95.787 E639.19975
G1 X108.652 Y93.991 F7800.000
G1 X70.669 Y72.062 E644.34420 F2700.000
G1 X71.108 Y71.556 E644.42273
G1 X106.857 Y92.196 E649.26452
G1 X105.061 Y90.400 F7800.000
G1 X71.547 Y71.051 E653.80364 F2700.000
G1 X71.987 Y70.546 E653.88217
G1 X103.265 Y88.605 E658.11863
G1 X101.470 Y86.809 F7800.000
G1 X72.426 Y70.040 E662.05243 F2700.000
G1 X72.865 Y69.535 E662.13096
G1 X99.674 Y85.013 E665.76210
G1 X97.879 Y83.218 F7800.000
G1 X73.304 Y69.029 E669.09057 F2700.000
G1 X73.743 Y68.524 E669.16910
G1 X96.083 Y81.422 E672.19491
G1 X94.288 Y79.627 F7800.000
G1 X74.182 Y68.019 E674.91806 F2700.000
G1 X74.544 Y67.469 E674.99529
G1 X92.492 Y77.831 E677.42614
G1 X90.696 Y76.036 F7800.000
G1 X74.218 Y66.522 E679.65802 F2700.000
G1 X73.891 Y65.574 E679.77557
G1 X88.901 Y74.240 E681.80849
G1 X87.105 Y72.444 F7800.000
G1 X73.565 Y64.627 E683.64244 F2700.000
G1 X73.238 Y63.679 E683.75998
G1 X85.310 Y70.649 E685.39497
G1 X83.514 Y68.853 F7800.000
G1 X72.912 Y62.732 E686.83099 F2700.000
G1 X72.585 Y61.785 E686.94853
G1 X81.719 Y67.058 E688.18558
G1 X79.923 Y65.262 F7800.000
G1 X72.259 Y60.837 E689.22367 F2700.000
G1 X71.932 Y59.890 F7800.000
G1 X78.127 Y63.467 E690.06278 F2700.000
G1 X76.332 Y61.671 F7800.000
G1 X22.318 Y30.486 E697.37850 F2700.000
G1 X21.837 Y30.967 E697.45831
G1 X70.212 Y58.897 E704.01034
G1 X68.232 Y58.512 F7800.000
G1 X21.356 Y31.448 E710.35936 F2700.000
G1 X20.875 Y31.929 E710.43917
G1 X66.252 Y58.128 E716.58517
G1 X64.272 Y57.744 F7800.000
G1 X20.394 Y32.411 E722.52817 F2700.000
G1 X19.912 Y32.892 E722.60798
G1 X62.833 Y57.672 E728.42115
G1 X62.394 Y58.177 E728.49968
G1 X19.431 Y33.373 E734.31855
G1 X18.962 Y33.861 E734.39795
G1 X61.954 Y58.682 E740.22088
G1 X61.515 Y59.188 E740.29941
G1 X20.609 Y35.571 E745.83984
G1 X22.404 Y37.366 F7800.000
G1 X61.076 Y59.693 E751.07761 F2700.000
G1 X60.637 Y60.199 E751.15614
G1 X24.200 Y39.162 E756.09125
G1 X25.996 Y40.957 F7800.000
G1 X60.198 Y60.704 E760.72370 F2700.000
G1 X59.759 Y61.209 E760.80223
G1 X27.791 Y42.753 E765.13201
G1 X29.587 Y44.548 F7800.000
G1 X59.320 Y61.715 E769.15913 F2700.000
G1 X58.881 Y62.220 E769.23766
G1 X31.382 Y46.344 E772.96212
G1 X33.178 Y48.140 F7800.000
G1 X58.442 Y62.726 E776.38391 F2700.000
G1 X58.003 Y63.231 E776.46244
G1 X34.973 Y49.935 E779.58157
G1 X36.769 Y51.731 F7800.000
G1 X57.564 Y63.736 E782.39804 F2700.000
G1 X57.209 Y64.291 E782.47521
G1 X38.565 Y53.526 E785.00043
G1 X40.360 Y55.322 F7800.000
G1 X57.536 Y65.238 E787.32668 F2700.000
G1 X57.862 Y66.185 E787.44423
G1 X42.156 Y57.117 E789.57151
G1 X43.951 Y58.913 F7800.000
G1 X58.189 Y67.133 E791.49983 F2700.000
G1 X58.515 Y68.080 E791.61738
G1 X45.747 Y60.709 E793.34673
G1 X47.542 Y62.504 F7800.000
G1 X58.842 Y69.028 E794.87712 F2700.000
G1 X59.168 Y69.975 E794.99466
G1 X49.338 Y64.300 E796.32608
G1 X51.134 Y66.095 F7800.000
G1 X59.495 Y70.923 E797.45853 F2700.000
G1 X59.821 Y71.870 E797.57607
G1 X52.929 Y67.891 E798.50956
G1 X68.063 Y53.103 F7800.000
G1 X24.724 Y28.080 E804.37956 F2700.000
G1 X25.205 Y27.599 E804.45937
G1 X66.270 Y51.308 E810.02132
G1 X64.475 Y49.513 F7800.000
G1 X25.686 Y27.118 E815.27491 F2700.000
G1 X26.167 Y26.637 E815.35472
G1 X62.679 Y47.717 E820.29995
G1 X60.883 Y45.922 F7800.000
G1 X26.648 Y26.156 E824.93682 F2700.000
G1 X27.129 Y25.675 E825.01663
G1 X59.088 Y44.126 E829.34514
G1 X57.292 Y42.331 F7800.000
G1 X27.610 Y25.194 E833.36529 F2700.000
G1 X28.091 Y24.713 E833.44510
G1 X55.497 Y40.535 E837.15690
G1 X53.701 Y38.739 F7800.000
G1 X28.573 Y24.232 E840.56033 F2700.000
G1 X29.054 Y23.750 E840.64014
G1 X51.906 Y36.944 E843.73522
G1 X50.110 Y35.148 F7800.000
G1 X29.535 Y23.269 E846.52194 F2700.000
G1 X30.016 Y22.788 E846.60175
G1 X48.314 Y33.353 E849.08011
G1 X46.519 Y31.557 F7800.000
G1 X30.497 Y22.307 E851.25011 F2700.000
G1 X30.978 Y21.826 E851.32992
G1 X44.723 Y29.762 E853.19157
G1 X42.928 Y27.966 F7800.000
G1 X31.459 Y21.345 E854.74485 F2700.000
G1 X31.940 Y20.864 E854.82466
G1 X41.132 Y26.170 E856.06959
G1 X39.337 Y24.375 F7800.000
G1 X32.422 Y20.383 E857.00615 F2700.000
G1 X32.903 Y19.901 E857.08596
G1 X37.541 Y22.579 E857.71417
G1 X35.745 Y20.784 F7800.000
G1 X33.384 Y19.420 E858.03402 F2700.000
G1 X33.950 Y18.988 E858.11755
G1 X33.865 Y18.939 E858.12904
G1 X69.832 Y54.883 F7800.000
G1 X24.242 Y28.562 E864.30379 F2700.000
G1 X23.761 Y29.043 E864.38360
G1 X71.323 Y56.502 E870.82539
G1 X72.741 Y58.080 F7800.000
G1 X23.280 Y29.524 E877.52439 F2700.000
G1 X22.799 Y30.005 E877.60420
G1 X74.536 Y59.875 E884.61155
G1 F1800.000 E879.61155
G92 E0
G1 X70.778 Y65.289 F7800.000
G1 E5.00000 F1800.000
G1 X68.052 Y70.728 E5.54295 F2700.000
G1 X66.811 Y70.973 E5.65590
G1 X70.322 Y63.967 E6.35536
G1 X69.867 Y62.645 E6.48020
G1 X65.791 Y70.775 E7.29194
G1 X64.772 Y70.577 E7.38462
G1 X66.337 Y67.455 E7.69638
