; generated by Slic3r 1.1.7 on 2014-11-29 at 11:39:50

; perimeters extrusion width = 0.50mm
; infill extrusion width = 1.02mm
; solid infill extrusion width = 0.85mm
; top infill extrusion width = 0.85mm
; support material extrusion width = 0.50mm

G21 ; set units to millimeters
M107
M190 S35 ; wait for bed temperature to be reached
M104 S210 ; set temperature
G28 ; home all axes
G1 Z5 F200; lift nozzle


M109 S210 ; wait for temperature to be reached
G90 ; use absolute coordinates
G92 E0
M82 ; use absolute distances for extrusion
G1 F1800.000 E-5.00000
G92 E0
G1 Z0.350 F7800.000
G1 X11.215 Y11.215 F7800.000
G1 E5.00000 F1800.000
G1 X20.195 Y2.235 E6.48966 F2700.000
G1 X22.077 Y0.914 E6.75933
G1 X24.296 Y0.313 E7.02899
G1 X26.588 Y0.502 E7.29866
G1 X29.560 Y2.185 E7.69930 F2700.000
G1 X131.780 Y102.255 E24.47837
G1 X166.956 Y137.436 E30.31379
G1 X197.920 Y170.551 E35.63151
G1 X199.177 Y172.476 E35.90118
G1 X199.704 Y174.714 E36.17085
G1 X199.438 Y176.997 E36.44052
G1 X197.765 Y179.805 E36.82384
G1 X179.805 Y197.765 E39.80315
G1 X177.923 Y199.086 E40.07282
G1 X175.704 Y199.687 E40.34249
G1 X173.412 Y199.498 E40.61216
G1 X170.550 Y197.920 E40.99550
G1 X137.252 Y166.776 E46.34339
G1 X102.181 Y131.706 E52.16093
G1 X2.185 Y29.560 E68.92769
G1 X0.885 Y27.664 E69.19736
G1 X0.307 Y25.438 E69.46703
G1 X0.520 Y23.149 E69.73670
G1 X2.235 Y20.195 E70.13734
G1 X11.162 Y11.268 E71.61819
G1 F1800.000 E66.61819
G92 E0
G1 X161.350 Y145.743 F7800.000
G1 E5.00000 F1800.000
G1 X190.704 Y175.097 E9.86938 F1350.000
G1 X175.097 Y190.704 E12.45830
G1 X145.743 Y161.350 E17.32768
G1 X161.297 Y145.796 E19.90779
G1 X161.350 Y144.813 F7800.000
G1 X191.634 Y175.097 E24.93132 F1350.000
G1 X175.097 Y191.634 E27.67438
G1 X144.813 Y161.350 E32.69791
G1 X161.297 Y144.867 E35.43217
G1 X161.350 Y143.884 F7800.000
G1 X192.563 Y175.097 E40.60984 F945.000
G1 X175.097 Y192.563 E43.50704
G1 X143.884 Y161.350 E48.68472
G1 X161.297 Y143.937 E51.57312
G1 X161.479 Y144.367 F7800.000
G1 X161.332 Y146.406 F7800.000
G1 X161.417 Y146.455 E51.58461 F2700.000
G1 X160.851 Y146.887 E51.66816
G1 X163.213 Y148.251 E51.98809
G1 X165.009 Y150.047 F7800.000
G1 X160.369 Y147.369 E52.61645 F2700.000
G1 X159.888 Y147.850 E52.69628
G1 X166.805 Y151.843 E53.63308
G1 X168.601 Y153.639 F7800.000
G1 X159.407 Y148.331 E54.87832 F2700.000
G1 X158.926 Y148.812 E54.95815
G1 X170.397 Y155.435 E56.51182
G1 X172.193 Y157.231 F7800.000
G1 X158.444 Y149.294 E58.37392 F2700.000
G1 X157.963 Y149.775 E58.45375
G1 X173.989 Y159.027 E60.62430
G1 X175.785 Y160.823 F7800.000
G1 X157.482 Y150.256 E63.10328 F2700.000
G1 X157.001 Y150.737 E63.18310
G1 X177.581 Y162.619 E65.97052
G1 X179.377 Y164.415 F7800.000
G1 X156.519 Y151.218 E69.06637 F2700.000
G1 X156.038 Y151.700 E69.14620
G1 X181.173 Y166.211 E72.55048
G1 X182.969 Y168.007 F7800.000
G1 X155.557 Y152.181 E76.26321 F2700.000
G1 X155.076 Y152.662 E76.34304
G1 X184.765 Y169.803 E80.36419
G1 X186.561 Y171.599 F7800.000
G1 X154.594 Y153.143 E84.69379 F2700.000
G1 X154.113 Y153.625 E84.77362
G1 X188.357 Y173.395 E89.41164
G1 X190.021 Y175.115 F7800.000
G1 X153.632 Y154.106 E94.34017 F2700.000
G1 X153.151 Y154.587 E94.42000
G1 X189.553 Y175.604 E99.35032
G1 X189.071 Y176.085 E99.43015
G1 X152.669 Y155.068 E104.36047
G1 X152.188 Y155.550 E104.44030
G1 X188.590 Y176.566 E109.37062
G1 X188.109 Y177.048 E109.45045
G1 X151.707 Y156.031 E114.38077
G1 X151.226 Y156.512 E114.46060
G1 X187.628 Y177.529 E119.39092
G1 X187.146 Y178.010 E119.47075
G1 X150.745 Y156.993 E124.40107
G1 X150.263 Y157.475 E124.48090
G1 X186.665 Y178.491 E129.41122
G1 X186.184 Y178.973 E129.49105
G1 X149.782 Y157.956 E134.42137
G1 X149.301 Y158.437 E134.50120
G1 X185.703 Y179.454 E139.43152
G1 X185.221 Y179.935 E139.51135
G1 X148.820 Y158.918 E144.44167
G1 X148.338 Y159.400 E144.52150
G1 X184.740 Y180.416 E149.45182
G1 X184.259 Y180.897 E149.53165
G1 X147.857 Y159.881 E154.46197
G1 X147.376 Y160.362 E154.54180
G1 X183.778 Y181.379 E159.47212
G1 X183.296 Y181.860 E159.55195
G1 X146.895 Y160.843 E164.48227
G1 X146.427 Y161.332 E164.56166
G1 X182.815 Y182.341 E169.49019
G1 X182.334 Y182.822 E169.57001
G1 X148.090 Y163.052 E174.20804
G1 X149.886 Y164.848 F7800.000
G1 X181.853 Y183.304 E178.53764 F2700.000
G1 X181.371 Y183.785 E178.61747
G1 X151.682 Y166.644 E182.63862
G1 X153.478 Y168.440 F7800.000
G1 X180.890 Y184.266 E186.35135 F2700.000
G1 X180.409 Y184.747 E186.43118
G1 X155.274 Y170.236 E189.83546
G1 X157.070 Y172.032 F7800.000
G1 X179.928 Y185.229 E192.93131 F2700.000
G1 X179.447 Y185.710 E193.01114
G1 X158.866 Y173.828 E195.79856
G1 X160.662 Y175.624 F7800.000
G1 X178.965 Y186.191 E198.27753 F2700.000
G1 X178.484 Y186.672 E198.35736
G1 X162.458 Y177.420 E200.52791
G1 X164.254 Y179.216 F7800.000
G1 X178.003 Y187.154 E202.39001 F2700.000
G1 X177.522 Y187.635 E202.46984
G1 X166.050 Y181.012 E204.02351
G1 X167.846 Y182.808 F7800.000
G1 X177.040 Y188.116 E205.26875 F2700.000
G1 X176.559 Y188.597 E205.34858
G1 X169.642 Y184.604 E206.28538
G1 X171.438 Y186.400 F7800.000
G1 X176.078 Y189.079 E206.91374 F2700.000
G1 X175.597 Y189.560 E206.99357
G1 X173.234 Y188.196 E207.31350
G1 X175.030 Y189.992 F7800.000
G1 X175.115 Y190.041 E207.32499 F2700.000
G1 F1800.000 E202.32499
G92 E0
G1 X69.844 Y68.654 F7800.000
G1 E5.00000 F1800.000
G1 X69.301 Y69.301 E5.09906 F1350.000
G1 X68.654 Y69.844 E5.19813
G1 X67.923 Y70.267 E5.29719
G1 X67.129 Y70.555 E5.39627
G1 X66.456 Y70.674 E5.47648
G1 X66.297 Y70.702 E5.49535
G1 X65.453 Y70.702 E5.59442
G1 X64.621 Y70.555 E5.69348
G1 X63.827 Y70.267 E5.79256
G1 X63.096 Y69.844 E5.89164
G1 X62.449 Y69.301 E5.99070
G1 X61.906 Y68.654 E6.08977
G1 X61.483 Y67.923 E6.18885
G1 X61.195 Y67.129 E6.28792
G1 X61.076 Y66.456 E6.36812
G1 X61.048 Y66.297 E6.38699
G1 X61.048 Y65.453 E6.48606
G1 X61.195 Y64.621 E6.58512
G1 X61.483 Y63.827 E6.68419
G1 X61.906 Y63.096 E6.78329
G1 X62.449 Y62.449 E6.88234
G1 X63.096 Y61.906 E6.98141
G1 X63.827 Y61.484 E7.08047
G1 X64.621 Y61.195 E7.17955
G1 X65.453 Y61.048 E7.27863
G1 X66.297 Y61.048 E7.37770
G1 X66.971 Y61.167 E7.45790
G1 X67.129 Y61.195 E7.47676 F1350.000
G1 X67.923 Y61.484 E7.57584
G1 X68.654 Y61.906 E7.67493
G1 X69.301 Y62.449 E7.77398
G1 X69.844 Y63.096 E7.87305
G1 X70.267 Y63.827 E7.97211
G1 X70.555 Y64.621 E8.07120
G1 X70.702 Y65.453 E8.17028
G1 X70.702 Y66.297 E8.26934
G1 X70.555 Y67.129 E8.36840
G1 X70.267 Y67.923 E8.46748
G1 X69.882 Y68.589 E8.55777
G1 X69.304 Y68.276 F7800.000
G1 X68.835 Y68.835 E8.64335 F1350.000
G1 X68.276 Y69.304 E8.72893
G1 X67.644 Y69.669 E8.81451
G1 X66.958 Y69.918 E8.90010
G1 X66.342 Y70.027 E8.97357
G1 X66.240 Y70.045 E8.98569
G1 X65.510 Y70.045 E9.07128
G1 X64.792 Y69.918 E9.15686
G1 X64.106 Y69.669 E9.24244
G1 X63.564 Y69.356 E9.31592
G1 X63.474 Y69.304 E9.32804
G1 X62.915 Y68.835 E9.41362
G1 X62.446 Y68.276 E9.49920
G1 X62.081 Y67.644 E9.58479
G1 X61.867 Y67.056 E9.65825
G1 X61.832 Y66.958 E9.67037
G1 X61.705 Y66.240 E9.75596
G1 X61.705 Y65.510 E9.84154
G1 X61.832 Y64.792 E9.92713
G1 X62.081 Y64.106 E10.01271
G1 X62.446 Y63.474 E10.09831
G1 X62.915 Y62.915 E10.18389
G1 X63.474 Y62.446 E10.26947
G1 X64.106 Y62.081 E10.35505
G1 X64.792 Y61.832 E10.44064
G1 X65.510 Y61.705 E10.52623
G1 X66.240 Y61.705 E10.61181 F1350.000
G1 X66.958 Y61.832 E10.69739
G1 X67.644 Y62.081 E10.78298
G1 X68.276 Y62.446 E10.86858
G1 X68.835 Y62.915 E10.95415
G1 X69.304 Y63.474 E11.03974
G1 X69.669 Y64.106 E11.12531
G1 X69.883 Y64.695 E11.19879
G1 X69.918 Y64.792 E11.21091
G1 X70.045 Y65.510 E11.29650
G1 X70.045 Y66.240 E11.38208
G1 X69.918 Y66.958 E11.46766
G1 X69.669 Y67.644 E11.55325
G1 X69.341 Y68.211 E11.63005
G1 X68.764 Y67.898 F7800.000
G1 X68.369 Y68.369 E11.70214 F945.000
G1 X67.898 Y68.764 E11.77424
G1 X67.365 Y69.071 E11.84634
G1 X66.788 Y69.281 E11.91844
G1 X66.228 Y69.380 E11.98516
G1 X65.568 Y69.388 E12.06257
G1 X64.962 Y69.281 E12.13466
G1 X64.385 Y69.071 E12.20676
G1 X63.852 Y68.764 E12.27887
G1 X63.382 Y68.369 E12.35096
G1 X62.986 Y67.898 E12.42306
G1 X62.679 Y67.365 E12.49516
G1 X62.469 Y66.788 E12.56726
G1 X62.370 Y66.228 E12.63398
G1 X62.362 Y65.568 E12.71138
G1 X62.469 Y64.962 E12.78348
G1 X62.679 Y64.385 E12.85558
G1 X62.986 Y63.852 E12.92769
G1 X63.382 Y63.382 E12.99978
G1 X63.852 Y62.986 E13.07188
G1 X64.385 Y62.679 E13.14398
G1 X64.962 Y62.469 E13.21608
G1 X65.568 Y62.362 E13.28818
G1 X66.182 Y62.362 E13.36028
G1 X66.743 Y62.461 E13.42700
G1 X67.365 Y62.679 E13.50440 F945.000
G1 X67.898 Y62.986 E13.57650
G1 X68.369 Y63.382 E13.64860
G1 X68.764 Y63.852 E13.72070
G1 X69.071 Y64.385 E13.79280
G1 X69.281 Y64.962 E13.86490
G1 X69.388 Y65.568 E13.93700
G1 X69.388 Y66.182 E14.00910
G1 X69.281 Y66.788 E14.08119
G1 X69.071 Y67.365 E14.15330
G1 X68.801 Y67.833 E14.21660
G1 F1800.000 E9.21660
G92 E0
G1 X66.781 Y61.962 F7800.000
G1 X123.532 Y107.925 F7800.000
G1 E5.00000 F1800.000
G1 X107.925 Y123.532 E7.58891 F1350.000
G1 X9.296 Y24.903 E23.94972
G1 X24.903 Y9.296 E26.53863
G1 X123.479 Y107.872 E42.89064
G1 X124.462 Y107.925 F7800.000
G1 X107.925 Y124.462 E45.63370 F1350.000
G1 X8.366 Y24.903 E62.14865
G1 X24.903 Y8.366 E64.89171
G1 X124.409 Y107.872 E81.39787
G1 X125.391 Y107.925 F7800.000
G1 X107.925 Y125.391 E84.29507 F945.000
G1 X7.437 Y24.903 E100.96417
G1 X24.903 Y7.437 E103.86137
G1 X125.338 Y107.872 E120.52167
G1 X124.908 Y108.055 F7800.000
G1 X122.607 Y107.645 F7800.000
G1 X51.807 Y66.769 E130.11082 F2700.000
G1 X53.616 Y68.577 F7800.000
G1 X122.478 Y108.335 E139.43758 F2700.000
G1 X121.993 Y108.819 E139.51795
G1 X55.424 Y70.385 E148.53421
G1 X57.232 Y72.193 F7800.000
G1 X121.509 Y109.304 E157.23996 F2700.000
G1 X121.024 Y109.788 E157.32032
G1 X59.040 Y74.001 E165.71556
G1 X60.848 Y75.810 F7800.000
G1 X120.540 Y110.273 E173.80029 F2700.000
G1 X120.055 Y110.757 E173.88066
G1 X62.656 Y77.618 E181.65488
G1 X64.464 Y79.426 F7800.000
G1 X119.571 Y111.242 E189.11859 F2700.000
G1 X119.086 Y111.726 E189.19896
G1 X66.272 Y81.234 E196.35216
G1 X68.080 Y83.042 F7800.000
G1 X118.602 Y112.210 E203.19486 F2700.000
G1 X118.117 Y112.695 E203.27522
G1 X69.888 Y84.850 E209.80741
G1 X71.696 Y86.658 F7800.000
G1 X117.633 Y113.179 E216.02908 F2700.000
G1 X120.799 Y105.837 F7800.000
G1 X49.999 Y64.961 E225.61823 F2700.000
G1 X48.191 Y63.153 F7800.000
G1 X118.990 Y104.029 E235.20737 F2700.000
G1 X117.182 Y102.221 F7800.000
G1 X46.383 Y61.345 E244.79652 F2700.000
G1 X44.575 Y59.537 F7800.000
G1 X62.292 Y69.766 E247.19614 F2700.000
G1 X61.223 Y68.384 F7800.000
G1 X42.767 Y57.729 E249.69583 F2700.000
G1 X40.959 Y55.920 F7800.000
G1 X60.798 Y67.375 E252.38293 F2700.000
G1 X60.622 Y66.509 E252.48661
G1 X39.151 Y54.112 E255.39468
G1 X37.343 Y52.304 F7800.000
G1 X60.592 Y65.727 E258.54355 F2700.000
G1 X60.664 Y65.004 E258.62873
G1 X35.535 Y50.496 E262.03224
G1 X33.726 Y48.688 F7800.000
G1 X60.816 Y64.328 E265.70122 F2700.000
G1 X61.045 Y63.697 E265.78005
G1 X31.918 Y46.880 E269.72505
G1 X30.110 Y45.072 F7800.000
G1 X61.366 Y63.118 E273.95841 F2700.000
G1 X61.748 Y62.574 E274.03634
G1 X28.302 Y43.264 E278.56629
G1 X26.494 Y41.456 F7800.000
G1 X62.194 Y62.067 E283.40151 F2700.000
G1 X62.733 Y61.614 E283.48412
G1 X24.686 Y39.648 E288.63729
G1 X22.878 Y37.840 F7800.000
G1 X63.372 Y61.219 E294.12193 F2700.000
G1 X64.125 Y60.889 E294.21831
G1 X21.070 Y36.031 E300.04978
G1 X19.262 Y34.223 F7800.000
G1 X65.045 Y60.656 E306.25075 F2700.000
G1 X66.256 Y60.592 E306.39304
G1 X17.454 Y32.415 E313.00296
G1 X15.646 Y30.607 F7800.000
G1 X86.445 Y71.483 E322.59211 F2700.000
G1 X88.253 Y73.291 F7800.000
G1 X70.260 Y62.903 E325.02910 F2700.000
G1 X70.809 Y63.984 E325.17139
G1 X90.061 Y75.099 E327.77884
G1 X91.869 Y76.907 F7800.000
G1 X71.068 Y64.898 E330.59621 F2700.000
G1 X71.158 Y65.714 E330.69259
G1 X93.677 Y78.715 E333.74255
G1 X95.485 Y80.524 F7800.000
G1 X71.136 Y66.465 E337.04047 F2700.000
G1 X71.014 Y67.159 E337.12307
G1 X97.293 Y82.332 E340.68244
G1 X99.101 Y84.140 F7800.000
G1 X70.797 Y67.798 E344.51597 F2700.000
G1 X70.517 Y68.401 E344.59390
G1 X100.910 Y85.948 E348.71025
G1 X102.718 Y87.756 F7800.000
G1 X70.176 Y68.968 E353.11766 F2700.000
G1 X69.745 Y69.483 E353.19649
G1 X104.526 Y89.564 E357.90730
G1 X106.334 Y91.372 F7800.000
G1 X69.235 Y69.953 E362.93206 F2700.000
G1 X68.645 Y70.377 E363.01724
G1 X108.142 Y93.180 E368.36677
G1 X109.950 Y94.988 F7800.000
G1 X67.953 Y70.741 E374.05492 F2700.000
G1 X67.114 Y71.021 E374.15860
G1 X111.758 Y96.796 E380.20520
G1 X113.566 Y98.605 F7800.000
G1 X66.028 Y71.158 E386.64381 F2700.000
G1 X64.297 Y70.923 F7800.000
G1 X115.374 Y100.413 E393.56176 F2700.000
G1 X100.626 Y115.588 F7800.000
G1 X109.881 Y120.931 E394.81529 F2700.000
G1 X110.366 Y120.447 E394.89566
G1 X98.818 Y113.780 E396.45969
G1 X97.010 Y111.971 F7800.000
G1 X110.850 Y119.962 E398.33424 F2700.000
G1 X111.335 Y119.478 E398.41461
G1 X95.202 Y110.163 E400.59966
G1 X93.394 Y108.355 F7800.000
G1 X111.819 Y118.993 E403.09523 F2700.000
G1 X112.304 Y118.509 E403.17559
G1 X91.586 Y106.547 E405.98167
G1 X89.777 Y104.739 F7800.000
G1 X112.788 Y118.024 E409.09825 F2700.000
G1 X113.272 Y117.540 E409.17862
G1 X87.969 Y102.931 E412.60571
G1 X86.161 Y101.123 F7800.000
G1 X113.757 Y117.055 E416.34331 F2700.000
G1 X114.241 Y116.571 E416.42368
G1 X84.353 Y99.315 E420.47179
G1 X82.545 Y97.507 F7800.000
G1 X114.726 Y116.086 E424.83041 F2700.000
G1 X115.210 Y115.602 E424.91078
G1 X80.737 Y95.699 E429.57991
G1 X78.929 Y93.890 F7800.000
G1 X115.695 Y115.117 E434.55955 F2700.000
G1 X116.179 Y114.633 E434.63991
G1 X77.121 Y92.082 E439.93006
G1 X75.313 Y90.274 F7800.000
G1 X116.664 Y114.148 E445.53072 F2700.000
G1 X117.148 Y113.664 E445.61108
G1 X73.505 Y88.466 E451.52225
G1 X84.637 Y69.675 F7800.000
G1 X13.837 Y28.799 E461.11140 F2700.000
G1 X12.029 Y26.991 F7800.000
G1 X82.829 Y67.867 E470.70054 F2700.000
G1 X81.020 Y66.059 F7800.000
G1 X10.221 Y25.183 E480.28969 F2700.000
G1 X10.350 Y24.493 E480.37199
G1 X79.212 Y64.251 E489.69876
G1 X77.404 Y62.443 F7800.000
G1 X10.835 Y24.009 E498.71501 F2700.000
G1 X11.319 Y23.524 E498.79538
G1 X75.596 Y60.635 E507.50113
G1 X73.788 Y58.826 F7800.000
G1 X11.804 Y23.040 E515.89637 F2700.000
G1 X12.288 Y22.555 E515.97674
G1 X71.980 Y57.018 E524.06147
G1 X70.172 Y55.210 F7800.000
G1 X12.773 Y22.071 E531.83569 F2700.000
G1 X13.257 Y21.586 E531.91606
G1 X68.364 Y53.402 E539.37977
G1 X66.556 Y51.594 F7800.000
G1 X13.742 Y21.102 E546.53297 F2700.000
G1 X14.226 Y20.617 E546.61334
G1 X64.748 Y49.786 E553.45603
G1 X62.940 Y47.978 F7800.000
G1 X14.711 Y20.133 E559.98822 F2700.000
G1 X15.195 Y19.648 E560.06859
G1 X61.131 Y46.170 E566.29026
G1 X59.323 Y44.362 F7800.000
G1 X15.680 Y19.164 E572.20143 F2700.000
G1 X16.164 Y18.679 E572.28180
G1 X57.515 Y42.554 E577.88245
G1 X55.707 Y40.746 F7800.000
G1 X16.649 Y18.195 E583.17260 F2700.000
G1 X17.133 Y17.711 E583.25297
G1 X53.899 Y38.937 E588.23261
G1 X52.091 Y37.129 F7800.000
G1 X17.618 Y17.226 E592.90174 F2700.000
G1 X18.102 Y16.742 E592.98211
G1 X50.283 Y35.321 E597.34073
G1 X48.475 Y33.513 F7800.000
G1 X18.586 Y16.257 E601.38884 F2700.000
G1 X19.071 Y15.773 E601.46921
G1 X46.667 Y31.705 E605.20681
G1 X44.859 Y29.897 F7800.000
G1 X19.555 Y15.288 E608.63390 F2700.000
G1 X20.040 Y14.804 E608.71427
G1 X43.050 Y28.089 E611.83086
G1 X41.242 Y26.281 F7800.000
G1 X20.524 Y14.319 E614.63693 F2700.000
G1 X21.009 Y13.835 E614.71730
G1 X39.434 Y24.473 E617.21287
G1 X37.626 Y22.665 F7800.000
G1 X21.493 Y13.350 E619.39792 F2700.000
G1 X21.978 Y12.866 E619.47829
G1 X35.818 Y20.856 E621.35284
G1 X34.010 Y19.048 F7800.000
G1 X22.462 Y12.381 E622.91688 F2700.000
G1 X22.947 Y11.897 E622.99724
G1 X32.202 Y17.240 E624.25077
G1 X30.394 Y15.432 F7800.000
G1 X23.431 Y11.412 E625.19379 F2700.000
G1 X23.916 Y10.928 E625.27416
G1 X28.586 Y13.624 E625.90667
G1 X26.778 Y11.816 F7800.000
G1 X24.400 Y10.443 E626.22867 F2700.000
G1 X24.970 Y10.008 E626.31275
G1 X24.885 Y9.959 E626.32424
G1 F1800.000 E621.32424
G92 E0
G1 X102.434 Y117.396 F7800.000
G1 E5.00000 F1800.000
G1 X109.397 Y121.416 E5.94302 F2700.000
G1 X108.912 Y121.900 E6.02339
G1 X104.242 Y119.204 E6.65590
G1 X106.050 Y121.012 F7800.000
G1 X108.428 Y122.385 E6.97790 F2700.000
G1 X107.943 Y122.869 E7.05826
