; generated by Slic3r 1.1.7 on 2014-10-04 at 17:48:37

; perimeters extrusion width = 0.50mm
; infill extrusion width = 1.02mm
; solid infill extrusion width = 0.85mm
; top infill extrusion width = 0.85mm

G21 ; set units to millimeters
M107
M190 S35 ; wait for bed temperature to be reached
M104 S210 ; set temperature
G28 ; home all axes
G1 Z5 F300; lift nozzle


M109 S210 ; wait for temperature to be reached
G90 ; use absolute coordinates
G92 E0
M82 ; use absolute distances for extrusion
G1 F1800.000 E-5.00000
G92 E0
G1 Z0.350 F7800.000
G1 X37.413 Y29.087 F7800.000
G1 E5.00000 F1800.000
G1 X38.930 Y27.136 E5.23099 F3600.000
G1 X39.979 Y26.069 E5.37081
G1 X40.879 Y25.264 E5.48366
G1 X45.283 Y21.929 E5.99996
G1 X46.571 Y21.170 E6.13977
G1 X47.649 Y20.625 E6.25261
G1 X52.765 Y18.544 E6.76888
G1 X54.470 Y18.080 E6.93397
G1 X55.389 Y17.897 E7.02157
G1 X60.870 Y17.211 E7.53785
G1 X62.172 Y17.196 E7.65954
G1 X62.636 Y17.204 E7.70292 F3600.000
G1 X63.571 Y17.265 E7.79054
G1 X69.043 Y18.021 E8.30681
G1 X69.628 Y18.163 E8.36307
G1 X70.751 Y18.471 E8.47191
G1 X71.639 Y18.772 E8.55952
G1 X76.728 Y20.918 E9.07578
G1 X78.030 Y21.655 E9.21562
G1 X79.041 Y22.316 E9.32847
G1 X83.402 Y25.707 E9.84474
G1 X84.469 Y26.755 E9.98457
G1 X85.273 Y27.655 E10.09741
G1 X88.285 Y31.581 E10.55983
G1 X126.728 Y83.402 E16.59056
G1 X127.487 Y84.691 E16.73037
G1 X128.031 Y85.769 E16.84322
G1 X130.113 Y90.885 E17.35950
G1 X130.485 Y92.216 E17.48867
G1 X130.577 Y92.589 E17.52458
G1 X130.760 Y93.509 E17.61219
G1 X131.446 Y98.989 E18.12846
G1 X131.459 Y100.485 E18.26830
G1 X131.392 Y101.691 E18.38114
G1 X130.636 Y107.163 E18.89741
G1 X130.186 Y108.871 E19.06249
G1 X129.884 Y109.758 E19.15010
G1 X127.738 Y114.848 E19.66637
G1 X127.407 Y115.451 E19.73067
G1 X126.862 Y116.381 E19.83146
G1 X126.341 Y117.160 E19.91907
G1 X122.950 Y121.521 E20.43534
G1 X121.902 Y122.588 E20.57518
G1 X121.002 Y123.393 E20.68802
G1 X116.598 Y126.728 E21.20430
G1 X115.309 Y127.487 E21.34414
G1 X114.231 Y128.031 E21.45697
G1 X109.115 Y130.113 E21.97325
G1 X107.784 Y130.485 E22.10242
G1 X107.411 Y130.577 E22.13833
G1 X106.491 Y130.760 E22.22594
G1 X101.011 Y131.446 E22.74221
G1 X100.262 Y131.461 E22.81221
G1 X41.710 Y131.461 E28.28481
G1 X41.245 Y131.453 E28.32827
G1 X40.309 Y131.392 E28.41589
G1 X34.837 Y130.636 E28.93216
G1 X33.500 Y130.293 E29.06119
G1 X33.130 Y130.186 E29.09724
G1 X32.242 Y129.884 E29.18486
G1 X27.152 Y127.738 E29.70113
G1 X25.850 Y127.001 E29.84098
G1 X24.840 Y126.341 E29.95380
G1 X20.479 Y122.950 E30.47008
G1 X19.412 Y121.902 E30.60991
G1 X18.607 Y121.002 E30.72275
G1 X15.272 Y116.598 E31.23904
G1 X14.383 Y115.072 E31.40409
G1 X13.969 Y114.231 E31.49171
G1 X11.887 Y109.115 E32.00797
G1 X11.512 Y107.772 E32.13828
G1 X11.240 Y106.491 E32.26066
G1 X10.554 Y101.010 E32.77694
G1 X10.540 Y100.380 E32.83591
G1 X10.547 Y99.244 E32.94201
G1 X10.608 Y98.309 E33.02963
G1 X11.364 Y92.837 E33.54590
G1 X11.722 Y91.449 E33.67991
G1 X12.058 Y90.386 E33.78413
G1 X31.996 Y38.899 E38.94460
G1 X34.142 Y33.809 E39.46086
G1 X34.415 Y33.308 E39.51421
G1 X35.019 Y32.276 E39.62593
G1 X35.540 Y31.496 E39.71357
G1 X37.367 Y29.146 E39.99184
G1 F1800.000 E34.99184
G92 E0
G1 X105.279 Y102.162 F7800.000
G1 E5.00000 F1800.000
G1 X104.684 Y103.193 E5.11127 F1800.000
G1 X104.155 Y103.856 E5.19049
G1 X103.534 Y104.432 E5.26967
G1 X102.834 Y104.909 E5.34887
G1 X102.131 Y105.248 E5.42182
G1 X102.717 Y105.834 E5.49921
G1 X103.131 Y106.492 E5.57193
G1 X103.388 Y107.227 E5.64467
G1 X103.475 Y108.000 E5.71739
G1 X103.388 Y108.773 E5.79009
G1 X103.131 Y109.508 E5.86282
G1 X102.717 Y110.166 E5.93555
G1 X102.166 Y110.717 E6.00828
G1 X101.508 Y111.131 E6.08100
G1 X100.773 Y111.388 E6.15371
G1 X100.197 Y111.453 E6.20796
G1 X100.000 Y111.475 E6.22646
G1 X99.227 Y111.388 E6.29916
G1 X98.492 Y111.131 E6.37190
G1 X97.834 Y110.717 E6.44462
G1 X97.283 Y110.166 E6.51734
G1 X96.869 Y109.508 E6.59006
G1 X96.612 Y108.773 E6.66280
G1 X96.525 Y108.000 E6.73552
G1 X96.612 Y107.227 E6.80822
G1 X96.869 Y106.493 E6.88094
G1 X97.283 Y105.834 E6.95368
G1 X97.869 Y105.248 E7.03108
G1 X97.166 Y104.909 E7.10402
G1 X96.466 Y104.432 E7.18322
G1 X95.844 Y103.856 E7.26243
G1 X95.316 Y103.193 E7.34160
G1 X94.721 Y102.162 E7.45289
G1 X94.166 Y102.717 E7.52618
G1 X93.508 Y103.131 E7.59890
G1 X92.773 Y103.388 E7.67164
G1 X92.000 Y103.475 E7.74436
G1 X91.227 Y103.388 E7.81706
G1 X90.493 Y103.131 E7.88977
G1 X89.834 Y102.717 E7.96252
G1 X89.283 Y102.166 E8.03524
G1 X88.869 Y101.508 E8.10796
G1 X88.612 Y100.773 E8.18070
G1 X88.547 Y100.197 E8.23492
G1 X88.525 Y100.000 E8.25342
G1 X88.612 Y99.227 E8.32612
G1 X88.869 Y98.493 E8.39883
G1 X89.283 Y97.834 E8.47159
G1 X89.834 Y97.283 E8.54431
G1 X90.492 Y96.869 E8.61703
G1 X91.227 Y96.612 E8.68977
G1 X92.000 Y96.525 E8.76249
G1 X92.773 Y96.612 E8.83520
G1 X93.507 Y96.869 E8.90791
G1 X94.166 Y97.283 E8.98065
G1 X94.721 Y97.838 E9.05393
G1 X95.316 Y96.807 E9.16520
G1 X95.845 Y96.144 E9.24442
G1 X96.466 Y95.568 E9.32361
G1 X97.166 Y95.091 E9.40281
G1 X97.869 Y94.752 E9.47575
G1 X97.283 Y94.166 E9.55315
G1 X96.869 Y93.508 E9.62586
G1 X96.612 Y92.773 E9.69860
G1 X96.525 Y92.000 E9.77132
G1 X96.612 Y91.227 E9.84402
G1 X96.869 Y90.493 E9.91674
G1 X97.283 Y89.834 E9.98949
G1 X97.834 Y89.283 E10.06221
G1 X98.492 Y88.869 E10.13493
G1 X99.040 Y88.678 E10.18917
G1 X99.227 Y88.612 E10.20767
G1 X100.000 Y88.525 E10.28039
G1 X100.773 Y88.612 E10.35310
G1 X101.507 Y88.869 E10.42581
G1 X101.999 Y89.178 E10.48006
G1 X102.166 Y89.283 E10.49855
G1 X102.717 Y89.834 E10.57127
G1 X103.131 Y90.492 E10.64399
G1 X103.388 Y91.227 E10.71674
G1 X103.475 Y92.000 E10.78946
G1 X103.388 Y92.773 E10.86217
G1 X103.131 Y93.507 E10.93488
G1 X102.717 Y94.167 E11.00762
G1 X102.131 Y94.752 E11.08501
G1 X102.834 Y95.091 E11.15796
G1 X103.534 Y95.568 E11.23715
G1 X104.156 Y96.144 E11.31636
G1 X104.684 Y96.807 E11.39553
G1 X105.279 Y97.838 E11.50683
G1 X105.834 Y97.283 E11.58011
G1 X106.492 Y96.869 E11.65283
G1 X107.227 Y96.612 E11.72557
G1 X108.000 Y96.525 E11.79829
G1 X108.773 Y96.612 E11.87099
G1 X109.507 Y96.869 E11.94371
G1 X110.166 Y97.283 E12.01645
G1 X110.717 Y97.834 E12.08917
G1 X111.131 Y98.492 E12.16189
G1 X111.388 Y99.227 E12.23461
G1 X111.475 Y100.000 E12.30735
G1 X111.388 Y100.773 E12.38006
G1 X111.131 Y101.508 E12.45281
G1 X110.717 Y102.166 E12.52552
G1 X110.166 Y102.717 E12.59824
G1 X109.508 Y103.131 E12.67096
G1 X108.773 Y103.388 E12.74370
G1 X108.000 Y103.475 E12.81642
G1 X107.227 Y103.388 E12.88912
G1 X106.493 Y103.131 E12.96184
G1 X105.834 Y102.717 E13.03458
G1 X105.332 Y102.215 E13.10085
G1 X104.931 Y100.846 F7800.000
G1 X104.787 Y101.477 E13.16133 F1800.000
G1 X104.514 Y102.174 E13.23131
G1 X104.139 Y102.822 E13.30129
G1 X103.672 Y103.408 E13.37128
G1 X103.124 Y103.917 E13.44127
G1 X102.505 Y104.339 E13.51126
G1 X101.830 Y104.664 E13.58123
G1 X101.115 Y104.884 E13.65121
G1 X100.873 Y104.921 E13.67406
G1 X100.835 Y105.330 E13.71249
G1 X101.221 Y105.465 E13.75070
G1 X101.754 Y105.800 E13.80959
G1 X102.200 Y106.246 E13.86847
G1 X102.535 Y106.779 E13.92736
G1 X102.743 Y107.374 E13.98625
G1 X102.813 Y108.000 E14.04513
G1 X102.743 Y108.626 E14.10400
G1 X102.535 Y109.221 E14.16289
G1 X102.200 Y109.754 E14.22178
G1 X101.754 Y110.200 E14.28066
G1 X101.221 Y110.535 E14.33955
G1 X100.626 Y110.743 E14.39843
G1 X100.000 Y110.813 E14.45732
G1 X99.374 Y110.743 E14.51620
G1 X98.896 Y110.576 E14.56352
G1 X98.779 Y110.535 E14.57509
G1 X98.246 Y110.200 E14.63397
G1 X97.800 Y109.754 E14.69285
G1 X97.465 Y109.221 E14.75174
G1 X97.257 Y108.626 E14.81063
G1 X97.187 Y108.000 E14.86951
G1 X97.257 Y107.374 E14.92838
G1 X97.465 Y106.779 E14.98726
G1 X97.800 Y106.246 E15.04616
G1 X98.246 Y105.800 E15.10504
G1 X98.779 Y105.465 E15.16393
G1 X99.165 Y105.330 E15.20214
G1 X99.127 Y104.921 E15.24058
G1 X98.885 Y104.884 E15.26341
G1 X98.170 Y104.664 E15.33339
G1 X97.495 Y104.339 E15.40338
G1 X96.876 Y103.917 E15.47337
G1 X96.327 Y103.408 E15.54336
G1 X95.861 Y102.822 E15.61334
G1 X95.486 Y102.174 E15.68331
G1 X95.213 Y101.477 E15.75331
G1 X95.069 Y100.846 E15.81378
G1 X94.674 Y100.824 E15.85075
G1 X94.535 Y101.221 E15.89005
G1 X94.200 Y101.754 E15.94895
G1 X93.754 Y102.200 E16.00783
G1 X93.221 Y102.535 E16.06672
G1 X92.743 Y102.702 E16.11403
G1 X92.626 Y102.743 E16.12561
G1 X92.000 Y102.813 E16.18449
G1 X91.374 Y102.743 E16.24336
G1 X90.779 Y102.535 E16.30224
G1 X90.351 Y102.266 E16.34956
G1 X90.246 Y102.200 E16.36114
G1 X89.800 Y101.754 E16.42002
G1 X89.465 Y101.221 E16.47890
G1 X89.257 Y100.626 E16.53779
G1 X89.187 Y100.000 E16.59668
G1 X89.257 Y99.374 E16.65555
G1 X89.465 Y98.779 E16.71443
G1 X89.734 Y98.351 E16.76175
G1 X89.800 Y98.246 E16.77333
G1 X90.246 Y97.800 E16.83221
G1 X90.779 Y97.465 E16.89109
G1 X91.374 Y97.257 E16.94999
G1 X92.000 Y97.187 E17.00887
G1 X92.626 Y97.257 E17.06775
G1 X93.221 Y97.465 E17.12662
G1 X93.754 Y97.800 E17.18552
G1 X94.200 Y98.246 E17.24440
G1 X94.535 Y98.779 E17.30328
G1 X94.674 Y99.176 E17.34259
G1 X95.069 Y99.154 E17.37957
G1 X95.213 Y98.523 E17.44005
G1 X95.486 Y97.826 E17.51002
G1 X95.861 Y97.178 E17.58000
G1 X96.328 Y96.592 E17.65000
G1 X96.876 Y96.083 E17.71998
G1 X97.495 Y95.661 E17.78997
G1 X98.170 Y95.336 E17.85995
G1 X98.885 Y95.116 E17.92993
G1 X99.127 Y95.079 E17.95277
G1 X99.165 Y94.670 E17.99120
G1 X98.779 Y94.535 E18.02940
G1 X98.246 Y94.200 E18.08830
G1 X97.800 Y93.754 E18.14719
G1 X97.465 Y93.221 E18.20606
G1 X97.257 Y92.626 E18.26496
G1 X97.187 Y92.000 E18.32384
G1 X97.257 Y91.374 E18.38271
G1 X97.465 Y90.779 E18.44159
G1 X97.734 Y90.351 E18.48892
G1 X97.800 Y90.246 E18.50049
G1 X98.246 Y89.800 E18.55938
G1 X98.779 Y89.465 E18.61826
G1 X99.257 Y89.298 E18.66558
G1 X99.374 Y89.257 E18.67715
G1 X100.000 Y89.187 E18.73603
G1 X100.626 Y89.257 E18.79491
G1 X101.221 Y89.465 E18.85379
G1 X101.754 Y89.800 E18.91268
G1 X102.200 Y90.246 E18.97156
G1 X102.535 Y90.779 E19.03045
G1 X102.743 Y91.374 E19.08934
G1 X102.813 Y92.000 E19.14823
G1 X102.743 Y92.626 E19.20710
G1 X102.535 Y93.221 E19.26598
G1 X102.200 Y93.754 E19.32487
G1 X101.754 Y94.200 E19.38375
G1 X101.221 Y94.535 E19.44264
G1 X100.835 Y94.670 E19.48085
G1 X100.873 Y95.079 E19.51928
G1 X101.115 Y95.116 E19.54213
G1 X101.830 Y95.336 E19.61210
G1 X102.505 Y95.661 E19.68208
G1 X103.124 Y96.083 E19.75207
G1 X103.673 Y96.592 E19.82207
G1 X104.139 Y97.178 E19.89204
G1 X104.514 Y97.826 E19.96202
G1 X104.787 Y98.523 E20.03201
G1 X104.931 Y99.154 E20.09249
G1 X105.326 Y99.176 E20.12946
G1 X105.465 Y98.779 E20.16875
G1 X105.800 Y98.246 E20.22765
G1 X106.246 Y97.800 E20.28654
G1 X106.779 Y97.465 E20.34542
G1 X107.257 Y97.298 E20.39274
G1 X107.374 Y97.257 E20.40431
G1 X108.000 Y97.187 E20.46319
G1 X108.626 Y97.257 E20.52206
G1 X109.221 Y97.465 E20.58095
G1 X109.649 Y97.734 E20.62827
G1 X109.754 Y97.800 E20.63984
G1 X110.200 Y98.246 E20.69873
G1 X110.535 Y98.779 E20.75761
G1 X110.743 Y99.374 E20.81649
G1 X110.800 Y99.877 E20.86381
G1 X110.813 Y100.000 E20.87539
G1 X110.743 Y100.626 E20.93426
G1 X110.535 Y101.221 E20.99316
G1 X110.200 Y101.754 E21.05203
G1 X109.754 Y102.200 E21.11092
G1 X109.221 Y102.535 E21.16980
G1 X108.626 Y102.743 E21.22869
G1 X108.000 Y102.813 E21.28757
G1 X107.374 Y102.743 E21.34645
G1 X106.779 Y102.535 E21.40533
G1 X106.246 Y102.200 E21.46422
G1 X105.800 Y101.754 E21.52311
G1 X105.465 Y101.221 E21.58199
G1 X105.326 Y100.824 E21.62130
G1 X105.006 Y100.842 E21.65126
G1 F1800.000 E16.65126
G92 E0
G1 X94.152 Y100.000 F7800.000
G1 E5.00000 F1800.000
G1 X94.098 Y100.479 E5.04504 F1800.000
G1 X93.939 Y100.934 E5.09009
G1 X93.683 Y101.342 E5.13513
G1 X93.342 Y101.683 E5.18018
G1 X92.934 Y101.939 E5.22522
G1 X92.526 Y102.082 E5.26562
G1 X92.000 Y102.152 E5.31521
G1 X91.521 Y102.098 E5.36025
G1 X91.066 Y101.939 E5.40529
G1 X90.658 Y101.683 E5.45034
G1 X90.317 Y101.342 E5.49539
G1 X90.061 Y100.934 E5.54043
G1 X89.902 Y100.479 E5.58548
G1 X89.853 Y100.049 E5.62587
G1 X89.902 Y99.521 E5.67546
G1 X90.061 Y99.066 E5.72050
G1 X90.317 Y98.658 E5.76555
G1 X90.658 Y98.317 E5.81060
G1 X91.066 Y98.061 E5.85564
G1 X91.521 Y97.902 E5.90069
G1 X92.000 Y97.848 E5.94573
G1 X92.429 Y97.896 E5.98612
G1 X92.934 Y98.061 E6.03571 F1800.000
G1 X93.342 Y98.317 E6.08076
G1 X93.683 Y98.658 E6.12580
G1 X93.939 Y99.066 E6.17085
G1 X94.098 Y99.521 E6.21590
G1 X94.144 Y99.925 E6.25393
G1 F1800.000 E1.25393
G92 E0
G1 X92.876 Y98.122 F7800.000
G1 X105.848 Y100.000 F7800.000
G1 E5.00000 F1800.000
G1 X105.902 Y99.521 E5.04504 F1800.000
G1 X106.061 Y99.066 E5.09008
G1 X106.317 Y98.658 E5.13513
G1 X106.658 Y98.317 E5.18018
G1 X107.066 Y98.061 E5.22522
G1 X107.521 Y97.902 E5.27027
G1 X108.000 Y97.848 E5.31531
G1 X108.429 Y97.896 E5.35570
G1 X108.934 Y98.061 E5.40529 F1800.000
G1 X109.342 Y98.317 E5.45034
G1 X109.683 Y98.658 E5.49539
G1 X109.939 Y99.066 E5.54043
G1 X110.098 Y99.521 E5.58547
G1 X110.152 Y100.000 E5.63052
G1 X110.098 Y100.479 E5.67556
G1 X109.939 Y100.934 E5.72061
G1 X109.709 Y101.300 E5.76100
G1 X109.342 Y101.683 E5.81059
G1 X108.934 Y101.939 E5.85564
G1 X108.479 Y102.098 E5.90069
G1 X108.049 Y102.147 E5.94107
G1 X107.521 Y102.098 E5.99066
G1 X107.066 Y101.939 E6.03571
G1 X106.658 Y101.683 E6.08076
G1 X106.317 Y101.342 E6.12580
G1 X106.061 Y100.934 E6.17085
G1 X105.902 Y100.479 E6.21589
G1 X105.856 Y100.075 E6.25393
G1 F1800.000 E1.25393
G92 E0
G1 X108.703 Y98.315 F7800.000
G1 X101.342 Y93.683 F7800.000
G1 E5.00000 F1800.000
G1 X100.934 Y93.939 E5.04505 F1800.000
G1 X100.479 Y94.098 E5.09009
G1 X100.049 Y94.147 E5.13048
G1 X99.521 Y94.098 E5.18007
G1 X99.066 Y93.939 E5.22511
G1 X98.658 Y93.683 E5.27016
G1 X98.317 Y93.342 E5.31521
G1 X98.061 Y92.934 E5.36025
G1 X97.902 Y92.479 E5.40530
G1 X97.848 Y92.000 E5.45035
G1 X97.902 Y91.521 E5.49539
G1 X98.061 Y91.066 E5.54043
G1 X98.317 Y90.658 E5.58548
G1 X98.658 Y90.317 E5.63052
G1 X99.066 Y90.061 E5.67557
G1 X99.521 Y89.902 E5.72061
G1 X100.000 Y89.848 E5.76566
G1 X100.429 Y89.896 E5.80605
G1 X100.934 Y90.061 E5.85564 F1800.000
G1 X101.342 Y90.317 E5.90069
G1 X101.683 Y90.658 E5.94573
G1 X101.939 Y91.066 E5.99078
G1 X102.098 Y91.521 E6.03582
G1 X102.152 Y92.000 E6.08087
G1 X102.098 Y92.479 E6.12591
G1 X101.939 Y92.934 E6.17095
G1 X101.683 Y93.342 E6.21600
G1 X101.395 Y93.630 E6.25403
G1 F1800.000 E1.25403
G92 E0
G1 X100.837 Y90.186 F7800.000
G1 X100.968 Y95.758 F7800.000
G1 E5.00000 F1800.000
G1 X101.590 Y95.950 E5.06077 F1800.000
G1 X102.210 Y96.255 E5.12541
G1 X102.713 Y96.598 E5.18230
G1 X103.190 Y97.041 E5.24308
G1 X103.595 Y97.549 E5.30386
G1 X103.935 Y98.151 E5.36848
G1 X104.158 Y98.718 E5.42538
G1 X104.302 Y99.351 E5.48616
G1 X104.351 Y100.000 E5.54694
G1 X104.302 Y100.648 E5.60772
G1 X104.158 Y101.283 E5.66850
G1 X103.920 Y101.888 E5.72928
G1 X103.569 Y102.484 E5.79391
G1 X103.189 Y102.959 E5.85080
G1 X102.713 Y103.402 E5.91158
G1 X102.175 Y103.768 E5.97236
G1 X101.590 Y104.050 E6.03314
G1 X100.968 Y104.242 E6.09392
G1 X100.325 Y104.339 E6.15470
G1 X99.675 Y104.339 E6.21548
G1 X98.992 Y104.230 E6.28011
G1 X98.410 Y104.050 E6.33700
G1 X97.825 Y103.768 E6.39778
G1 X97.257 Y103.373 E6.46241
G1 X96.810 Y102.959 E6.51930
G1 X96.405 Y102.451 E6.58008
G1 X96.065 Y101.849 E6.64471
G1 X95.842 Y101.282 E6.70160
G1 X95.698 Y100.648 E6.76238
G1 X95.649 Y100.000 E6.82316
G1 X95.698 Y99.351 E6.88394
G1 X95.842 Y98.717 E6.94472
G1 X96.080 Y98.112 E7.00550
G1 X96.405 Y97.549 E7.06628
G1 X96.811 Y97.041 E7.12706
G1 X97.287 Y96.598 E7.18784
G1 X97.825 Y96.232 E7.24863
G1 X98.410 Y95.950 E7.30940
G1 X99.032 Y95.758 E7.37018
G1 X99.675 Y95.661 E7.43096
G1 X100.366 Y95.667 E7.49560
G1 X100.894 Y95.747 E7.54547 F1800.000
G1 X100.772 Y95.959 F7800.000
G1 F1800.000 E2.54547
G92 E0
G1 X100.000 Y105.848 F7800.000
G1 E5.00000 F1800.000
G1 X100.429 Y105.896 E5.04039 F1800.000
G1 X100.934 Y106.061 E5.08998 F1800.000
G1 X101.342 Y106.317 E5.13503
G1 X101.683 Y106.658 E5.18007
G1 X101.939 Y107.066 E5.22512
G1 X102.082 Y107.474 E5.26551
G1 X102.152 Y108.000 E5.31510
G1 X102.098 Y108.479 E5.36014
G1 X101.939 Y108.934 E5.40519
G1 X101.683 Y109.342 E5.45024
G1 X101.342 Y109.683 E5.49528
G1 X100.934 Y109.939 E5.54033
G1 X100.479 Y110.098 E5.58537
G1 X100.000 Y110.152 E5.63042
G1 X99.521 Y110.098 E5.67546
