; generated by Slic3r 1.1.7 on 2014-11-06 at 13:38:17

; perimeters extrusion width = 0.50mm
; infill extrusion width = 0.70mm
; solid infill extrusion width = 0.70mm
; top infill extrusion width = 0.70mm

G21 ; set units to millimeters
M107
M190 S35 ; wait for bed temperature to be reached
M104 S210 ; set temperature
G28 ; home all axes
G1 Z5 F200; lift nozzle


M109 S210 ; wait for temperature to be reached
G90 ; use absolute coordinates
G92 E0
M82 ; use absolute distances for extrusion
G1 F1800.000 E-5.00000
G92 E0
G1 Z0.350 F7800.000
G1 X81.856 Y70.801 F7800.000
G1 E5.00000 F1800.000
G1 X83.497 Y69.190 E5.26967 F3600.000
G1 X85.588 Y68.234 E5.53934
G1 X87.270 Y68.018 E5.73825
G1 X112.730 Y68.018 E8.72467
G1 X114.995 Y68.415 E8.99434
G1 X116.989 Y69.559 E9.26401 F3600.000
G1 X118.144 Y70.801 E9.46292
G1 X142.070 Y104.241 E14.28595
G1 X142.915 Y105.576 E14.47126
G1 X143.638 Y106.984 E14.65689
G1 X144.232 Y108.452 E14.84268
G1 X144.692 Y109.966 E15.02828
G1 X145.014 Y111.515 E15.21380
G1 X145.198 Y113.119 E15.40322
G1 X145.238 Y114.668 E15.58500
G1 X145.137 Y116.249 E15.77078
G1 X144.894 Y117.816 E15.95682
G1 X144.515 Y119.347 E16.14173
G1 X143.986 Y120.870 E16.33082
G1 X143.348 Y122.289 E16.51338
G1 X142.572 Y123.669 E16.69905
G1 X141.679 Y124.969 E16.88407
G1 X140.668 Y126.191 E17.07013
G1 X139.536 Y127.330 E17.25844
G1 X138.342 Y128.335 E17.44153
G1 X137.045 Y129.242 E17.62714
G1 X135.674 Y130.028 E17.81256
G1 X134.238 Y130.688 E17.99791
G1 X132.744 Y131.219 E18.18386
G1 X131.212 Y131.613 E18.36939
G1 X129.633 Y131.869 E18.55708
G1 X128.071 Y131.982 E18.74072
G1 X71.339 Y131.956 E25.39519
G1 X70.361 Y131.869 E25.51037
G1 X69.766 Y131.789 E25.58076
G1 X68.799 Y131.614 E25.69603
G1 X68.214 Y131.482 E25.76631
G1 X67.265 Y131.221 E25.88179
G1 X66.696 Y131.037 E25.95188
G1 X65.771 Y130.692 E26.06771
G1 X65.224 Y130.459 E26.13745
G1 X64.336 Y130.033 E26.25299
G1 X63.810 Y129.751 E26.32300
G1 X62.965 Y129.247 E26.43843
G1 X62.465 Y128.919 E26.50858
G1 X61.665 Y128.340 E26.62440
G1 X61.200 Y127.970 E26.69413
G1 X60.455 Y127.322 E26.80993
G1 X60.024 Y126.912 E26.87970
G1 X59.339 Y126.198 E26.99566
G1 X58.948 Y125.752 E27.06526
G1 X58.327 Y124.977 E27.18176
G1 X57.980 Y124.501 E27.25082
G1 X57.434 Y123.677 E27.36681
G1 X57.128 Y123.169 E27.43639
G1 X56.657 Y122.298 E27.55253
G1 X56.399 Y121.765 E27.62195
G1 X56.007 Y120.854 E27.73836
G1 X55.798 Y120.302 E27.80752
G1 X55.488 Y119.356 E27.92426
G1 X55.331 Y118.791 E27.99308
G1 X55.108 Y117.827 E28.10921
G1 X55.001 Y117.244 E28.17864
G1 X54.864 Y116.260 E28.29523
G1 X54.810 Y115.674 E28.36420
G1 X54.762 Y114.679 E28.48104
G1 X54.761 Y114.093 E28.54978
G1 X54.803 Y113.098 E28.66664
G1 X54.854 Y112.515 E28.73533
G1 X54.984 Y111.525 E28.85246
G1 X55.087 Y110.950 E28.92091
G1 X55.306 Y109.976 E29.03796
G1 X55.460 Y109.413 E29.10646
G1 X55.765 Y108.463 E29.22355
G1 X55.968 Y107.915 E29.29202
G1 X56.358 Y106.994 E29.40940
G1 X56.609 Y106.469 E29.47760
G1 X57.080 Y105.585 E29.59509
G1 X57.376 Y105.086 E29.66315
G1 X58.073 Y104.032 E29.81140
G1 X81.813 Y70.862 E34.59589
G1 F1800.000 E29.59589
G92 E0
G1 X133.386 Y118.548 F7800.000
G1 E5.00000 F1800.000
G1 X132.812 Y119.242 E5.10558 F1800.000
G1 X132.156 Y119.858 E5.21116
G1 X131.428 Y120.387 E5.31673
G1 X130.639 Y120.821 E5.42231
G1 X129.803 Y121.152 E5.52789
G1 X128.931 Y121.376 E5.63346
G1 X128.038 Y121.489 E5.73904
G1 X127.138 Y121.489 E5.84462
G1 X126.245 Y121.376 E5.95020
G1 X125.373 Y121.152 E6.05578
G1 X124.536 Y120.821 E6.16135
G1 X123.747 Y120.387 E6.26693
G1 X123.019 Y119.858 E6.37251
G1 X122.363 Y119.242 E6.47808
G1 X121.789 Y118.548 E6.58366
G1 X121.406 Y117.945 E6.66751
G1 X121.307 Y117.788 E6.68924
G1 X120.924 Y116.974 E6.79481
G1 X120.645 Y116.118 E6.90039
G1 X120.477 Y115.234 E7.00597
G1 X120.420 Y114.335 E7.11155
G1 X120.477 Y113.437 E7.21712
G1 X120.645 Y112.553 E7.32271
G1 X120.924 Y111.697 E7.42828
G1 X121.307 Y110.882 E7.53386
G1 X121.789 Y110.123 E7.63943
G1 X122.363 Y109.429 E7.74501
G1 X123.019 Y108.813 E7.85059
G1 X123.747 Y108.284 E7.95617
G1 X124.536 Y107.850 E8.06174
G1 X125.373 Y107.519 E8.16732
G1 X126.245 Y107.295 E8.27290
G1 X127.138 Y107.182 E8.37847
G1 X128.038 Y107.182 E8.48405
G1 X128.747 Y107.272 E8.56790
G1 X128.931 Y107.295 E8.58963 F1800.000
G1 X129.803 Y107.519 E8.69521
G1 X130.639 Y107.850 E8.80079
G1 X131.428 Y108.284 E8.90636
G1 X132.156 Y108.813 E9.01194
G1 X132.812 Y109.429 E9.11751
G1 X133.386 Y110.123 E9.22309
G1 X133.869 Y110.883 E9.32867
G1 X134.252 Y111.697 E9.43424
G1 X134.530 Y112.553 E9.53982
G1 X134.699 Y113.437 E9.64541
G1 X134.755 Y114.335 E9.75098
G1 X134.699 Y115.234 E9.85655
G1 X134.530 Y116.118 E9.96213
G1 X134.252 Y116.974 E10.06772
G1 X133.869 Y117.788 E10.17329
G1 X133.426 Y118.485 E10.27007
G1 X132.854 Y118.161 F7800.000
G1 X132.333 Y118.791 E10.36595 F1800.000
G1 X131.737 Y119.351 E10.46183
G1 X131.075 Y119.831 E10.55771
G1 X130.359 Y120.225 E10.65359
G1 X129.599 Y120.526 E10.74946
G1 X128.807 Y120.729 E10.84534
G1 X127.996 Y120.832 E10.94122
G1 X127.179 Y120.832 E11.03710
G1 X126.368 Y120.729 E11.13298
G1 X125.576 Y120.526 E11.22886
G1 X124.816 Y120.225 E11.32474
G1 X124.100 Y119.831 E11.42062
G1 X123.439 Y119.351 E11.51650
G1 X122.843 Y118.791 E11.61238
G1 X122.322 Y118.161 E11.70826
G1 X121.884 Y117.471 E11.80414
G1 X121.536 Y116.732 E11.90001
G1 X121.283 Y115.954 E11.99589
G1 X121.130 Y115.151 E12.09177
G1 X121.079 Y114.335 E12.18766
G1 X121.130 Y113.520 E12.28353
G1 X121.283 Y112.717 E12.37942
G1 X121.536 Y111.939 E12.47530
G1 X121.884 Y111.200 E12.57117
G1 X122.322 Y110.510 E12.66705
G1 X122.843 Y109.880 E12.76293
G1 X123.439 Y109.320 E12.85881
G1 X124.100 Y108.840 E12.95469
G1 X124.816 Y108.446 E13.05057
G1 X125.576 Y108.145 E13.14645
G1 X126.368 Y107.942 E13.24233
G1 X127.179 Y107.839 E13.33821
G1 X127.996 Y107.839 E13.43409 F1800.000
G1 X128.807 Y107.942 E13.52997
G1 X129.460 Y108.109 E13.60896
G1 X129.599 Y108.145 E13.62585
G1 X130.359 Y108.446 E13.72172
G1 X131.075 Y108.840 E13.81760
G1 X131.737 Y109.320 E13.91348
G1 X132.333 Y109.880 E14.00936
G1 X132.854 Y110.509 E14.10524
G1 X133.292 Y111.200 E14.20112
G1 X133.640 Y111.939 E14.29700
G1 X133.892 Y112.717 E14.39288
G1 X134.045 Y113.520 E14.48876
G1 X134.097 Y114.335 E14.58464
G1 X134.045 Y115.151 E14.68052
G1 X133.892 Y115.954 E14.77639
G1 X133.640 Y116.732 E14.87228
G1 X133.292 Y117.471 E14.96816
G1 X132.894 Y118.098 E15.05524
G1 X132.321 Y117.774 F7800.000
G1 X131.853 Y118.341 E15.14142 F1800.000
G1 X131.317 Y118.843 E15.22760
G1 X130.723 Y119.275 E15.31378
G1 X130.079 Y119.629 E15.39996
G1 X129.396 Y119.900 E15.48614
G1 X128.684 Y120.083 E15.57232
G1 X127.955 Y120.175 E15.65851
G1 X127.220 Y120.175 E15.74469
G1 X126.491 Y120.083 E15.83087
G1 X125.780 Y119.900 E15.91705
G1 X125.097 Y119.629 E16.00323
G1 X124.453 Y119.275 E16.08941
G1 X123.858 Y118.843 E16.17559
G1 X123.323 Y118.341 E16.26177
G1 X122.854 Y117.774 E16.34796
G1 X122.516 Y117.241 E16.42210
G1 X122.148 Y116.489 E16.52024
G1 X121.921 Y115.790 E16.60642
G1 X121.783 Y115.069 E16.69260
G1 X121.737 Y114.335 E16.77878
G1 X121.783 Y113.602 E16.86496
G1 X121.921 Y112.880 E16.95114
G1 X122.148 Y112.182 E17.03733
G1 X122.461 Y111.517 E17.12351
G1 X122.854 Y110.897 E17.20969
G1 X123.323 Y110.330 E17.29587
G1 X123.858 Y109.827 E17.38205
G1 X124.453 Y109.396 E17.46823
G1 X125.097 Y109.042 E17.55441
G1 X125.780 Y108.771 E17.64059
G1 X126.491 Y108.588 E17.72678
G1 X127.220 Y108.496 E17.81296
G1 X127.955 Y108.496 E17.89914
G1 X128.582 Y108.576 E17.97328
G1 X129.396 Y108.771 E18.07142 F1800.000
G1 X130.079 Y109.042 E18.15760
G1 X130.723 Y109.396 E18.24378
G1 X131.317 Y109.827 E18.32996
G1 X131.853 Y110.330 E18.41614
G1 X132.321 Y110.896 E18.50232
G1 X132.715 Y111.517 E18.58851
G1 X133.028 Y112.182 E18.67469
G1 X133.255 Y112.880 E18.76087
G1 X133.392 Y113.602 E18.84705
G1 X133.438 Y114.335 E18.93323
G1 X133.392 Y115.069 E19.01941
G1 X133.255 Y115.790 E19.10559
G1 X133.028 Y116.489 E19.19178
G1 X132.715 Y117.154 E19.27796
G1 X132.361 Y117.711 E19.35534
G1 F1800.000 E14.35534
G92 E0
G1 X128.586 Y108.076 F7800.000
G1 X111.066 Y109.729 F7800.000
G1 E5.00000 F1800.000
G1 X115.716 Y109.729 E5.54539 F1800.000
G1 X116.526 Y109.686 E5.64060
G1 X117.391 Y109.547 E5.74328
G1 X118.235 Y109.314 E5.84597
G1 X119.040 Y108.994 E5.94760
G1 X119.814 Y108.584 E6.05030
G1 X120.537 Y108.093 E6.15292
G1 X121.816 Y107.000 E6.35024
G1 X122.496 Y106.513 E6.44832
G1 X123.216 Y106.088 E6.54642
G1 X123.972 Y105.730 E6.64452
G1 X124.757 Y105.441 E6.74261
G1 X125.564 Y105.223 E6.84071
G1 X126.388 Y105.079 E6.93880
G1 X127.221 Y105.008 E7.03690
G1 X128.058 Y105.013 E7.13499
G1 X128.890 Y105.093 E7.23308
G1 X129.712 Y105.246 E7.33118
G1 X130.517 Y105.473 E7.42928
G1 X131.299 Y105.771 E7.52737
G1 X132.050 Y106.137 E7.62547
G1 X132.766 Y106.570 E7.72356
G1 X133.441 Y107.064 E7.82165
G1 X134.068 Y107.617 E7.91975
G1 X134.643 Y108.224 E8.01784
G1 X135.162 Y108.880 E8.11593
G1 X135.620 Y109.580 E8.21403
G1 X136.013 Y110.318 E8.31213
G1 X136.339 Y111.088 E8.41022
G1 X136.594 Y111.885 E8.50831
G1 X136.778 Y112.701 E8.60641
G1 X136.887 Y113.530 E8.70450
G1 X136.922 Y114.365 E8.80260
G1 X136.882 Y115.201 E8.90069
G1 X136.767 Y116.029 E8.99878
G1 X136.578 Y116.844 E9.09689
G1 X136.318 Y117.638 E9.19497
G1 X135.987 Y118.407 E9.29307
G1 X135.589 Y119.142 E9.39116
G1 X135.127 Y119.839 E9.48927
G1 X134.604 Y120.492 E9.58735
G1 X134.025 Y121.095 E9.68545
G1 X133.394 Y121.644 E9.78354
G1 X132.716 Y122.134 E9.88163
G1 X131.998 Y122.562 E9.97973
G1 X131.244 Y122.924 E10.07783
G1 X130.460 Y123.217 E10.17592
G1 X129.654 Y123.438 E10.27402
G1 X128.831 Y123.586 E10.37211
G1 X127.998 Y123.661 E10.47020
G1 X127.162 Y123.660 E10.56830
G1 X126.329 Y123.584 E10.66639
G1 X125.506 Y123.435 E10.76448
G1 X124.700 Y123.212 E10.86258
G1 X123.917 Y122.918 E10.96068
G1 X123.164 Y122.555 E11.05877
G1 X122.446 Y122.126 E11.15686
G1 X121.002 Y121.094 E11.36491
G1 X120.299 Y120.706 E11.45915
G1 X119.466 Y120.354 E11.56521
G1 X118.500 Y120.076 E11.68313
G1 X117.708 Y119.942 E11.77733
G1 X116.838 Y119.889 E11.87960
G1 X109.396 Y119.888 E12.75258
G1 X108.825 Y119.856 E12.81955
G1 X108.308 Y119.768 E12.88115
G1 X107.803 Y119.622 E12.94274
G1 X107.318 Y119.421 E13.00435
G1 X106.858 Y119.167 E13.06594
G1 X106.430 Y118.863 E13.12754
G1 X106.038 Y118.514 E13.18914
G1 X105.688 Y118.122 E13.25074
G1 X105.385 Y117.694 E13.31235
G1 X105.130 Y117.234 E13.37394
G1 X104.930 Y116.749 E13.43554
G1 X104.784 Y116.244 E13.49714
G1 X104.696 Y115.726 E13.55874
G1 X104.664 Y115.156 E13.62570
G1 X104.664 Y81.071 E17.62382
G1 X104.696 Y80.501 E17.69079
G1 X104.784 Y79.983 E17.75238
G1 X104.930 Y79.478 E17.81399
G1 X105.130 Y78.993 E17.87558
G1 X105.384 Y78.533 E17.93718
G1 X105.688 Y78.105 E17.99878
G1 X106.038 Y77.714 E18.06038
G1 X106.430 Y77.364 E18.12198
G1 X106.858 Y77.060 E18.18359
G1 X107.318 Y76.806 E18.24518
G1 X107.803 Y76.605 E18.30678
G1 X108.308 Y76.459 E18.36838
G1 X108.825 Y76.371 E18.42997
G1 X109.395 Y76.339 E18.49694
G1 X111.066 Y76.339 E18.69291
G1 X111.066 Y109.654 E22.60058
G1 X111.723 Y109.072 F7800.000
G1 X115.702 Y109.072 E23.06733 F1800.000
G1 X116.462 Y109.031 E23.15661
G1 X117.253 Y108.904 E23.25054
G1 X118.025 Y108.690 E23.34448
G1 X118.764 Y108.397 E23.43778
G1 X119.472 Y108.022 E23.53173
G1 X120.135 Y107.573 E23.62563
G1 X121.409 Y106.483 E23.82234
G1 X122.137 Y105.961 E23.92734
G1 X122.908 Y105.507 E24.03235
G1 X123.717 Y105.124 E24.13735
G1 X124.557 Y104.814 E24.24236
G1 X125.422 Y104.581 E24.34737
G1 X126.303 Y104.426 E24.45237
G1 X127.196 Y104.351 E24.55738
G1 X128.091 Y104.356 E24.66239
G1 X128.982 Y104.441 E24.76739
G1 X129.862 Y104.606 E24.87240
G1 X130.724 Y104.848 E24.97741
G1 X131.560 Y105.167 E25.08242
G1 X132.365 Y105.560 E25.18743
G1 X133.131 Y106.022 E25.29244
G1 X133.853 Y106.552 E25.39744
G1 X134.525 Y107.144 E25.50244
G1 X135.140 Y107.794 E25.60745
G1 X135.696 Y108.496 E25.71245
G1 X136.186 Y109.245 E25.81747
G1 X136.607 Y110.035 E25.92247
G1 X136.956 Y110.860 E26.02748
G1 X137.229 Y111.712 E26.13248
G1 X137.425 Y112.585 E26.23749
G1 X137.542 Y113.473 E26.34250
G1 X137.580 Y114.367 E26.44751
G1 X137.537 Y115.262 E26.55251
G1 X137.414 Y116.148 E26.65751
G1 X137.212 Y117.021 E26.76253
G1 X136.933 Y117.871 E26.86752
G1 X136.579 Y118.694 E26.97254
G1 X136.153 Y119.481 E27.07754
G1 X135.658 Y120.227 E27.18256
G1 X135.098 Y120.926 E27.28756
G1 X134.478 Y121.571 E27.39256
G1 X133.803 Y122.159 E27.49757
G1 X133.078 Y122.684 E27.60258
G1 X132.308 Y123.142 E27.70759
G1 X131.501 Y123.529 E27.81260
G1 X130.663 Y123.842 E27.91760
G1 X129.799 Y124.079 E28.02261
G1 X128.918 Y124.238 E28.12761
G1 X128.027 Y124.318 E28.23262
G1 X127.132 Y124.317 E28.33763
G1 X126.240 Y124.236 E28.44263
G1 X125.359 Y124.076 E28.54764
G1 X124.496 Y123.837 E28.65265
G1 X123.658 Y123.522 E28.75765
G1 X122.852 Y123.134 E28.86266
G1 X122.083 Y122.675 E28.96767
G1 X120.665 Y121.659 E29.17233
G1 X119.996 Y121.289 E29.26198
G1 X119.232 Y120.968 E29.35916
G1 X118.374 Y120.722 E29.46387
G1 X117.621 Y120.594 E29.55350
G1 X116.813 Y120.545 E29.64838
G1 X109.377 Y120.545 E30.52060
G1 X108.752 Y120.510 E30.59406
G1 X108.161 Y120.409 E30.66432
G1 X107.586 Y120.244 E30.73457
G1 X107.032 Y120.014 E30.80483
G1 X106.508 Y119.725 E30.87508
G1 X106.020 Y119.378 E30.94534
G1 X105.573 Y118.979 E31.01559
G1 X105.174 Y118.532 E31.08585
G1 X104.827 Y118.044 E31.15611
G1 X104.538 Y117.520 E31.22636
G1 X104.308 Y116.966 E31.29662
G1 X104.143 Y116.391 E31.36688
G1 X104.042 Y115.800 E31.43713
G1 X104.007 Y115.175 E31.51059
G1 X104.007 Y81.052 E35.51302
G1 X104.042 Y80.427 E35.58648
G1 X104.143 Y79.836 E35.65673
G1 X104.308 Y79.261 E35.72700
G1 X104.538 Y78.707 E35.79725
G1 X104.827 Y78.183 E35.86750
G1 X105.174 Y77.695 E35.93776
G1 X105.573 Y77.248 E36.00802
G1 X106.020 Y76.849 E36.07827
G1 X106.508 Y76.502 E36.14853
G1 X107.032 Y76.213 E36.21878
G1 X107.586 Y75.984 E36.28904
G1 X108.161 Y75.818 E36.35930
G1 X108.752 Y75.717 E36.42955
G1 X109.377 Y75.682 E36.50301
G1 X111.723 Y75.682 E36.77821
G1 X111.723 Y108.997 E40.68589
G1 X112.380 Y108.415 F7800.000
G1 X115.689 Y108.415 E41.07399 F1800.000
G1 X116.399 Y108.377 E41.15733
G1 X117.115 Y108.260 E41.24252
G1 X117.816 Y108.067 E41.32771
G1 X118.489 Y107.799 E41.41268
G1 X119.131 Y107.460 E41.49788
G1 X119.732 Y107.053 E41.58306
G1 X121.003 Y105.966 E41.77916
G1 X121.778 Y105.410 E41.89107
G1 X122.600 Y104.926 E42.00299
G1 X123.462 Y104.517 E42.11491
G1 X124.358 Y104.187 E42.22683
G1 X125.279 Y103.939 E42.33875
G1 X126.219 Y103.774 E42.45066
G1 X127.170 Y103.694 E42.56259
G1 X128.124 Y103.699 E42.67450
G1 X129.074 Y103.790 E42.78642
G1 X130.012 Y103.965 E42.89834
G1 X130.930 Y104.224 E43.01026
G1 X131.822 Y104.564 E43.12218
G1 X132.679 Y104.982 E43.23410
G1 X133.496 Y105.475 E43.34602
G1 X134.265 Y106.039 E43.45794
G1 X134.981 Y106.670 E43.56986
G1 X135.638 Y107.363 E43.68178
G1 X136.229 Y108.111 E43.79369
G1 X136.752 Y108.910 E43.90562
G1 X137.201 Y109.752 E44.01753
G1 X137.572 Y110.631 E44.12945
G1 X137.864 Y111.539 E44.24137
G1 X138.073 Y112.470 E44.35329
G1 X138.198 Y113.416 E44.46521
G1 X138.237 Y114.370 E44.57713
G1 X138.191 Y115.323 E44.68905
G1 X138.061 Y116.268 E44.80096
G1 X137.846 Y117.197 E44.91289
G1 X137.548 Y118.104 E45.02480
G1 X137.171 Y118.980 E45.13672
G1 X136.717 Y119.820 E45.24864
G1 X136.189 Y120.615 E45.36057
G1 X135.593 Y121.359 E45.47248
G1 X134.932 Y122.048 E45.58440
G1 X134.212 Y122.674 E45.69632
G1 X133.439 Y123.233 E45.80824
G1 X132.619 Y123.722 E45.92016
G1 X131.759 Y124.134 E46.03208
G1 X130.865 Y124.468 E46.14400
G1 X129.945 Y124.721 E46.25592
G1 X129.006 Y124.890 E46.36783
G1 X128.056 Y124.975 E46.47975
G1 X127.101 Y124.974 E46.59167
G1 X126.151 Y124.888 E46.70359
G1 X125.213 Y124.717 E46.81551
G1 X124.293 Y124.463 E46.92743
G1 X123.400 Y124.127 E47.03935
G1 X122.540 Y123.713 E47.15127
G1 X121.721 Y123.223 E47.26319
G1 X120.327 Y122.223 E47.46446
G1 X119.692 Y121.872 E47.54953
G1 X118.998 Y121.582 E47.63782
G1 X118.248 Y121.367 E47.72933
G1 X117.533 Y121.245 E47.81439
G1 X116.788 Y121.202 E47.90189
G1 X109.359 Y121.202 E48.77333
G1 X108.678 Y121.164 E48.85329
