; generated by Slic3r 1.1.7 on 2014-11-05 at 22:15:02

; perimeters extrusion width = 0.50mm
; infill extrusion width = 0.70mm
; solid infill extrusion width = 0.70mm
; top infill extrusion width = 0.70mm

G21 ; set units to millimeters
M107
M190 S35 ; wait for bed temperature to be reached
M104 S210 ; set temperature
G28 ; home all axes
G1 Z5 F200; lift nozzle


M109 S210 ; wait for temperature to be reached
G90 ; use absolute coordinates
G92 E0
M82 ; use absolute distances for extrusion
G1 F1800.000 E-5.00000
G92 E0
G1 Z0.350 F7800.000
G1 X50.741 Y80.287 F7800.000
G1 E5.00000 F1800.000
G1 X54.045 Y79.409 E5.40097 F3600.000
G1 X135.007 Y79.409 E14.89752
G1 X137.272 Y79.806 E15.16719
G1 X139.266 Y80.950 E15.43686 F3600.000
G1 X140.753 Y82.703 E15.70653
G1 X141.554 Y84.858 E15.97620
G1 X141.664 Y86.066 E16.11844
G1 X141.664 Y105.644 E18.41480
G1 X141.269 Y144.450 E22.96681
G1 X140.849 Y146.710 E23.23648
G1 X139.685 Y148.693 E23.50615
G1 X137.916 Y150.161 E23.77582
G1 X134.612 Y151.039 E24.17679
G1 X53.649 Y151.039 E33.67334
G1 X51.385 Y150.642 E33.94301
G1 X49.390 Y149.498 E34.21268
G1 X47.904 Y147.744 E34.48235
G1 X47.103 Y145.589 E34.75202
G1 X46.992 Y144.382 E34.89426
G1 X46.993 Y124.804 E37.19062
G1 X47.388 Y85.998 E41.74263
G1 X47.808 Y83.738 E42.01230
G1 X48.972 Y81.755 E42.28197
G1 X50.683 Y80.335 E42.54284
G1 F1800.000 E37.54284
G92 E0
G1 X130.880 Y93.550 F7800.000
G1 E5.00000 F1800.000
G1 X130.352 Y93.735 E5.06571 F1800.000
G1 X129.795 Y93.798 E5.13143
G1 X129.238 Y93.735 E5.19717
G1 X128.709 Y93.550 E5.26289
G1 X128.235 Y93.252 E5.32860
G1 X127.838 Y92.856 E5.39433
G1 X127.540 Y92.382 E5.46006
G1 X127.355 Y91.853 E5.52578
G1 X127.293 Y91.296 E5.59150
G1 X127.355 Y90.739 E5.65722
G1 X127.540 Y90.210 E5.72295
G1 X127.838 Y89.736 E5.78867
G1 X128.235 Y89.340 E5.85439
G1 X128.709 Y89.041 E5.92012
G1 X129.238 Y88.856 E5.98583
G1 X129.795 Y88.794 E6.05155
G1 X130.303 Y88.851 E6.11150
G1 X130.880 Y89.042 E6.18288 F1800.000
G1 X131.355 Y89.340 E6.24859
G1 X131.751 Y89.736 E6.31432
G1 X132.049 Y90.210 E6.38004
G1 X132.234 Y90.739 E6.44577
G1 X132.297 Y91.296 E6.51149
G1 X132.240 Y91.804 E6.57142
G1 X132.049 Y92.382 E6.64280
G1 X131.751 Y92.856 E6.70852
G1 X131.355 Y93.252 E6.77425
G1 X130.944 Y93.510 E6.83118
G1 F1800.000 E1.83118
G92 E0
G1 X130.369 Y88.355 F7800.000
G1 X130.283 Y98.849 F7800.000
G1 E5.00000 F1800.000
G1 X130.303 Y98.851 E5.00226 F1800.000
G1 X130.880 Y99.042 E5.07364 F1800.000
G1 X131.355 Y99.340 E5.13935
G1 X131.751 Y99.736 E5.20507
G1 X132.049 Y100.210 E5.27080
G1 X132.234 Y100.739 E5.33652
G1 X132.297 Y101.296 E5.40224
G1 X132.234 Y101.853 E5.46797
G1 X132.049 Y102.382 E5.53369
G1 X131.751 Y102.856 E5.59941
G1 X131.355 Y103.252 E5.66513
G1 X130.880 Y103.550 E5.73086
G1 X130.352 Y103.735 E5.79658
G1 X129.795 Y103.798 E5.86230
G1 X129.238 Y103.735 E5.92803
G1 X128.709 Y103.550 E5.99375
G1 X128.235 Y103.252 E6.05947
G1 X127.838 Y102.856 E6.12519
G1 X127.540 Y102.382 E6.19092
G1 X127.355 Y101.853 E6.25664
G1 X127.293 Y101.296 E6.32237
G1 X127.355 Y100.739 E6.38808
G1 X127.540 Y100.210 E6.45381
G1 X127.838 Y99.736 E6.51953
G1 X128.235 Y99.340 E6.58525
G1 X128.709 Y99.041 E6.65098
G1 X129.238 Y98.856 E6.71669
G1 X129.795 Y98.794 E6.78241
G1 X130.209 Y98.840 E6.83131
G1 X130.652 Y98.493 F7800.000
G1 F1800.000 E1.83131
G92 E0
G1 X126.802 Y103.156 F7800.000
G1 E5.00000 F1800.000
G1 X127.182 Y103.046 E5.04640 F1800.000
G1 X127.321 Y103.268 E5.07716
G1 X127.822 Y103.769 E5.16026
G1 X128.490 Y104.189 E5.25271
G1 X128.380 Y104.569 E5.29911
G1 X126.802 Y104.569 E5.48425
G1 X126.802 Y103.231 E5.64118
G1 X127.459 Y98.275 F7800.000
G1 X127.459 Y94.317 E6.10546 F1800.000
G1 X128.135 Y94.742 E6.19913
G1 X128.943 Y95.025 E6.29958
G1 X129.795 Y95.121 E6.40010
G1 X130.646 Y95.025 E6.50056
G1 X131.454 Y94.742 E6.60096
G1 X132.179 Y94.286 E6.70145
G1 X132.785 Y93.681 E6.80191
G1 X132.963 Y93.397 E6.84114
G1 X133.343 Y93.507 E6.88754
G1 X133.343 Y99.085 E7.54182
G1 X132.963 Y99.194 E7.58822
G1 X132.785 Y98.911 E7.62745
G1 X132.179 Y98.305 E7.72793
G1 X131.454 Y97.850 E7.82833
G1 X130.646 Y97.567 E7.92878
G1 X129.794 Y97.471 E8.02932
G1 X128.943 Y97.567 E8.12977
G1 X128.136 Y97.850 E8.23017
G1 X127.522 Y98.235 E8.31510
G1 F1800.000 E3.31510
G92 E0
G1 X132.963 Y89.194 F7800.000
G1 E5.00000 F1800.000
G1 X132.785 Y88.911 E5.03923 F1800.000
G1 X132.179 Y88.305 E5.13971
G1 X131.869 Y88.110 E5.18274
G1 X131.978 Y87.730 E5.22915
G1 X133.343 Y87.730 E5.38926
G1 X133.343 Y89.085 E5.54817
G1 X133.035 Y89.174 E5.58577
G1 X134.000 Y87.073 F7800.000
G1 X134.000 Y104.569 E7.63793 F1800.000
G1 X131.209 Y104.569 E7.96530
G1 X131.100 Y104.188 E8.01171
G1 X131.767 Y103.769 E8.10416
G1 X132.268 Y103.268 E8.18725
G1 X132.645 Y102.668 E8.27034
G1 X132.879 Y102.000 E8.35343
G1 X132.958 Y101.296 E8.43652
G1 X132.879 Y100.592 E8.51961
G1 X132.645 Y99.923 E8.60270
G1 X132.268 Y99.324 E8.68579
G1 X131.767 Y98.823 E8.76890
G1 X131.167 Y98.446 E8.85196
G1 X130.499 Y98.212 E8.93504
G1 X129.795 Y98.132 E9.01818
G1 X129.091 Y98.212 E9.10127
G1 X128.422 Y98.446 E9.18432
G1 X127.822 Y98.823 E9.26743
G1 X127.321 Y99.324 E9.35052
G1 X127.182 Y99.546 E9.38127
G1 X126.802 Y99.436 E9.42768
G1 X126.802 Y93.156 E10.16432
G1 X127.182 Y93.046 E10.21072
G1 X127.321 Y93.268 E10.24148
G1 X127.822 Y93.769 E10.32458
G1 X128.422 Y94.146 E10.40765
G1 X129.091 Y94.380 E10.49073
G1 X129.795 Y94.459 E10.57386
G1 X130.499 Y94.380 E10.65695
G1 X131.167 Y94.146 E10.74001
G1 X131.767 Y93.769 E10.82312
G1 X132.268 Y93.268 E10.90621
G1 X132.645 Y92.668 E10.98929
G1 X132.686 Y92.552 E11.00376
G1 X132.879 Y92.000 E11.07239
G1 X132.958 Y91.296 E11.15547
G1 X132.879 Y90.592 E11.23857
G1 X132.645 Y89.923 E11.32166
G1 X132.268 Y89.324 E11.40475
G1 X131.767 Y88.823 E11.48786
G1 X131.167 Y88.446 E11.57092
G1 X130.499 Y88.212 E11.65400
G1 X129.795 Y88.132 E11.73714
G1 X129.091 Y88.212 E11.82022
G1 X128.422 Y88.446 E11.90328
G1 X127.822 Y88.823 E11.98639
G1 X127.321 Y89.324 E12.06948
G1 X127.182 Y89.546 E12.10023
G1 X126.802 Y89.436 E12.14663
G1 X126.802 Y87.073 E12.42379
G1 X133.925 Y87.073 E13.25933
G1 X134.657 Y86.416 F7800.000
G1 X134.657 Y105.226 E15.46563 F1800.000
G1 X126.145 Y105.226 E16.46411
G1 X126.145 Y86.416 E18.67041
G1 X134.582 Y86.416 E19.66009
G1 X134.407 Y86.849 F7800.000
G1 F1800.000 E14.66009
G92 E0
G1 X84.297 Y91.296 F7800.000
G1 E5.00000 F1800.000
G1 X84.234 Y91.853 E5.06574 F1800.000
G1 X84.049 Y92.382 E5.13146
G1 X83.751 Y92.856 E5.19717
G1 X83.355 Y93.252 E5.26290
G1 X82.880 Y93.550 E5.32863
G1 X82.352 Y93.735 E5.39434
G1 X81.795 Y93.798 E5.46006
G1 X81.238 Y93.735 E5.52579
G1 X80.709 Y93.550 E5.59152
G1 X80.235 Y93.252 E5.65723
G1 X79.838 Y92.856 E5.72296
G1 X79.540 Y92.382 E5.78869
G1 X79.355 Y91.853 E5.85440
G1 X79.293 Y91.296 E5.92012
G1 X79.355 Y90.739 E5.98586
G1 X79.540 Y90.210 E6.05158
G1 X79.838 Y89.736 E6.11729
G1 X80.235 Y89.340 E6.18302
G1 X80.709 Y89.041 E6.24875
G1 X81.238 Y88.856 E6.31446
G1 X81.795 Y88.794 E6.38018
G1 X82.303 Y88.851 E6.44013
G1 X82.880 Y89.042 E6.51151 F1800.000
G1 X83.355 Y89.340 E6.57721
G1 X83.751 Y89.736 E6.64294
G1 X84.049 Y90.210 E6.70868
G1 X84.234 Y90.739 E6.77439
G1 X84.289 Y91.221 E6.83131
G1 F1800.000 E1.83131
G92 E0
G1 X82.276 Y88.352 F7800.000
G1 X82.352 Y98.856 F7800.000
G1 E5.00000 F1800.000
G1 X82.880 Y99.042 E5.06572 F1800.000
G1 X83.355 Y99.340 E5.13143
G1 X83.751 Y99.736 E5.19716
G1 X84.023 Y100.169 E5.25710
G1 X84.234 Y100.739 E5.32847
G1 X84.297 Y101.296 E5.39419
G1 X84.234 Y101.853 E5.45993
G1 X84.049 Y102.382 E5.52565
G1 X83.751 Y102.856 E5.59136
G1 X83.355 Y103.252 E5.65709
G1 X82.880 Y103.550 E5.72282
G1 X82.352 Y103.735 E5.78853
G1 X81.795 Y103.798 E5.85425
G1 X81.287 Y103.741 E5.91420
G1 X80.709 Y103.550 E5.98557
G1 X80.235 Y103.252 E6.05128
G1 X79.838 Y102.856 E6.11701
G1 X79.540 Y102.382 E6.18274
G1 X79.355 Y101.853 E6.24845
G1 X79.293 Y101.296 E6.31417
G1 X79.355 Y100.739 E6.37991
G1 X79.540 Y100.210 E6.44563
G1 X79.838 Y99.736 E6.51134
G1 X80.235 Y99.340 E6.57707
G1 X80.709 Y99.041 E6.64280
G1 X81.238 Y98.856 E6.70851
G1 X81.795 Y98.794 E6.77423
G1 X82.277 Y98.848 E6.83118
G1 X82.705 Y98.503 F7800.000
G1 X84.131 Y98.275 F7800.000
G1 X83.454 Y97.850 E6.92485 F1800.000
G1 X82.646 Y97.567 E7.02529
G1 X81.794 Y97.471 E7.12583
G1 X80.944 Y97.567 E7.22627
G1 X80.136 Y97.850 E7.32668
G1 X79.410 Y98.306 E7.42717
G1 X78.804 Y98.911 E7.52767
G1 X78.349 Y99.636 E7.62806
G1 X78.066 Y100.445 E7.72851
G1 X77.970 Y101.296 E7.82905
G1 X78.066 Y102.147 E7.92949
G1 X78.349 Y102.955 E8.02989
G1 X78.950 Y103.912 E8.16239
G1 X74.759 Y103.912 E8.65395
G1 X74.759 Y87.730 E10.55196
G1 X79.611 Y87.730 E11.12114
G1 X79.721 Y88.110 E11.16754
G1 X79.410 Y88.306 E11.21061
G1 X78.804 Y88.911 E11.31110
G1 X78.349 Y89.636 E11.41149
G1 X78.066 Y90.445 E11.51194
G1 X77.970 Y91.296 E11.61248
G1 X78.066 Y92.147 E11.71293
G1 X78.349 Y92.955 E11.81333
G1 X78.805 Y93.681 E11.91382
G1 X79.410 Y94.286 E12.01431
G1 X80.135 Y94.742 E12.11471
G1 X80.943 Y95.025 E12.21516
G1 X81.795 Y95.121 E12.31568
G1 X82.646 Y95.025 E12.41613
G1 X83.454 Y94.742 E12.51653
G1 X84.131 Y94.317 E12.61027
G1 X84.131 Y98.200 E13.06574
G1 X84.788 Y99.436 F7800.000
G1 X84.408 Y99.546 E13.11215 F1800.000
G1 X84.268 Y99.324 E13.14290
G1 X83.767 Y98.822 E13.22602
G1 X83.167 Y98.446 E13.30907
G1 X82.499 Y98.212 E13.39215
G1 X81.795 Y98.132 E13.47529
G1 X81.091 Y98.212 E13.55837
G1 X80.422 Y98.446 E13.64143
G1 X79.822 Y98.823 E13.72454
G1 X79.321 Y99.324 E13.80765
G1 X78.945 Y99.923 E13.89071
G1 X78.711 Y100.592 E13.97379
G1 X78.631 Y101.296 E14.05693
G1 X78.711 Y102.000 E14.14001
G1 X78.945 Y102.668 E14.22306
G1 X79.321 Y103.268 E14.30618
G1 X79.823 Y103.769 E14.38929
G1 X80.490 Y104.189 E14.48172
G1 X80.380 Y104.569 E14.52812
G1 X74.102 Y104.569 E15.26456
G1 X74.102 Y87.073 E17.31672
G1 X84.788 Y87.073 E18.57012
G1 X84.788 Y89.436 E18.84728
G1 X84.408 Y89.546 E18.89368
G1 X84.268 Y89.324 E18.92444
G1 X83.767 Y88.822 E19.00755
G1 X83.167 Y88.446 E19.09060
G1 X82.499 Y88.212 E19.17369
G1 X81.795 Y88.132 E19.25682
G1 X81.091 Y88.212 E19.33990
G1 X80.422 Y88.446 E19.42296
G1 X79.822 Y88.823 E19.50607
G1 X79.321 Y89.324 E19.58919
G1 X78.945 Y89.923 E19.67224
G1 X78.711 Y90.592 E19.75532
G1 X78.631 Y91.296 E19.83846
G1 X78.711 Y92.000 E19.92154
G1 X78.945 Y92.668 E20.00460
G1 X79.321 Y93.268 E20.08771
G1 X79.823 Y93.769 E20.17082
G1 X80.422 Y94.146 E20.25388
G1 X81.091 Y94.380 E20.33696
G1 X81.795 Y94.459 E20.42009
G1 X82.499 Y94.380 E20.50317
G1 X83.167 Y94.146 E20.58623
G1 X83.767 Y93.769 E20.66934
G1 X84.268 Y93.268 E20.75245
G1 X84.407 Y93.046 E20.78318
G1 X84.788 Y93.156 E20.82959
G1 X84.788 Y99.361 E21.55744
G1 X84.788 Y103.156 F7800.000
G1 X84.788 Y104.569 E21.72317 F1800.000
G1 X83.209 Y104.569 E21.90831
G1 X83.100 Y104.188 E21.95472
G1 X83.767 Y103.769 E22.04718
G1 X84.268 Y103.268 E22.13028
G1 X84.407 Y103.046 E22.16101
G1 X84.716 Y103.135 E22.19863
G1 X85.445 Y105.226 F7800.000
G1 X73.445 Y105.226 E23.60617 F1800.000
G1 X73.445 Y86.416 E25.81248
G1 X85.445 Y86.416 E27.22002
G1 X85.445 Y105.151 E29.41753
G1 X85.012 Y104.976 F7800.000
G1 X73.095 Y105.461 F7800.000
G1 X54.045 Y105.461 E31.65201 F1800.000
G1 F1800.000 E26.65201
G92 E0
G1 X125.795 Y86.181 F7800.000
G1 E5.00000 F1800.000
G1 X85.795 Y86.181 E9.69182 F1800.000
G1 X73.095 Y86.181 F7800.000
G1 X54.045 Y86.181 E11.92630 F1800.000
G1 F1800.000 E6.92630
G92 E0
G1 X75.215 Y93.059 F7800.000
G1 E5.00000 F1800.000
G1 X79.725 Y97.569 E5.74806 F3600.000
G1 X79.147 Y97.932 E5.82815
G1 X75.215 Y94.001 E6.48030
G1 X75.215 Y94.942 E6.59073
G1 X78.672 Y98.399 E7.16408
G1 X78.257 Y98.925 E7.24271
G1 X75.215 Y95.884 E7.74723
G1 X75.215 Y96.825 E7.85766
G1 X77.907 Y99.517 E8.30420
G1 X77.663 Y100.214 E8.39086
G1 X75.215 Y97.767 E8.79691
G1 X75.215 Y98.708 E8.90734
G1 X77.540 Y101.033 E9.29304
G1 X77.593 Y102.027 E9.40983
G1 X75.215 Y99.649 E9.80428
G1 X75.215 Y100.591 E9.91471
G1 X78.074 Y103.449 E10.38887
G1 X77.138 Y103.455 E10.49861
G1 X75.215 Y101.532 E10.81758
G1 X75.215 Y102.474 E10.92801
G1 X76.197 Y103.455 E11.09081
G1 X75.255 Y103.455 E11.20124
G1 X75.215 Y103.415 E11.20788
G1 X80.379 Y97.281 F7800.000
G1 X75.215 Y92.118 E12.06439 F3600.000
G1 X75.215 Y91.176 E12.17482
G1 X81.126 Y97.087 E13.15532
G1 X82.017 Y97.037 E13.26002
G1 X80.243 Y95.263 E13.55428
G1 X81.464 Y95.543 E13.70119
G1 X83.199 Y97.277 E13.98892
G1 X83.674 Y96.811 E14.06701
G1 X82.377 Y95.514 E14.28213
G1 X83.140 Y95.335 E14.37401
G1 X83.674 Y95.870 E14.46264
G1 X77.827 Y92.847 F7800.000
G1 X75.215 Y90.235 E14.89595 F3600.000
G1 X75.215 Y89.294 E15.00638
G1 X77.548 Y91.626 E15.39333
G1 X77.577 Y90.713 E15.50046
G1 X75.215 Y88.352 E15.89215
G1 X75.991 Y88.187 E15.98521
G1 X77.755 Y89.951 E16.27786
G1 X78.031 Y89.285 E16.36239
G1 X76.933 Y88.187 E16.54456
G1 X77.874 Y88.187 E16.65499
G1 X78.394 Y88.707 E16.74125
G1 X78.850 Y88.221 E16.81937
G1 X78.816 Y88.187 E16.82504
G1 X80.691 Y87.663 F7800.000
G1 X81.817 Y87.602 E16.90194 F1200.000
G1 X82.898 Y87.663 E16.97583
G1 X84.831 Y90.549 F7800.000
G1 X84.871 Y91.323 E17.02872 F1200.000
G1 X84.831 Y92.043 E17.07789
G1 X84.831 Y100.549 F7800.000
G1 X84.871 Y101.323 E17.13078 F1200.000
G1 X84.831 Y102.043 E17.17994
G1 F1800.000 E12.17994
G92 E0
G1 X126.759 Y102.043 F7800.000
G1 E5.00000 F1800.000
G1 X126.718 Y101.323 E5.04917 F1200.000
G1 X126.759 Y100.549 E5.10206
G1 F1800.000 E0.10206
G92 E0
G1 X133.380 Y100.148 F7800.000
G1 E5.00000 F1800.000
G1 X133.436 Y100.492 E5.02378 F1200.000
G1 X133.480 Y101.274 E5.07725
G1 X133.436 Y102.100 E5.13364
G1 X133.380 Y102.444 E5.15742
G1 F1800.000 E0.15742
G92 E0
G1 X127.915 Y97.395 F7800.000
G1 E5.00000 F1800.000
G1 X127.951 Y97.431 E5.00592 F3600.000
G1 X128.699 Y97.169 E5.09883
G1 X127.915 Y96.386 E5.22877
G1 X127.915 Y95.377 E5.34715
G1 X129.575 Y97.037 E5.62250
G1 X130.657 Y97.109 E5.74968
G1 X129.043 Y95.495 E6.01743
G1 X130.102 Y95.545 E6.14184
G1 X132.872 Y98.314 E6.60120
G1 X132.887 Y97.320 E6.71782
G1 X130.963 Y95.397 E7.03685
G1 X131.701 Y95.126 E7.12906
G1 X132.887 Y96.311 E7.32571
G1 X132.887 Y95.302 E7.44410
G1 X132.321 Y94.736 E7.53793
G1 X132.887 Y94.293 E7.62225
G1 X132.853 Y94.258 E7.62792
G1 X133.380 Y92.444 F7800.000
G1 X133.436 Y92.100 E7.65170 F1200.000
G1 X133.480 Y91.274 E7.70809
G1 X133.436 Y90.492 E7.76156
G1 X133.380 Y90.148 E7.78534
G1 X130.898 Y87.663 F7800.000
G1 X129.817 Y87.602 E7.85922 F1200.000
G1 X128.691 Y87.663 E7.93613
G1 X126.759 Y90.549 F7800.000
G1 X126.718 Y91.268 E7.98529 F1200.000
G1 X126.759 Y92.043 E8.03819
G1 F1800.000 E3.03819
G92 E0
G1 X126.960 Y130.659 F7800.000
G1 E5.00000 F1800.000
G1 X126.897 Y130.102 E5.06572 F1800.000
G1 X126.960 Y129.545 E5.13144
G1 X127.145 Y129.016 E5.19717
G1 X127.443 Y128.542 E5.26289
G1 X127.839 Y128.146 E5.32861
G1 X128.314 Y127.847 E5.39434
G1 X128.843 Y127.662 E5.46005
G1 X129.399 Y127.600 E5.52577
G1 X129.907 Y127.657 E5.58573
G1 X130.485 Y127.847 E5.65710 F1800.000
G1 X130.960 Y128.146 E5.72281
G1 X131.356 Y128.542 E5.78854
G1 X131.654 Y129.016 E5.85427
G1 X131.839 Y129.545 E5.91999
G1 X131.902 Y130.102 E5.98571
G1 X131.844 Y130.610 E6.04565
G1 X131.654 Y131.188 E6.11702
G1 X131.356 Y131.662 E6.18274
G1 X130.960 Y132.058 E6.24847
G1 X130.527 Y132.330 E6.30841
G1 X129.956 Y132.541 E6.37977
G1 X129.400 Y132.604 E6.44550
G1 X128.843 Y132.541 E6.51123
G1 X128.314 Y132.356 E6.57695
G1 X127.839 Y132.058 E6.64267
G1 X127.443 Y131.662 E6.70839
G1 X127.145 Y131.188 E6.77412
G1 X126.985 Y130.729 E6.83104
G1 F1800.000 E1.83104
G92 E0
G1 X130.117 Y127.203 F7800.000
G1 X128.843 Y137.662 F7800.000
G1 E5.00000 F1800.000
G1 X129.399 Y137.600 E5.06572 F1800.000
G1 X129.907 Y137.657 E5.12567
G1 X130.485 Y137.847 E5.19705 F1800.000
G1 X130.960 Y138.146 E5.26276
G1 X131.356 Y138.542 E5.32849
G1 X131.654 Y139.016 E5.39421
G1 X131.839 Y139.545 E5.45993
G1 X131.902 Y140.102 E5.52566
G1 X131.839 Y140.659 E5.59138
G1 X131.654 Y141.188 E5.65710
G1 X131.356 Y141.662 E5.72282
G1 X130.960 Y142.058 E5.78855
G1 X130.485 Y142.356 E5.85428
G1 X129.956 Y142.541 E5.91999
G1 X129.400 Y142.604 E5.98571
G1 X128.843 Y142.541 E6.05145
G1 X128.314 Y142.356 E6.11717
G1 X127.839 Y142.058 E6.18288
