; generated by Slic3r 1.1.7 on 2014-12-12 at 01:26:35

; perimeters extrusion width = 0.50mm
; infill extrusion width = 1.02mm
; solid infill extrusion width = 0.85mm
; top infill extrusion width = 0.85mm

G21 ; set units to millimeters
M107
M190 S35 ; wait for bed temperature to be reached
M104 S215 ; set temperature
G28 ; home all axes
G1 Z5 F200; lift nozzle


M109 S215 ; wait for temperature to be reached
G90 ; use absolute coordinates
G92 E0
M82 ; use absolute distances for extrusion
G1 F1800.000 E-5.00000
G92 E0
G1 Z0.350 F7800.000
G1 X20.195 Y20.195 F7800.000
G1 E5.00000 F1800.000
G1 X29.176 Y11.215 E6.34953 F2700.000
G1 X31.058 Y9.895 E6.59384
G1 X33.277 Y9.293 E6.83814
G1 X35.568 Y9.482 E7.08244
G1 X37.658 Y10.439 E7.32675 F2700.000
G1 X38.590 Y11.215 E7.45561
G1 X188.785 Y161.410 E30.02656
G1 X190.105 Y163.292 E30.27086
G1 X190.707 Y165.511 E30.51516
G1 X190.518 Y167.802 E30.75947
G1 X189.561 Y169.892 E31.00377
G1 X188.785 Y170.824 E31.13263
G1 X170.824 Y188.785 E33.83170
G1 X168.942 Y190.105 E34.07600
G1 X166.723 Y190.707 E34.32031
G1 X164.432 Y190.518 E34.56461
G1 X162.342 Y189.561 E34.80891
G1 X161.410 Y188.785 E34.93778
G1 X11.215 Y38.590 E57.50872
G1 X9.895 Y36.708 E57.75303
G1 X9.293 Y34.489 E57.99733
G1 X9.482 Y32.198 E58.24163
G1 X10.439 Y30.108 E58.48594
G1 X11.215 Y29.176 E58.61480
G1 X20.142 Y20.248 E59.95636
G1 F1800.000 E54.95636
G92 E0
G1 X68.592 Y73.757 F7800.000
G1 E5.00000 F1800.000
G1 X60.407 Y72.169 E5.88595 F1350.000
G1 X57.690 Y64.287 E6.77191
G1 X63.158 Y57.993 E7.65786
G1 X71.343 Y59.581 E8.54382
G1 X74.060 Y67.463 E9.42977
G1 X68.641 Y73.701 E10.30775
G1 X60.905 Y71.596 F7800.000
G1 X58.435 Y64.431 E11.11308 F1350.000
G1 X63.405 Y58.710 E11.91841
G1 X70.845 Y60.154 E12.72374
G1 X73.315 Y67.319 E13.52907
G1 X68.345 Y73.040 E14.33440
G1 X60.978 Y71.611 E15.13176
G1 X61.402 Y71.023 F7800.000
G1 X59.180 Y64.576 E15.85647 F945.000
G1 X59.409 Y64.312 E15.89360
G1 X63.653 Y59.427 E16.58117
G1 X70.348 Y60.727 E17.30588
G1 X72.570 Y67.174 E18.03058
G1 X68.097 Y72.323 E18.75529
G1 X61.476 Y71.038 E19.47202
G1 X60.908 Y71.102 F7800.000
G1 X126.857 Y130.040 F7800.000
G1 X134.029 Y125.788 E20.35797 F1350.000
G1 X141.297 Y129.873 E21.24393
G1 X141.393 Y138.210 E22.12988
G1 X134.221 Y142.462 E23.01583
G1 X126.953 Y138.377 E23.90179
G1 X126.858 Y130.115 E24.77977
G1 X127.518 Y130.412 F7800.000
G1 X134.037 Y126.547 E25.58510 F1350.000
G1 X140.644 Y130.260 E26.39043
G1 X140.732 Y137.838 E27.19576
G1 X134.213 Y141.703 E28.00109
G1 X127.606 Y137.990 E28.80642
G1 X127.519 Y130.487 E29.60378
G1 X128.180 Y130.784 F7800.000
G1 X134.046 Y127.305 E30.32848 F945.000
G1 X139.991 Y130.647 E31.05319
G1 X140.070 Y137.466 E31.77789
G1 X134.204 Y140.944 E32.50260
G1 X128.259 Y137.603 E33.22730
G1 X128.181 Y130.859 E33.94404
G1 X128.003 Y130.316 F7800.000
G1 F1800.000 E28.94404
G92 E0
G1 X166.117 Y181.724 F7800.000
G1 E5.00000 F1800.000
G1 X18.276 Y33.883 E27.21727 F1350.000
G1 X33.883 Y18.276 E29.56266
G1 X74.001 Y58.394 E35.59152
G1 X75.046 Y59.679 E35.76754
G1 X75.851 Y60.549 E35.89354
G1 X135.586 Y120.298 E44.87137
G1 X140.048 Y124.746 E45.54088
G1 X140.809 Y125.454 E45.65131
G1 X142.211 Y126.604 E45.84399
G1 X181.724 Y166.117 E51.78196
G1 X166.170 Y181.671 E54.11938
G1 X166.117 Y182.653 F7800.000
G1 X17.347 Y33.883 E76.47630 F1350.000
G1 X33.883 Y17.347 E78.96134
G1 X74.496 Y57.959 E85.06453
G1 X75.540 Y59.245 E85.24058
G1 X76.322 Y60.091 E85.36297
G1 X136.050 Y119.833 E94.33982
G1 X140.505 Y124.274 E95.00825
G1 X141.243 Y124.961 E95.11535
G1 X142.645 Y126.109 E95.30791
G1 X182.653 Y166.117 E101.32030
G1 X166.170 Y182.600 E103.79737
G1 X166.117 Y183.583 F7800.000
G1 X16.417 Y33.883 E126.29393 F945.000
G1 X33.883 Y16.417 E128.91862
G1 X74.990 Y57.525 E135.09617
G1 X76.034 Y58.812 E135.27222
G1 X76.793 Y59.632 E135.39101
G1 X136.514 Y119.368 E144.36688
G1 X140.962 Y123.802 E145.03423
G1 X141.677 Y124.467 E145.13799
G1 X143.079 Y125.613 E145.33044
G1 X183.583 Y166.117 E151.41725
G1 X166.170 Y183.530 E154.03396
G1 X165.988 Y183.100 F7800.000
G1 X166.050 Y181.012 F7800.000
G1 X166.135 Y181.061 E154.04437 F2700.000
G1 X166.616 Y180.580 E154.11668
G1 X164.255 Y179.216 E154.40644
G1 X162.459 Y177.421 F7800.000
G1 X167.097 Y180.099 E154.97556 F2700.000
G1 X167.578 Y179.617 E155.04786
G1 X160.663 Y175.625 E155.89633
G1 X158.868 Y173.830 F7800.000
G1 X168.060 Y179.136 E157.02416 F2700.000
G1 X168.541 Y178.655 E157.09646
G1 X157.072 Y172.034 E158.50364
G1 X155.277 Y170.238 F7800.000
G1 X169.022 Y178.174 E160.19017 F2700.000
G1 X169.503 Y177.693 E160.26247
G1 X153.481 Y168.443 E162.22836
G1 X151.686 Y166.647 F7800.000
G1 X169.984 Y177.212 E164.47360 F2700.000
G1 X170.465 Y176.731 E164.54590
G1 X149.890 Y164.852 E167.07049
G1 X148.094 Y163.056 F7800.000
G1 X170.946 Y176.250 E169.87444 F2700.000
G1 X171.427 Y175.768 E169.94674
G1 X146.299 Y161.261 E173.03004
G1 X144.503 Y159.465 F7800.000
G1 X171.909 Y175.287 E176.39270 F2700.000
G1 X172.390 Y174.806 E176.46500
G1 X142.708 Y157.669 E180.10700
G1 X140.912 Y155.874 F7800.000
G1 X172.871 Y174.325 E184.02836 F2700.000
G1 X173.352 Y173.844 E184.10067
G1 X139.117 Y154.078 E188.30138
G1 X137.321 Y152.283 F7800.000
G1 X173.833 Y173.363 E192.78145 F2700.000
G1 X174.314 Y172.882 E192.85375
G1 X135.525 Y150.487 E197.61317
G1 X133.730 Y148.692 F7800.000
G1 X174.795 Y172.401 E202.65194 F2700.000
G1 X175.276 Y171.920 E202.72425
G1 X131.934 Y146.896 E208.04237
G1 X130.139 Y145.100 F7800.000
G1 X175.758 Y171.438 E213.63986 F2700.000
G1 X178.163 Y169.033 F7800.000
G1 X121.161 Y136.123 E220.63411 F2700.000
G1 X119.365 Y134.327 F7800.000
G1 X126.498 Y138.445 E221.50925 F2700.000
G1 X126.489 Y137.681 E221.59044
G1 X117.570 Y132.531 E222.68482
G1 X115.774 Y130.736 F7800.000
G1 X126.480 Y136.917 E223.99844 F2700.000
G1 X126.471 Y136.153 E224.07963
G1 X113.979 Y128.940 E225.61248
G1 X112.183 Y127.145 F7800.000
G1 X126.462 Y135.389 E227.36457 F2700.000
G1 X126.453 Y134.625 E227.44576
G1 X110.387 Y125.349 E229.41708
G1 X108.592 Y123.554 F7800.000
G1 X126.445 Y133.861 E231.60763 F2700.000
G1 X126.436 Y133.097 E231.68882
G1 X106.796 Y121.758 E234.09861
G1 X105.001 Y119.962 F7800.000
G1 X126.427 Y132.333 E236.72764 F2700.000
G1 X126.418 Y131.569 E236.80883
G1 X103.205 Y118.167 E239.65709
G1 X101.410 Y116.371 F7800.000
G1 X126.409 Y130.805 E242.72458 F2700.000
G1 X126.400 Y130.041 E242.80577
G1 X99.614 Y114.576 E246.09250
G1 X97.818 Y112.780 F7800.000
G1 X126.826 Y129.528 E249.65179 F2700.000
G1 X127.475 Y129.143 E249.73190
G1 X96.023 Y110.985 E253.59108
G1 X94.227 Y109.189 F7800.000
G1 X128.123 Y128.759 E257.75014 F2700.000
G1 X128.772 Y128.374 E257.83026
G1 X92.432 Y107.393 E262.28921
G1 X90.636 Y105.598 F7800.000
G1 X129.420 Y127.990 E267.04807 F2700.000
G1 X130.069 Y127.605 E267.12818
G1 X88.841 Y103.802 E272.18692
G1 X87.045 Y102.007 F7800.000
G1 X130.717 Y127.221 E277.54556 F2700.000
G1 X131.366 Y126.836 E277.62567
G1 X85.249 Y100.211 E283.28420
G1 X83.454 Y98.416 F7800.000
G1 X132.014 Y126.452 E289.24261 F2700.000
G1 X132.663 Y126.067 E289.32273
G1 X81.658 Y96.620 E295.58104
G1 X79.863 Y94.824 F7800.000
G1 X133.311 Y125.683 E302.13924 F2700.000
G1 X133.960 Y125.298 E302.21935
G1 X78.067 Y93.029 E309.07745
G1 X76.272 Y91.233 F7800.000
G1 X147.071 Y132.109 E317.76461 F2700.000
G1 X145.275 Y130.314 F7800.000
G1 X74.476 Y89.438 E326.45177 F2700.000
G1 X72.680 Y87.642 F7800.000
G1 X143.480 Y128.518 E335.13893 F2700.000
G1 X141.752 Y129.797 F7800.000
G1 X148.866 Y133.905 E336.01186 F2700.000
G1 X150.662 Y135.700 F7800.000
G1 X141.761 Y130.561 E337.10401 F2700.000
G1 X141.770 Y131.325 E337.18520
G1 X152.458 Y137.496 E338.49660
G1 X154.253 Y139.291 F7800.000
G1 X141.779 Y132.089 E340.02722 F2700.000
G1 X141.788 Y132.853 E340.10841
G1 X156.049 Y141.087 E341.85827
G1 X157.844 Y142.883 F7800.000
G1 X141.796 Y133.617 E343.82737 F2700.000
G1 X141.805 Y134.381 E343.90856
G1 X159.640 Y144.678 E346.09689
G1 X161.435 Y146.474 F7800.000
G1 X141.814 Y135.145 E348.50446 F2700.000
G1 X141.823 Y135.909 E348.58565
G1 X163.231 Y148.269 E351.21245
G1 X165.027 Y150.065 F7800.000
G1 X141.832 Y136.673 E354.05849 F2700.000
G1 X141.841 Y137.437 E354.13968
G1 X166.822 Y151.860 E357.20495
G1 X168.618 Y153.656 F7800.000
G1 X141.849 Y138.201 E360.48946 F2700.000
G1 X141.430 Y138.718 E360.56018
G1 X170.413 Y155.452 E364.11642
G1 X172.209 Y157.247 F7800.000
G1 X140.782 Y139.103 E367.97255 F2700.000
G1 X140.133 Y139.487 E368.05267
G1 X174.004 Y159.043 E372.20869
G1 X175.800 Y160.838 F7800.000
G1 X139.485 Y139.872 E376.66461 F2700.000
G1 X138.836 Y140.256 E376.74472
G1 X177.596 Y162.634 E381.50053
G1 X179.391 Y164.430 F7800.000
G1 X138.188 Y140.641 E386.55623 F2700.000
G1 X137.539 Y141.025 E386.63635
G1 X181.038 Y166.139 E391.97367
G1 X180.569 Y166.627 E392.04560
G1 X136.891 Y141.410 E397.40494
G1 X136.242 Y141.794 E397.48505
G1 X180.088 Y167.108 E402.86492
G1 X179.606 Y167.589 E402.93723
G1 X135.594 Y142.179 E408.33764
G1 X134.945 Y142.563 E408.41775
G1 X179.125 Y168.071 E413.83870
G1 X178.644 Y168.552 E413.91100
G1 X134.297 Y142.948 E419.35249
G1 X128.343 Y143.305 F7800.000
G1 X176.239 Y170.957 E425.22933 F2700.000
G1 X176.720 Y170.476 E425.30163
G1 X126.548 Y141.509 E431.45782
G1 X124.752 Y139.714 F7800.000
G1 X177.201 Y169.995 E437.89336 F2700.000
G1 X177.682 Y169.514 E437.96566
G1 X122.956 Y137.918 E444.68056
G1 F1800.000 E439.68056
G92 E0
G1 X137.353 Y122.704 F7800.000
G1 E5.00000 F1800.000
G1 X67.294 Y82.255 E13.59641 F2700.000
G1 X69.089 Y84.051 F7800.000
G1 X139.162 Y124.508 E22.19447 F2700.000
G1 X141.521 Y126.628 F7800.000
G1 X70.885 Y85.847 E30.86162 F2700.000
G1 X65.498 Y80.460 F7800.000
G1 X135.544 Y120.901 E39.45637 F2700.000
G1 X133.747 Y119.105 F7800.000
G1 X63.703 Y78.664 E48.05096 F2700.000
G1 X61.907 Y76.869 F7800.000
G1 X131.953 Y117.310 E56.64568 F2700.000
G1 X130.158 Y115.515 F7800.000
G1 X60.111 Y75.073 E65.24052 F2700.000
G1 X58.316 Y73.278 F7800.000
G1 X128.364 Y113.720 E73.83548 F2700.000
G1 X126.569 Y111.925 F7800.000
G1 X56.520 Y71.482 E82.43057 F2700.000
G1 X54.725 Y69.686 F7800.000
G1 X124.775 Y110.130 E91.02577 F2700.000
G1 X122.980 Y108.335 F7800.000
G1 X61.518 Y72.849 E98.56727 F2700.000
G1 X59.821 Y71.870 F7800.000
G1 X52.929 Y67.891 E99.41295 F2700.000
G1 X51.134 Y66.095 F7800.000
G1 X59.495 Y70.923 E100.43888 F2700.000
G1 X63.498 Y73.234 F7800.000
G1 X121.185 Y106.540 E107.51723 F2700.000
G1 X119.391 Y104.745 F7800.000
G1 X65.478 Y73.618 E114.13243 F2700.000
G1 F1800.000 E109.13243
G92 E0
G1 X71.932 Y59.890 F7800.000
G1 E5.00000 F1800.000
G1 X78.116 Y63.460 E5.75872 F2700.000
G1 X76.321 Y61.665 F7800.000
G1 X22.318 Y30.486 E12.38496 F2700.000
G1 X21.837 Y30.967 E12.45726
G1 X70.212 Y58.897 E18.39298
G1 X68.232 Y58.512 F7800.000
G1 X21.356 Y31.448 E24.14479 F2700.000
G1 X20.875 Y31.929 E24.21710
G1 X66.252 Y58.128 E29.78499
G1 X64.272 Y57.744 F7800.000
G1 X20.394 Y32.411 E35.16897 F2700.000
G1 X19.912 Y32.892 E35.24127
G1 X62.833 Y57.672 E40.50764
G1 X62.394 Y58.177 E40.57878
G1 X19.431 Y33.373 E45.85031
G1 X18.962 Y33.861 E45.92224
G1 X61.954 Y58.682 E51.19745
G1 X61.515 Y59.188 E51.26859
G1 X20.609 Y35.570 E56.28788
G1 X22.404 Y37.366 F7800.000
G1 X61.076 Y59.693 E61.03297 F2700.000
G1 X60.637 Y60.199 E61.10411
G1 X24.200 Y39.162 E65.57501
G1 X25.996 Y40.957 F7800.000
G1 X60.198 Y60.704 E69.77172 F2700.000
G1 X59.759 Y61.209 E69.84286
G1 X27.791 Y42.753 E73.76538
G1 X29.587 Y44.548 F7800.000
G1 X59.320 Y61.715 E77.41370 F2700.000
G1 X58.881 Y62.220 E77.48484
G1 X31.382 Y46.344 E80.85896
G1 X33.178 Y48.139 F7800.000
G1 X58.442 Y62.726 E83.95890 F2700.000
G1 X58.003 Y63.231 E84.03004
G1 X34.973 Y49.935 E86.85578
G1 X36.769 Y51.731 F7800.000
G1 X57.564 Y63.736 E89.40732 F2700.000
G1 X57.209 Y64.291 E89.47723
G1 X38.565 Y53.526 E91.76493
G1 X40.360 Y55.322 F7800.000
G1 X57.536 Y65.238 E93.87237 F2700.000
G1 X57.862 Y66.185 E93.97886
G1 X42.156 Y57.117 E95.90605
G1 X43.951 Y58.913 F7800.000
G1 X58.189 Y67.133 E97.65299 F2700.000
G1 X58.515 Y68.080 E97.75947
G1 X45.747 Y60.709 E99.32616
G1 X47.542 Y62.504 F7800.000
G1 X58.842 Y69.028 E100.71259 F2700.000
G1 X59.168 Y69.975 E100.81908
G1 X49.338 Y64.300 E102.02527
G1 X64.475 Y49.513 F7800.000
G1 X25.686 Y27.118 E106.78469 F2700.000
G1 X26.167 Y26.637 E106.85699
G1 X62.679 Y47.717 E111.33706
G1 X60.883 Y45.922 F7800.000
G1 X26.648 Y26.156 E115.53777 F2700.000
G1 X27.129 Y25.675 E115.61007
G1 X59.088 Y44.126 E119.53143
G1 X57.292 Y42.331 F7800.000
G1 X27.610 Y25.194 E123.17344 F2700.000
G1 X28.091 Y24.713 E123.24574
G1 X55.497 Y40.535 E126.60840
G1 X53.701 Y38.739 F7800.000
G1 X28.573 Y24.232 E129.69170 F2700.000
G1 X29.054 Y23.750 E129.76400
G1 X51.906 Y36.944 E132.56795
G1 X50.110 Y35.148 F7800.000
G1 X29.535 Y23.269 E135.09254 F2700.000
G1 X30.016 Y22.788 E135.16484
G1 X48.314 Y33.353 E137.41008
G1 X46.519 Y31.557 F7800.000
G1 X30.497 Y22.307 E139.37597 F2700.000
G1 X30.978 Y21.826 E139.44827
G1 X44.723 Y29.762 E141.13481
G1 X42.928 Y27.966 F7800.000
G1 X31.459 Y21.345 E142.54199 F2700.000
G1 X31.940 Y20.864 E142.61429
G1 X41.132 Y26.170 E143.74212
G1 X39.337 Y24.375 F7800.000
G1 X32.422 Y20.383 E144.59059 F2700.000
G1 X32.903 Y19.901 E144.66289
G1 X37.541 Y22.579 E145.23201
G1 X35.745 Y20.784 F7800.000
G1 X33.384 Y19.420 E145.52178 F2700.000
G1 X33.950 Y18.988 E145.59744
G1 X33.865 Y18.939 E145.60786
G1 X66.270 Y51.308 F7800.000
G1 X25.205 Y27.599 E150.64663 F2700.000
G1 X24.724 Y28.080 E150.71893
G1 X68.066 Y53.104 E156.03706
G1 X69.861 Y54.900 F7800.000
G1 X24.242 Y28.562 E161.63454 F2700.000
G1 X23.761 Y29.043 E161.70685
G1 X71.657 Y56.695 E167.58368
G1 X73.452 Y58.491 F7800.000
G1 X23.280 Y29.524 E173.73987 F2700.000
G1 X22.799 Y30.005 E173.81217
G1 X74.691 Y59.964 E180.17932
G1 X79.910 Y65.255 F7800.000
G1 X72.259 Y60.837 E181.11817 F2700.000
G1 X72.585 Y61.785 E181.22466
G1 X81.705 Y67.050 E182.34364
G1 X83.499 Y68.845 F7800.000
G1 X72.912 Y62.732 E183.64275 F2700.000
G1 X73.238 Y63.679 E183.74924
G1 X85.294 Y70.640 E185.22848
G1 X87.088 Y72.435 F7800.000
G1 X73.565 Y64.627 E186.88785 F2700.000
G1 X73.891 Y65.574 E186.99434
G1 X88.883 Y74.230 E188.83384
G1 X90.678 Y76.025 F7800.000
G1 X74.218 Y66.522 E190.85347 F2700.000
G1 X74.544 Y67.469 E190.95996
G1 X92.472 Y77.820 E193.15972
G1 X94.267 Y79.615 F7800.000
G1 X74.182 Y68.019 E195.62416 F2700.000
G1 X73.743 Y68.524 E195.69530
G1 X96.061 Y81.410 E198.43381
G1 X97.856 Y83.205 F7800.000
G1 X73.304 Y69.029 E201.44639 F2700.000
G1 X72.865 Y69.535 E201.51753
G1 X99.650 Y85.000 E204.80418
G1 X101.445 Y86.795 F7800.000
G1 X72.426 Y70.040 E208.36491 F2700.000
G1 X71.987 Y70.546 E208.43605
G1 X103.240 Y88.590 E212.27085
G1 X105.034 Y90.385 F7800.000
G1 X71.547 Y71.051 E216.37971 F2700.000
G1 X71.108 Y71.556 E216.45086
G1 X106.829 Y92.180 E220.83380
G1 X108.623 Y93.975 F7800.000
G1 X70.669 Y72.062 E225.49081 F2700.000
G1 X70.230 Y72.567 E225.56195
G1 X110.418 Y95.770 E230.49303
G1 X112.212 Y97.565 F7800.000
G1 X69.791 Y73.073 E235.69819 F2700.000
G1 X69.352 Y73.578 E235.76933
G1 X114.007 Y99.360 E241.24855
G1 X115.802 Y101.155 F7800.000
G1 X68.913 Y74.083 E247.00185 F2700.000
G1 X67.458 Y74.002 E247.15673
G1 X117.596 Y102.950 E253.30879
M140 S30 ; set bed temperature
G1 F1800.000 E248.30879
G92 E0
G1 Z0.550 F7800.000
G1 X68.436 Y73.305 F7800.000
G1 E5.00000 F1800.000
G1 X60.721 Y71.808 E5.36314 F1800.000
G1 X58.160 Y64.378 E5.72628
G1 X63.314 Y58.445 E6.08941
G1 X71.029 Y59.942 E6.45255
G1 X73.590 Y67.372 E6.81569
G1 X68.485 Y73.249 E7.17536
G1 X61.099 Y71.372 F7800.000
G1 X58.727 Y64.488 E7.51182 F1800.000
G1 X59.259 Y63.875 E7.54934
G1 X63.502 Y58.991 E7.84828
G1 X70.651 Y60.378 E8.18474
G1 X73.023 Y67.262 E8.52120
G1 X68.248 Y72.759 E8.85766
G1 X61.173 Y71.386 E9.19066
G1 X61.478 Y70.936 F7800.000
G1 X59.293 Y64.598 E9.50044 F1260.000
G1 X59.636 Y64.203 E9.52462
G1 X63.690 Y59.536 E9.81023
G1 X70.272 Y60.814 E10.12001
G1 X72.457 Y67.152 E10.42980
G1 X68.060 Y72.214 E10.73958
G1 X61.552 Y70.951 E11.04590
G1 X60.984 Y71.015 F7800.000
G1 X127.274 Y130.274 F7800.000
G1 X134.034 Y126.266 E11.40904 F1800.000
G1 X140.885 Y130.117 E11.77217
G1 X140.976 Y137.976 E12.13531
