; generated by Slic3r 1.1.7 on 2014-11-22 at 10:53:04

; perimeters extrusion width = 0.50mm
; infill extrusion width = 0.70mm
; solid infill extrusion width = 0.70mm
; top infill extrusion width = 0.70mm

G21 ; set units to millimeters
M107
M190 S35 ; wait for bed temperature to be reached
M104 S215 ; set temperature
G28 ; home all axes
G1 Z5 F200; lift nozzle


M109 S215 ; wait for temperature to be reached
G90 ; use absolute coordinates
G92 E0
M82 ; use absolute distances for extrusion
G1 F1800.000 E-5.00000
G92 E0
G1 Z0.350 F7800.000
G1 X21.316 Y21.452 F7800.000
G1 E5.00000 F1800.000
G1 X21.560 Y21.210 E5.03651 F3600.000
G1 X22.388 Y20.525 E5.15068
G1 X23.229 Y19.856 E5.26485
G1 X24.493 Y18.923 E5.43187
G1 X32.266 Y14.073 E6.40535
G1 X34.194 Y13.125 E6.63369
G1 X35.634 Y12.496 E6.80070
G1 X44.291 Y9.498 E7.77418
G1 X46.382 Y9.003 E8.00251
G1 X47.926 Y8.710 E8.16953
G1 X57.033 Y7.713 E9.14302
G1 X59.182 Y7.696 E9.37135
G1 X60.752 Y7.754 E9.53836 F3600.000
G1 X69.852 Y8.809 E10.51185
G1 X71.950 Y9.269 E10.74010
G1 X73.469 Y9.676 E10.90720
G1 X82.107 Y12.729 E11.88068
G1 X84.050 Y13.645 E12.10901
G1 X85.440 Y14.380 E12.27603
G1 X93.182 Y19.278 E13.24951
G1 X94.797 Y20.542 E13.46743
G1 X177.111 Y86.723 E24.69092
G1 X177.829 Y87.317 E24.78989
G1 X178.303 Y87.748 E24.85798
G1 X184.760 Y94.246 E25.83143
G1 X185.445 Y95.075 E25.94564
G1 X186.114 Y95.916 E26.05981
G1 X187.047 Y97.180 E26.22683
G1 X191.897 Y104.952 E27.20031
G1 X192.845 Y106.881 E27.42864
G1 X193.233 Y107.727 E27.52762
G1 X193.474 Y108.321 E27.59570
G1 X196.472 Y116.978 E28.56918
G1 X196.967 Y119.068 E28.79751
G1 X197.260 Y120.613 E28.96453
G1 X198.257 Y129.719 E29.93801
G1 X198.275 Y131.868 E30.16628
G1 X198.216 Y133.439 E30.33336
G1 X197.162 Y142.539 E31.30684
G1 X196.701 Y144.638 E31.53518
G1 X196.294 Y146.156 E31.70219
G1 X193.241 Y154.793 E32.67567
G1 X192.325 Y156.737 E32.90401
G1 X191.905 Y157.568 E33.00298
G1 X191.591 Y158.127 E33.07107
G1 X186.692 Y165.868 E34.04455
G1 X185.366 Y167.559 E34.27288
G1 X184.341 Y168.751 E34.43990
G1 X177.843 Y175.208 E35.41338
G1 X176.174 Y176.562 E35.64171
G1 X174.910 Y177.495 E35.80873
G1 X167.137 Y182.344 E36.78221
G1 X165.209 Y183.293 E37.01054
G1 X164.362 Y183.681 E37.10953
G1 X163.769 Y183.922 E37.17760
G1 X155.112 Y186.920 E38.15108
G1 X153.021 Y187.415 E38.37942
G1 X151.477 Y187.708 E38.54643
G1 X142.370 Y188.705 E39.51992
G1 X140.222 Y188.722 E39.74818
G1 X138.651 Y188.664 E39.91527
G1 X129.551 Y187.609 E40.88875
G1 X127.452 Y187.148 E41.11708
G1 X125.934 Y186.742 E41.28410
G1 X117.296 Y183.689 E42.25755
G1 X115.353 Y182.773 E42.48591
G1 X113.963 Y182.038 E42.65293
G1 X106.221 Y177.140 E43.62641
G1 X105.370 Y176.485 E43.74058
G1 X22.292 Y109.695 E55.06780
G1 X21.100 Y108.670 E55.23485
G1 X14.643 Y102.171 E56.20833
G1 X13.289 Y100.502 E56.43667
G1 X12.356 Y99.238 E56.60368
G1 X7.506 Y91.466 E57.57715
G1 X6.558 Y89.537 E57.80550
G1 X5.929 Y88.097 E57.97251
G1 X2.931 Y79.440 E58.94600
G1 X2.436 Y77.350 E59.17430
G1 X2.143 Y75.805 E59.34135
G1 X1.146 Y66.698 E60.31483
G1 X1.128 Y64.550 E60.54316
G1 X1.187 Y62.979 E60.71018
G1 X2.241 Y53.879 E61.68366
G1 X2.702 Y51.780 E61.91199
G1 X3.109 Y50.262 E62.07901
G1 X6.162 Y41.625 E63.05246
G1 X7.078 Y39.681 E63.28082
G1 X7.812 Y38.291 E63.44784
G1 X12.711 Y30.550 E64.42132
G1 X13.366 Y29.698 E64.53549
G1 X14.631 Y28.141 E64.74865
G1 X15.062 Y27.667 E64.81671
G1 X21.263 Y21.505 E65.74572
G1 F1800.000 E60.74572
G92 E0
G1 X61.461 Y70.044 F7800.000
G1 E5.00000 F1800.000
G1 X60.712 Y70.401 E5.08812 F1800.000
G1 X60.076 Y70.616 E5.15947
G1 X59.419 Y70.754 E5.23082
G1 X58.750 Y70.814 E5.30218
G1 X58.079 Y70.794 E5.37352
G1 X57.108 Y70.649 E5.47778
G1 X57.183 Y71.496 E5.56812
G1 X57.130 Y72.099 E5.63241
G1 X56.973 Y72.683 E5.69669
G1 X56.718 Y73.231 E5.76097
G1 X56.371 Y73.727 E5.82526
G1 X55.943 Y74.155 E5.88955
G1 X55.447 Y74.502 E5.95383
G1 X54.899 Y74.757 E6.01812
G1 X54.315 Y74.914 E6.08240
G1 X53.869 Y74.953 E6.12991
G1 X53.712 Y74.967 E6.14669
G1 X53.109 Y74.914 E6.21097
G1 X52.525 Y74.757 E6.27524
G1 X51.977 Y74.502 E6.33952
G1 X51.481 Y74.155 E6.40381
G1 X51.053 Y73.727 E6.46809
G1 X50.706 Y73.231 E6.53237
G1 X50.451 Y72.683 E6.59667
G1 X50.294 Y72.099 E6.66095
G1 X50.241 Y71.496 E6.72522
G1 X50.294 Y70.893 E6.78952
G1 X50.451 Y70.309 E6.85379
G1 X50.706 Y69.761 E6.91807
G1 X51.053 Y69.265 E6.98237
G1 X51.481 Y68.837 E7.04665
G1 X51.977 Y68.491 E7.11093
G1 X52.525 Y68.235 E7.17522
G1 X53.109 Y68.078 E7.23950
G1 X53.700 Y68.027 E7.30252
G1 X53.396 Y67.434 E7.37333
G1 X53.162 Y66.804 E7.44468
G1 X53.004 Y66.152 E7.51603
G1 X52.925 Y65.485 E7.58737
G1 X52.925 Y64.814 E7.65872
G1 X53.004 Y64.147 E7.73007
G1 X53.119 Y63.672 E7.78194
G1 X52.235 Y63.750 E7.87621
G1 X51.633 Y63.697 E7.94050
G1 X51.048 Y63.540 E8.00477
G1 X50.500 Y63.285 E8.06907
G1 X50.004 Y62.938 E8.13334
G1 X49.577 Y62.510 E8.19763
G1 X49.320 Y62.144 E8.24513
G1 X49.230 Y62.014 E8.26191
G1 X48.974 Y61.466 E8.32619
G1 X48.817 Y60.882 E8.39048
G1 X48.765 Y60.279 E8.45477
G1 X48.817 Y59.677 E8.51904
G1 X48.974 Y59.092 E8.58332
G1 X49.230 Y58.544 E8.64761
G1 X49.577 Y58.048 E8.71190
G1 X50.005 Y57.621 E8.77619
G1 X50.500 Y57.274 E8.84046
G1 X51.048 Y57.018 E8.90475
G1 X51.633 Y56.861 E8.96902
G1 X52.078 Y56.822 E9.01653
G1 X52.235 Y56.809 E9.03332
G1 X52.838 Y56.861 E9.09759
G1 X53.422 Y57.018 E9.16188
G1 X53.971 Y57.274 E9.22616
G1 X54.466 Y57.621 E9.29045
G1 X54.894 Y58.048 E9.35473
G1 X55.241 Y58.544 E9.41902
G1 X55.496 Y59.092 E9.48330
G1 X55.653 Y59.677 E9.54759
G1 X55.705 Y60.275 E9.61145
G1 X56.145 Y60.033 E9.66477
G1 X56.767 Y59.781 E9.73612
G1 X57.415 Y59.604 E9.80747
G1 X58.079 Y59.505 E9.87883
G1 X58.750 Y59.485 E9.95016
G1 X59.419 Y59.544 E10.02150
G1 X60.058 Y59.679 E10.09096
G1 X59.982 Y58.802 E10.18446
G1 X60.034 Y58.200 E10.24875
G1 X60.191 Y57.615 E10.31302
G1 X60.447 Y57.067 E10.37730
G1 X60.794 Y56.572 E10.44159
G1 X61.221 Y56.144 E10.50587
G1 X61.717 Y55.797 E10.57015
G1 X62.265 Y55.541 E10.63444
G1 X62.849 Y55.385 E10.69871
G1 X63.295 Y55.346 E10.74623
G1 X63.452 Y55.332 E10.76301
G1 X64.055 Y55.385 E10.82728
G1 X64.639 Y55.541 E10.89157
G1 X65.187 Y55.797 E10.95585
G1 X65.683 Y56.144 E11.02014
G1 X66.111 Y56.572 E11.08442
G1 X66.458 Y57.067 E11.14870
G1 X66.713 Y57.616 E11.21300
G1 X66.870 Y58.200 E11.27728
G1 X66.909 Y58.645 E11.32478
G1 X66.923 Y58.802 E11.34156
G1 X66.870 Y59.405 E11.40584
G1 X66.713 Y59.989 E11.47012
G1 X66.458 Y60.538 E11.53441
G1 X66.111 Y61.033 E11.59869
G1 X65.683 Y61.461 E11.66297
G1 X65.187 Y61.808 E11.72726
G1 X64.639 Y62.064 E11.79154
G1 X64.055 Y62.220 E11.85583
G1 X63.495 Y62.269 E11.91553
G1 X63.895 Y63.176 E12.02082
G1 X64.091 Y63.818 E12.09217
G1 X64.209 Y64.479 E12.16353
G1 X64.249 Y65.149 E12.23487
G1 X64.209 Y65.819 E12.30621
G1 X64.065 Y66.624 E12.39312
G1 X64.929 Y66.549 E12.48530
G1 X65.532 Y66.602 E12.54959
G1 X66.116 Y66.758 E12.61387
G1 X66.664 Y67.014 E12.67814
G1 X67.160 Y67.361 E12.74244
G1 X67.587 Y67.789 E12.80672
G1 X67.934 Y68.284 E12.87100
G1 X68.190 Y68.832 E12.93529
G1 X68.347 Y69.417 E12.99957
G1 X68.399 Y70.019 E13.06386
G1 X68.347 Y70.622 E13.12814
G1 X68.190 Y71.206 E13.19242
G1 X67.934 Y71.755 E13.25670
G1 X67.587 Y72.250 E13.32099
G1 X67.160 Y72.678 E13.38527
G1 X66.664 Y73.025 E13.44956
G1 X66.116 Y73.281 E13.51385
G1 X65.532 Y73.437 E13.57813
G1 X64.929 Y73.490 E13.64241
G1 X64.326 Y73.437 E13.70669
G1 X63.742 Y73.281 E13.77097
G1 X63.194 Y73.025 E13.83527
G1 X62.698 Y72.678 E13.89954
G1 X62.270 Y72.250 E13.96383
G1 X61.923 Y71.755 E14.02810
G1 X61.668 Y71.206 E14.09240
G1 X61.511 Y70.622 E14.15668
G1 X61.467 Y70.119 E14.21033
G1 X62.290 Y69.047 F7800.000
G1 X61.970 Y68.839 E14.25094 F1800.000
G1 X61.502 Y69.219 E14.31493
G1 X61.000 Y69.536 E14.37800
G1 X60.465 Y69.791 E14.44106
G1 X59.968 Y69.959 E14.49678
G1 X59.322 Y70.103 E14.56713
G1 X58.730 Y70.156 E14.63020
G1 X58.206 Y70.140 E14.68592
G1 X57.550 Y70.051 E14.75627
G1 X56.978 Y69.894 E14.81933
G1 X56.267 Y69.606 E14.90088
G1 X56.022 Y69.913 E14.94262
G1 X56.146 Y70.091 E14.96564
G1 X56.353 Y70.535 E15.01771
G1 X56.480 Y71.008 E15.06978
G1 X56.523 Y71.496 E15.12184
G1 X56.480 Y71.984 E15.17390
G1 X56.353 Y72.457 E15.22597
G1 X56.146 Y72.902 E15.27804
G1 X55.865 Y73.303 E15.33011
G1 X55.519 Y73.649 E15.38217
G1 X55.117 Y73.930 E15.43424
G1 X54.673 Y74.137 E15.48631
G1 X54.200 Y74.264 E15.53837
G1 X53.712 Y74.307 E15.59044
G1 X53.224 Y74.264 E15.64250
G1 X52.751 Y74.138 E15.69456
G1 X52.307 Y73.930 E15.74663
G1 X51.905 Y73.649 E15.79870
G1 X51.559 Y73.303 E15.85076
G1 X51.278 Y72.902 E15.90283
G1 X51.071 Y72.457 E15.95490
G1 X50.944 Y71.984 E16.00696
G1 X50.901 Y71.496 E16.05903
G1 X50.944 Y71.008 E16.11110
G1 X51.071 Y70.535 E16.16316
G1 X51.278 Y70.091 E16.21522
G1 X51.559 Y69.689 E16.26730
G1 X51.905 Y69.343 E16.31937
G1 X52.307 Y69.062 E16.37143
G1 X52.751 Y68.855 E16.42349
G1 X53.224 Y68.728 E16.47556
G1 X53.712 Y68.685 E16.52763
G1 X54.200 Y68.728 E16.57969
G1 X54.689 Y68.859 E16.63344
G1 X54.895 Y68.530 E16.67468
G1 X54.601 Y68.189 E16.72258
G1 X54.269 Y67.696 E16.78565
G1 X53.998 Y67.168 E16.84871
G1 X53.792 Y66.612 E16.91177
G1 X53.652 Y66.035 E16.97484
G1 X53.582 Y65.446 E17.03789
G1 X53.582 Y64.853 E17.10095
G1 X53.652 Y64.263 E17.16401
G1 X53.792 Y63.686 E17.22708
G1 X53.998 Y63.130 E17.29014
G1 X54.142 Y62.850 E17.32361
G1 X53.832 Y62.580 E17.36732
G1 X53.641 Y62.714 E17.39215
G1 X53.197 Y62.921 E17.44421
G1 X52.723 Y63.047 E17.49628
G1 X52.235 Y63.090 E17.54835
G1 X51.747 Y63.047 E17.60041
G1 X51.274 Y62.921 E17.65247
G1 X50.830 Y62.713 E17.70455
G1 X50.428 Y62.432 E17.75661
G1 X50.082 Y62.086 E17.80867
G1 X49.801 Y61.685 E17.86074
G1 X49.594 Y61.241 E17.91280
G1 X49.467 Y60.767 E17.96487
G1 X49.424 Y60.279 E18.01694
G1 X49.467 Y59.791 E18.06900
G1 X49.594 Y59.318 E18.12107
G1 X49.801 Y58.874 E18.17314
G1 X50.082 Y58.472 E18.22520
G1 X50.428 Y58.126 E18.27727
G1 X50.830 Y57.845 E18.32933
G1 X51.274 Y57.638 E18.38140
G1 X51.747 Y57.511 E18.43346
G1 X52.235 Y57.468 E18.48554
G1 X52.723 Y57.511 E18.53760
G1 X53.197 Y57.638 E18.58967
G1 X53.641 Y57.845 E18.64173
G1 X53.960 Y58.068 E18.68312
G1 X54.042 Y58.126 E18.69380
G1 X54.389 Y58.472 E18.74586
G1 X54.670 Y58.874 E18.79793
G1 X54.877 Y59.318 E18.85000
G1 X55.003 Y59.791 E18.90207
G1 X55.046 Y60.279 E18.95413
G1 X55.003 Y60.767 E19.00620
G1 X54.873 Y61.253 E19.05957
G1 X55.210 Y61.457 E19.10146
G1 X55.426 Y61.260 E19.13253
G1 X55.908 Y60.914 E19.19559
G1 X56.428 Y60.627 E19.25865
G1 X56.978 Y60.404 E19.32171
G1 X57.484 Y60.266 E19.37743
G1 X58.137 Y60.160 E19.44780
G1 X58.730 Y60.143 E19.51085
G1 X59.322 Y60.195 E19.57391
G1 X59.902 Y60.318 E19.63697
G1 X60.465 Y60.508 E19.70004
G1 X60.892 Y60.711 E19.75037
G1 X61.154 Y60.402 E19.79341
G1 X61.018 Y60.208 E19.81860
G1 X60.811 Y59.764 E19.87067
G1 X60.684 Y59.291 E19.92274
G1 X60.641 Y58.802 E19.97480
G1 X60.684 Y58.314 E20.02687
G1 X60.811 Y57.841 E20.07893
G1 X61.018 Y57.397 E20.13100
G1 X61.299 Y56.996 E20.18307
G1 X61.645 Y56.649 E20.23513
G1 X62.047 Y56.368 E20.28719
G1 X62.491 Y56.161 E20.33927
G1 X62.964 Y56.034 E20.39133
G1 X63.452 Y55.992 E20.44340
G1 X63.940 Y56.034 E20.49546
G1 X64.414 Y56.161 E20.54753
G1 X64.858 Y56.368 E20.59959
G1 X65.259 Y56.649 E20.65166
G1 X65.605 Y56.996 E20.70373
G1 X65.887 Y57.397 E20.75579
G1 X66.094 Y57.841 E20.80786
G1 X66.220 Y58.314 E20.85993
G1 X66.263 Y58.802 E20.91200
G1 X66.220 Y59.291 E20.96406
G1 X66.094 Y59.764 E21.01612
G1 X65.887 Y60.208 E21.06819
G1 X65.605 Y60.609 E21.12025
G1 X65.259 Y60.956 E21.17232
G1 X64.858 Y61.237 E21.22439
G1 X64.414 Y61.444 E21.27645
G1 X63.940 Y61.571 E21.32853
G1 X63.452 Y61.613 E21.38059
G1 X62.964 Y61.571 E21.43266
G1 X62.492 Y61.444 E21.48457
G1 X62.283 Y61.757 E21.52455
G1 X62.736 Y62.351 E21.60401
G1 X63.038 Y62.862 E21.66707
G1 X63.277 Y63.405 E21.73013
G1 X63.451 Y63.973 E21.79319
G1 X63.556 Y64.557 E21.85626
G1 X63.591 Y65.149 E21.91932
G1 X63.556 Y65.742 E21.98238
G1 X63.451 Y66.326 E22.04545
G1 X63.277 Y66.893 E22.10851
G1 X63.026 Y67.464 E22.17481
G1 X63.334 Y67.717 E22.21720
G1 X63.523 Y67.585 E22.24174
G1 X63.968 Y67.378 E22.29381
G1 X64.441 Y67.251 E22.34587
G1 X64.929 Y67.208 E22.39793
G1 X65.417 Y67.251 E22.45001
G1 X65.890 Y67.378 E22.50207
G1 X66.334 Y67.585 E22.55413
G1 X66.736 Y67.866 E22.60620
G1 X67.082 Y68.213 E22.65827
G1 X67.363 Y68.614 E22.71033
G1 X67.570 Y69.058 E22.76240
G1 X67.697 Y69.531 E22.81447
G1 X67.740 Y70.019 E22.86654
G1 X67.697 Y70.507 E22.91860
G1 X67.570 Y70.981 E22.97066
G1 X67.363 Y71.425 E23.02273
G1 X67.082 Y71.826 E23.07480
G1 X66.736 Y72.173 E23.12687
G1 X66.334 Y72.454 E23.17893
G1 X65.890 Y72.661 E23.23100
G1 X65.514 Y72.762 E23.27239
G1 X65.417 Y72.788 E23.28307
G1 X64.929 Y72.830 E23.33513
G1 X64.441 Y72.788 E23.38719
G1 X63.968 Y72.661 E23.43926
G1 X63.523 Y72.454 E23.49133
G1 X63.122 Y72.173 E23.54340
G1 X62.776 Y71.826 E23.59546
G1 X62.495 Y71.425 E23.64752
G1 X62.288 Y70.981 E23.69959
G1 X62.161 Y70.507 E23.75166
G1 X62.118 Y70.019 E23.80372
G1 X62.161 Y69.531 E23.85579
G1 X62.271 Y69.120 E23.90105
G1 X62.907 Y69.284 F7800.000
G1 X63.066 Y68.944 E23.94090 F1800.000
G1 X63.281 Y68.636 E23.98075
G1 X63.546 Y68.371 E24.02059
G1 X63.853 Y68.156 E24.06044
G1 X64.193 Y67.998 E24.10029
G1 X64.555 Y67.901 E24.14014
G1 X64.929 Y67.868 E24.17999
G1 X65.260 Y67.897 E24.21527
G1 X65.665 Y67.998 E24.25962 F1800.000
G1 X66.005 Y68.156 E24.29947
G1 X66.312 Y68.371 E24.33932
G1 X66.577 Y68.636 E24.37917
G1 X66.792 Y68.944 E24.41902
G1 X66.951 Y69.284 E24.45887
G1 X67.048 Y69.646 E24.49872
G1 X67.080 Y70.019 E24.53857
G1 X67.048 Y70.393 E24.57841
G1 X66.951 Y70.755 E24.61826
G1 X66.792 Y71.095 E24.65811
G1 X66.577 Y71.402 E24.69796
G1 X66.312 Y71.667 E24.73781
G1 X66.005 Y71.882 E24.77766
G1 X65.665 Y72.041 E24.81751
G1 X65.344 Y72.127 E24.85279
G1 X64.929 Y72.171 E24.89714
G1 X64.555 Y72.138 E24.93699
G1 X64.193 Y72.041 E24.97684
G1 X63.853 Y71.882 E25.01669
G1 X63.546 Y71.667 E25.05654
G1 X63.281 Y71.402 E25.09639
G1 X63.066 Y71.095 E25.13623
G1 X62.907 Y70.755 E25.17608
G1 X62.810 Y70.393 E25.21593
G1 X62.778 Y70.019 E25.25578
G1 X62.810 Y69.646 E25.29563
G1 X62.888 Y69.356 E25.32751
G1 F1800.000 E20.32751
G92 E0
G1 X65.484 Y68.249 F7800.000
G1 X53.883 Y61.662 F7800.000
G1 E5.00000 F1800.000
G1 X53.618 Y61.927 E5.03985 F1800.000
G1 X53.311 Y62.142 E5.07970
G1 X52.971 Y62.301 E5.11955
G1 X52.609 Y62.398 E5.15940
G1 X52.278 Y62.427 E5.19468
G1 X51.862 Y62.398 E5.23903
G1 X51.499 Y62.301 E5.27888
G1 X51.160 Y62.142 E5.31873
G1 X50.852 Y61.927 E5.35858
G1 X50.587 Y61.662 E5.39842
G1 X50.397 Y61.390 E5.43371
G1 X50.214 Y61.015 E5.47806
G1 X50.117 Y60.653 E5.51791
G1 X50.084 Y60.279 E5.55776
G1 X50.117 Y59.906 E5.59761
G1 X50.214 Y59.543 E5.63745
G1 X50.372 Y59.203 E5.67730
G1 X50.587 Y58.896 E5.71715
G1 X50.852 Y58.631 E5.75700
G1 X51.160 Y58.416 E5.79685
G1 X51.499 Y58.258 E5.83670
G1 X51.862 Y58.161 E5.87655
G1 X52.235 Y58.128 E5.91640
G1 X52.566 Y58.157 E5.95168
G1 X52.971 Y58.258 E5.99603 F1800.000
G1 X53.311 Y58.416 E6.03588
G1 X53.618 Y58.631 E6.07573
G1 X53.883 Y58.896 E6.11558
G1 X54.074 Y59.168 E6.15086
G1 X54.257 Y59.543 E6.19521
G1 X54.354 Y59.906 E6.23506
G1 X54.387 Y60.279 E6.27491
G1 X54.354 Y60.653 E6.31476
G1 X54.257 Y61.015 E6.35461
G1 X54.098 Y61.355 E6.39445
G1 X53.926 Y61.601 E6.42634
G1 F1800.000 E1.42634
G92 E0
G1 X52.925 Y58.370 F7800.000
G1 X61.431 Y59.538 F7800.000
G1 E5.00000 F1800.000
G1 X61.334 Y59.176 E5.03985 F1800.000
G1 X61.305 Y58.845 E5.07513
G1 X61.334 Y58.429 E5.11949
G1 X61.431 Y58.067 E5.15933
G1 X61.589 Y57.727 E5.19918
G1 X61.804 Y57.420 E5.23903
G1 X62.069 Y57.154 E5.27888
G1 X62.376 Y56.939 E5.31873
G1 X62.716 Y56.781 E5.35858
G1 X63.079 Y56.684 E5.39842
G1 X63.452 Y56.651 E5.43828
G1 X63.783 Y56.680 E5.47356
G1 X64.188 Y56.781 E5.51791 F1800.000
G1 X64.528 Y56.939 E5.55776
G1 X64.835 Y57.154 E5.59761
G1 X65.100 Y57.420 E5.63746
G1 X65.315 Y57.727 E5.67730
G1 X65.474 Y58.067 E5.71715
G1 X65.571 Y58.429 E5.75700
G1 X65.604 Y58.802 E5.79685
G1 X65.571 Y59.176 E5.83670
G1 X65.474 Y59.538 E5.87655
G1 X65.315 Y59.878 E5.91640
G1 X65.100 Y60.185 E5.95624
G1 X64.835 Y60.450 E5.99609
