; generated by Slic3r 1.1.7 on 2014-12-11 at 00:21:48

; perimeters extrusion width = 0.50mm
; infill extrusion width = 1.02mm
; solid infill extrusion width = 0.85mm
; top infill extrusion width = 0.85mm

G21 ; set units to millimeters
M107
M190 S35 ; wait for bed temperature to be reached
M104 S215 ; set temperature
G28 ; home all axes
G1 Z5 F200; lift nozzle


M109 S215 ; wait for temperature to be reached
G90 ; use absolute coordinates
G92 E0
M82 ; use absolute distances for extrusion
G1 F1800.000 E-5.00000
G92 E0
G1 Z0.350 F7800.000
G1 X55.054 Y33.320 F7800.000
G1 E5.00000 F1800.000
G1 X56.807 Y31.834 E5.24430 F2700.000
G1 X58.962 Y31.032 E5.48861
G1 X60.170 Y30.922 E5.61747
G1 X136.655 Y30.922 E13.74496
G1 X138.920 Y31.319 E13.98926
G1 X140.914 Y32.463 E14.23356 F2700.000
G1 X142.400 Y34.217 E14.47787
G1 X143.310 Y37.395 E14.82912
G1 X146.487 Y152.158 E27.02884
G1 X146.487 Y162.421 E28.11939
G1 X146.090 Y164.685 E28.36370
G1 X144.946 Y166.680 E28.60800
G1 X143.193 Y168.166 E28.85231
G1 X141.038 Y168.968 E29.09661
G1 X139.830 Y169.078 E29.22547
G1 X63.345 Y169.078 E37.35296
G1 X61.080 Y168.681 E37.59726
G1 X59.086 Y167.537 E37.84156
G1 X57.600 Y165.783 E38.08587
G1 X56.690 Y162.605 E38.43712
G1 X53.513 Y47.842 E50.63684
G1 X53.513 Y37.579 E51.72740
G1 X53.910 Y35.315 E51.97170
G1 X55.016 Y33.385 E52.20803
G1 F1800.000 E47.20803
G92 E0
G1 X116.076 Y94.009 F7800.000
G1 E5.00000 F1800.000
G1 X115.750 Y94.474 E5.06029 F1350.000
G1 X115.458 Y94.766 E5.10420
G1 X115.349 Y94.876 E5.12069
G1 X114.884 Y95.202 E5.18101
G1 X114.369 Y95.442 E5.24136
G1 X113.820 Y95.589 E5.30169
G1 X113.255 Y95.638 E5.36204
G1 X112.689 Y95.588 E5.42241
G1 X112.290 Y95.482 E5.46627
G1 X112.140 Y95.441 E5.48276
G1 X111.626 Y95.202 E5.54309
G1 X111.160 Y94.876 E5.60344
G1 X110.759 Y94.474 E5.66376
G1 X110.433 Y94.009 E5.72416
G1 X110.193 Y93.495 E5.78446
G1 X110.046 Y92.946 E5.84486
G1 X109.997 Y92.380 E5.90516
G1 X110.046 Y91.814 E5.96553
G1 X110.193 Y91.266 E6.02584
G1 X110.433 Y90.751 E6.08625
G1 X110.759 Y90.286 E6.14654
G1 X111.051 Y89.994 E6.19046
G1 X111.161 Y89.884 E6.20694
G1 X111.625 Y89.558 E6.26726
G1 X112.140 Y89.318 E6.32762
G1 X112.689 Y89.171 E6.38795
G1 X113.254 Y89.122 E6.44829
G1 X113.666 Y89.158 E6.49217
G1 X113.820 Y89.171 E6.50866 F1350.000
G1 X114.369 Y89.318 E6.56900
G1 X114.884 Y89.558 E6.62935
G1 X115.349 Y89.884 E6.68970
G1 X115.750 Y90.286 E6.75002
G1 X116.076 Y90.751 E6.81043
G1 X116.316 Y91.265 E6.87071
G1 X116.423 Y91.665 E6.91464
G1 X116.463 Y91.815 E6.93112
G1 X116.513 Y92.380 E6.99141
G1 X116.463 Y92.946 E7.05179
G1 X116.316 Y93.494 E7.11209
G1 X116.108 Y93.941 E7.16454
G1 X115.505 Y93.679 F7800.000
G1 X115.245 Y94.050 E7.21264 F1350.000
G1 X114.994 Y94.302 E7.25042
G1 X114.925 Y94.371 E7.26079
G1 X114.554 Y94.630 E7.30891
G1 X114.143 Y94.822 E7.35704
G1 X113.706 Y94.939 E7.40516
G1 X113.255 Y94.978 E7.45329
G1 X112.803 Y94.939 E7.50144
G1 X112.460 Y94.847 E7.53919
G1 X112.366 Y94.822 E7.54957
G1 X111.955 Y94.630 E7.59769
G1 X111.584 Y94.371 E7.64582
G1 X111.264 Y94.050 E7.69393
G1 X111.004 Y93.679 E7.74210
G1 X110.813 Y93.269 E7.79020
G1 X110.696 Y92.831 E7.83836
G1 X110.656 Y92.380 E7.88646
G1 X110.696 Y91.929 E7.93460
G1 X110.813 Y91.491 E7.98271
G1 X111.004 Y91.081 E8.03088
G1 X111.264 Y90.710 E8.07897
G1 X111.515 Y90.458 E8.11676
G1 X111.584 Y90.389 E8.12714
G1 X111.955 Y90.130 E8.17525
G1 X112.366 Y89.938 E8.22339
G1 X112.803 Y89.821 E8.27151
G1 X113.157 Y89.790 E8.30925
G1 X113.254 Y89.782 E8.31963 F1350.000
G1 X113.706 Y89.821 E8.36777
G1 X114.143 Y89.938 E8.41590
G1 X114.554 Y90.130 E8.46403
G1 X114.925 Y90.390 E8.51216
G1 X115.245 Y90.710 E8.56027
G1 X115.505 Y91.081 E8.60844
G1 X115.696 Y91.491 E8.65654
G1 X115.788 Y91.835 E8.69433
G1 X115.813 Y91.929 E8.70470
G1 X115.853 Y92.380 E8.75280
G1 X115.813 Y92.831 E8.80094
G1 X115.696 Y93.269 E8.84905
G1 X115.536 Y93.611 E8.88925
G1 X114.934 Y93.349 F7800.000
G1 X114.740 Y93.626 E8.92515 F945.000
G1 X114.529 Y93.837 E8.95681
G1 X114.224 Y94.059 E8.99692
G1 X113.918 Y94.202 E9.03284
G1 X113.591 Y94.289 E9.06875
G1 X113.255 Y94.319 E9.10466
G1 X112.918 Y94.289 E9.14058
G1 X112.630 Y94.212 E9.17222
G1 X112.285 Y94.059 E9.21234
G1 X112.008 Y93.865 E9.24826
G1 X111.769 Y93.626 E9.28416
G1 X111.575 Y93.349 E9.32009
G1 X111.433 Y93.043 E9.35599
G1 X111.356 Y92.755 E9.38764
G1 X111.316 Y92.380 E9.42776
G1 X111.345 Y92.043 E9.46367
G1 X111.433 Y91.717 E9.49958
G1 X111.575 Y91.411 E9.53551
G1 X111.769 Y91.134 E9.57140
G1 X111.980 Y90.923 E9.60306
G1 X112.285 Y90.701 E9.64318
G1 X112.591 Y90.558 E9.67909
G1 X112.918 Y90.471 E9.71500
G1 X113.254 Y90.441 E9.75091
G1 X113.551 Y90.467 E9.78256
G1 X113.918 Y90.558 E9.82268 F945.000
G1 X114.224 Y90.701 E9.85860
G1 X114.501 Y90.895 E9.89451
G1 X114.740 Y91.134 E9.93042
G1 X114.934 Y91.411 E9.96634
G1 X115.076 Y91.717 E10.00224
G1 X115.154 Y92.005 E10.03390
G1 X115.193 Y92.380 E10.07401
G1 X115.164 Y92.717 E10.10993
G1 X115.076 Y93.043 E10.14583
G1 X114.965 Y93.282 E10.17379
G1 F1800.000 E5.17379
G92 E0
G1 X113.545 Y90.090 F7800.000
G1 X126.317 Y92.380 F7800.000
G1 E5.00000 F1800.000
G1 X126.367 Y91.814 E5.06038 F1350.000
G1 X126.514 Y91.266 E5.12067
G1 X126.688 Y90.891 E5.16461
G1 X126.754 Y90.751 E5.18109
G1 X127.079 Y90.286 E5.24138
G1 X127.481 Y89.884 E5.30178
G1 X127.946 Y89.559 E5.36210
G1 X128.461 Y89.318 E5.42246
G1 X129.010 Y89.171 E5.48280
G1 X129.575 Y89.122 E5.54313
G1 X129.987 Y89.158 E5.58701
G1 X130.141 Y89.171 E5.60350 F1350.000
G1 X130.690 Y89.318 E5.66384
G1 X131.204 Y89.558 E5.72417
G1 X131.670 Y89.884 E5.78454
G1 X132.071 Y90.286 E5.84486
G1 X132.397 Y90.751 E5.90527
G1 X132.637 Y91.265 E5.96556
G1 X132.784 Y91.815 E6.02596
G1 X132.834 Y92.380 E6.08625
G1 X132.784 Y92.946 E6.14663
G1 X132.637 Y93.494 E6.20693
G1 X132.397 Y94.009 E6.26735
G1 X132.071 Y94.474 E6.32764
G1 X131.669 Y94.876 E6.38804
G1 X131.204 Y95.202 E6.44836
G1 X130.830 Y95.376 E6.49222
G1 X130.690 Y95.442 E6.50871
G1 X130.141 Y95.589 E6.56905
G1 X129.576 Y95.638 E6.62938
G1 X129.164 Y95.602 E6.67328
G1 X129.010 Y95.588 E6.68976
G1 X128.461 Y95.441 E6.75011
G1 X127.947 Y95.202 E6.81044
G1 X127.481 Y94.876 E6.87079
G1 X127.080 Y94.474 E6.93111
G1 X126.754 Y94.009 E6.99151
G1 X126.514 Y93.495 E7.05180
G1 X126.367 Y92.945 E7.11221
G1 X126.324 Y92.455 E7.16454
G1 X126.977 Y92.380 F7800.000
G1 X127.017 Y91.929 E7.21269 F1350.000
G1 X127.134 Y91.491 E7.26079
G1 X127.325 Y91.081 E7.30896
G1 X127.585 Y90.710 E7.35705
G1 X127.905 Y90.389 E7.40521
G1 X128.276 Y90.130 E7.45333
G1 X128.687 Y89.938 E7.50147
G1 X129.124 Y89.821 E7.54959
G1 X129.478 Y89.790 E7.58734
G1 X129.575 Y89.782 E7.59771 F1350.000
G1 X130.027 Y89.821 E7.64585
G1 X130.464 Y89.938 E7.69398
G1 X130.875 Y90.130 E7.74210
G1 X131.246 Y90.390 E7.79024
G1 X131.566 Y90.710 E7.83835
G1 X131.826 Y91.081 E7.88652
G1 X132.017 Y91.491 E7.93462
G1 X132.134 Y91.929 E7.98278
G1 X132.174 Y92.380 E8.03088
G1 X132.134 Y92.831 E8.07903
G1 X132.017 Y93.269 E8.12713
G1 X131.826 Y93.679 E8.17530
G1 X131.566 Y94.050 E8.22340
G1 X131.246 Y94.371 E8.27156
G1 X130.875 Y94.630 E8.31967
G1 X130.464 Y94.822 E8.36780
G1 X130.027 Y94.939 E8.41593
G1 X129.576 Y94.978 E8.46405
G1 X129.124 Y94.939 E8.51220
G1 X128.687 Y94.822 E8.56033
G1 X128.276 Y94.630 E8.60845
G1 X127.905 Y94.370 E8.65658
G1 X127.585 Y94.050 E8.70470
G1 X127.325 Y93.679 E8.75286
G1 X127.134 Y93.269 E8.80095
G1 X127.017 Y92.831 E8.84912
G1 X126.984 Y92.455 E8.88925
G1 X127.637 Y92.380 F7800.000
G1 X127.666 Y92.043 E8.92517 F945.000
G1 X127.754 Y91.717 E8.96107
G1 X127.879 Y91.447 E8.99273
G1 X128.090 Y91.134 E9.03284
G1 X128.329 Y90.895 E9.06876
G1 X128.606 Y90.701 E9.10467
G1 X128.912 Y90.558 E9.14059
G1 X129.239 Y90.471 E9.17650
G1 X129.575 Y90.441 E9.21241
G1 X129.872 Y90.467 E9.24406
G1 X130.239 Y90.558 E9.28418 F945.000
G1 X130.545 Y90.701 E9.32009
G1 X130.822 Y90.895 E9.35600
G1 X131.061 Y91.134 E9.39191
G1 X131.232 Y91.378 E9.42357
G1 X131.397 Y91.717 E9.46368
G1 X131.485 Y92.043 E9.49960
G1 X131.514 Y92.380 E9.53550
G1 X131.485 Y92.717 E9.57142
G1 X131.397 Y93.043 E9.60733
G1 X131.255 Y93.349 E9.64325
G1 X131.061 Y93.626 E9.67915
G1 X130.822 Y93.865 E9.71508
G1 X130.545 Y94.059 E9.75098
G1 X130.275 Y94.185 E9.78263
G1 X129.912 Y94.289 E9.82275
G1 X129.576 Y94.319 E9.85866
G1 X129.239 Y94.289 E9.89458
G1 X128.912 Y94.202 E9.93049
G1 X128.606 Y94.059 E9.96640
G1 X128.329 Y93.865 E10.00231
G1 X128.090 Y93.626 E10.03822
G1 X127.896 Y93.349 E10.07414
G1 X127.754 Y93.043 E10.11005
G1 X127.666 Y92.717 E10.14597
G1 X127.643 Y92.455 E10.17390
G1 F1800.000 E5.17390
G92 E0
G1 X130.026 Y90.122 F7800.000
G1 X134.991 Y39.243 F7800.000
G1 E5.00000 F1800.000
G1 X134.991 Y135.750 E15.25501 F1350.000
G1 X135.017 Y136.856 E15.37265
G1 X135.097 Y137.980 E15.49238
G1 X135.236 Y139.147 E15.61724
G1 X135.420 Y140.242 E15.73521
G1 X135.659 Y141.344 E15.85503
G1 X135.952 Y142.440 E15.97557
G1 X136.298 Y143.529 E16.09699
G1 X137.038 Y145.516 E16.32230
G1 X137.335 Y146.446 E16.42612
G1 X137.588 Y147.391 E16.52997
G1 X137.795 Y148.345 E16.63380
G1 X137.957 Y149.309 E16.73763
G1 X138.073 Y150.279 E16.84147
G1 X138.142 Y151.254 E16.94530
G1 X138.166 Y152.247 E17.05080
G1 X138.166 Y160.757 E17.95511
G1 X104.664 Y160.757 E21.51508
G1 X104.664 Y152.247 E22.41939
G1 X104.688 Y151.254 E22.52489
G1 X104.757 Y150.279 E22.62872
G1 X104.873 Y149.309 E22.73257
G1 X105.035 Y148.345 E22.83639
G1 X105.242 Y147.391 E22.94022
G1 X105.495 Y146.446 E23.04408
G1 X105.792 Y145.516 E23.14789
G1 X106.532 Y143.529 E23.37320
G1 X106.878 Y142.440 E23.49462
G1 X107.171 Y141.344 E23.61516
G1 X107.410 Y140.242 E23.73499
G1 X107.594 Y139.147 E23.85298
G1 X107.733 Y137.980 E23.97781
G1 X107.813 Y136.856 E24.09755
G1 X107.839 Y135.750 E24.21519
G1 X107.839 Y39.243 E34.47019
G1 X134.916 Y39.243 E37.34743
G1 X135.648 Y38.586 F7800.000
G1 X135.648 Y135.743 E47.67157 F1350.000
G1 X135.674 Y136.829 E47.78700
G1 X135.751 Y137.924 E47.90369
G1 X135.886 Y139.048 E48.02391
G1 X136.066 Y140.120 E48.13941
G1 X136.299 Y141.194 E48.25620
G1 X136.583 Y142.260 E48.37342
G1 X136.920 Y143.317 E48.49130
G1 X137.659 Y145.301 E48.71632
G1 X137.966 Y146.262 E48.82346
G1 X138.226 Y147.236 E48.93063
G1 X138.440 Y148.221 E49.03778
G1 X138.607 Y149.216 E49.14493
G1 X138.727 Y150.217 E49.25209
G1 X138.799 Y151.223 E49.35924
G1 X138.823 Y152.239 E49.46723
G1 X138.823 Y161.414 E50.44219
G1 X104.007 Y161.414 E54.14181
G1 X104.007 Y152.239 E55.11677
G1 X104.031 Y151.223 E55.22476
G1 X104.103 Y150.217 E55.33191
G1 X104.223 Y149.216 E55.43907
G1 X104.390 Y148.221 E55.54622
G1 X104.604 Y147.236 E55.65337
G1 X104.864 Y146.262 E55.76054
G1 X105.171 Y145.301 E55.86768
G1 X105.910 Y143.317 E56.09270
G1 X106.247 Y142.260 E56.21058
G1 X106.531 Y141.194 E56.32780
G1 X106.764 Y140.120 E56.44459
G1 X106.944 Y139.048 E56.56011
G1 X107.079 Y137.924 E56.68031
G1 X107.156 Y136.829 E56.79701
G1 X107.182 Y135.743 E56.91243
G1 X107.182 Y38.586 E67.23657
G1 X135.573 Y38.586 E70.25345
G1 X136.305 Y37.929 F7800.000
G1 X136.305 Y135.737 E80.64673 F945.000
G1 X136.330 Y136.802 E80.75994
G1 X136.406 Y137.869 E80.87359
G1 X136.535 Y138.949 E80.98917
G1 X136.711 Y139.998 E81.10221
G1 X136.939 Y141.044 E81.21596
G1 X137.215 Y142.079 E81.32986
G1 X137.542 Y143.104 E81.44419
G1 X138.280 Y145.086 E81.66894
G1 X138.598 Y146.081 E81.77987
G1 X138.866 Y147.086 E81.89038
G1 X139.085 Y148.092 E81.99984
G1 X139.259 Y149.127 E82.11137
G1 X139.381 Y150.150 E82.22083
G1 X139.455 Y151.187 E82.33133
G1 X139.480 Y152.230 E82.44211
G1 X139.480 Y162.071 E83.48786
G1 X103.350 Y162.071 E87.32713
G1 X103.350 Y152.230 E88.37288
G1 X103.375 Y151.187 E88.48366
G1 X103.449 Y150.150 E88.59415
G1 X103.571 Y149.127 E88.70362
G1 X103.745 Y148.092 E88.81515
G1 X103.964 Y147.086 E88.92461
G1 X104.232 Y146.081 E89.03512
G1 X104.550 Y145.086 E89.14605
G1 X105.288 Y143.104 E89.37079
G1 X105.615 Y142.079 E89.48513
G1 X105.891 Y141.044 E89.59903
G1 X106.119 Y139.998 E89.71278
G1 X106.295 Y138.949 E89.82583
G1 X106.424 Y137.869 E89.94140
G1 X106.500 Y136.802 E90.05505
G1 X106.525 Y135.737 E90.16826
G1 X106.525 Y37.929 E100.56154
G1 X136.230 Y37.929 E103.71806
G1 X136.055 Y38.362 F7800.000
G1 X134.480 Y39.700 F7800.000
G1 X134.534 Y39.731 E103.72477 F2700.000
G1 X134.534 Y40.491 E103.80550
G1 X133.164 Y39.700 E103.97368
G1 X131.848 Y39.700 E104.11352
G1 X134.534 Y41.251 E104.44317
G1 X134.534 Y42.011 E104.52390
G1 X130.532 Y39.700 E105.01502
G1 X129.216 Y39.700 E105.15486
G1 X134.534 Y42.770 E105.80745
G1 X134.534 Y43.530 E105.88819
G1 X127.900 Y39.700 E106.70225
G1 X126.584 Y39.700 E106.84209
G1 X134.534 Y44.290 E107.81762
G1 X134.534 Y45.050 E107.89836
G1 X125.268 Y39.700 E109.03537
G1 X123.952 Y39.700 E109.17521
G1 X134.534 Y45.809 E110.47368
G1 X134.534 Y46.569 E110.55442
G1 X122.636 Y39.700 E112.01437
G1 X121.320 Y39.700 E112.15421
G1 X134.534 Y47.329 E113.77563
G1 X134.534 Y48.089 E113.85637
G1 X120.004 Y39.700 E115.63926
G1 X118.688 Y39.700 E115.77910
G1 X134.534 Y48.849 E117.72346
G1 X134.534 Y49.608 E117.80420
G1 X117.372 Y39.700 E119.91004
G1 X116.056 Y39.700 E120.04988
G1 X134.534 Y50.368 E122.31718
G1 X134.534 Y51.128 E122.39792
G1 X114.740 Y39.700 E124.82670
G1 X113.424 Y39.700 E124.96654
G1 X134.534 Y51.888 E127.55679
G1 X134.534 Y52.647 E127.63753
G1 X112.108 Y39.700 E130.38925
G1 X110.792 Y39.700 E130.52909
G1 X134.534 Y53.407 E133.44229
G1 X134.534 Y54.167 E133.52302
G1 X109.476 Y39.700 E136.59769
G1 X108.296 Y39.778 E136.72344
G1 X134.534 Y54.927 E139.94300
G1 X134.534 Y55.687 E140.02373
G1 X108.296 Y40.537 E143.24329
G1 X108.296 Y41.297 E143.32402
G1 X134.534 Y56.446 E146.54358
G1 X134.534 Y57.206 E146.62431
G1 X108.296 Y42.057 E149.84387
G1 X108.296 Y42.817 E149.92461
G1 X134.534 Y57.966 E153.14416
G1 X134.534 Y58.726 E153.22490
G1 X108.296 Y43.577 E156.44445
G1 X108.296 Y44.336 E156.52519
G1 X134.534 Y59.485 E159.74474
G1 X134.534 Y60.245 E159.82548
G1 X108.296 Y45.096 E163.04504
G1 X108.296 Y45.856 E163.12577
G1 X134.534 Y61.005 E166.34533
G1 X134.534 Y61.765 E166.42606
G1 X108.296 Y46.616 E169.64562
G1 X108.296 Y47.375 E169.72636
G1 X134.534 Y62.525 E172.94591
G1 X134.534 Y63.284 E173.02665
G1 X108.296 Y48.135 E176.24620
G1 X108.296 Y48.895 E176.32694
G1 X134.534 Y64.044 E179.54649
G1 X134.534 Y64.804 E179.62723
G1 X108.296 Y49.655 E182.84679
G1 X108.296 Y50.415 E182.92752
G1 X134.534 Y65.564 E186.14708
G1 X134.534 Y66.323 E186.22781
G1 X108.296 Y51.174 E189.44737
G1 X108.296 Y51.934 E189.52810
G1 X134.534 Y67.083 E192.74766
G1 X134.534 Y67.843 E192.82840
G1 X108.296 Y52.694 E196.04795
G1 X108.296 Y53.454 E196.12869
G1 X134.534 Y68.603 E199.34824
G1 X134.534 Y69.363 E199.42898
G1 X108.296 Y54.213 E202.64854
G1 X108.296 Y54.973 E202.72927
G1 X134.534 Y70.122 E205.94883
G1 X134.534 Y70.882 E206.02956
G1 X108.296 Y55.733 E209.24912
G1 X108.296 Y56.493 E209.32985
G1 X134.534 Y71.642 E212.54941
G1 X134.534 Y72.402 E212.63015
G1 X108.296 Y57.253 E215.84970
G1 X108.296 Y58.012 E215.93044
G1 X134.534 Y73.161 E219.14999
G1 X134.534 Y73.921 E219.23073
G1 X108.296 Y58.772 E222.45028
G1 X108.296 Y59.532 E222.53102
G1 X134.534 Y74.681 E225.75058
G1 X134.534 Y75.441 E225.83131
G1 X108.296 Y60.292 E229.05087
G1 X108.296 Y61.051 E229.13160
G1 X134.534 Y76.201 E232.35116
G1 X134.534 Y76.960 E232.43190
G1 X108.296 Y61.811 E235.65145
G1 X108.296 Y62.571 E235.73219
G1 X134.534 Y77.720 E238.95174
G1 X134.534 Y78.480 E239.03248
G1 X108.296 Y63.331 E242.25203
G1 X108.296 Y64.091 E242.33277
G1 X134.534 Y79.240 E245.55233
G1 X134.534 Y79.999 E245.63306
G1 X108.296 Y64.850 E248.85262
G1 X108.296 Y65.610 E248.93335
G1 X134.534 Y80.759 E252.15291
G1 X134.534 Y81.519 E252.23364
G1 X108.296 Y66.370 E255.45320
G1 X108.296 Y67.130 E255.53394
G1 X134.534 Y82.279 E258.75349
G1 X134.534 Y83.039 E258.83423
G1 X108.296 Y67.889 E262.05378
G1 X108.296 Y68.649 E262.13452
G1 X134.534 Y83.798 E265.35408
G1 X134.534 Y84.558 E265.43481
G1 X108.296 Y69.409 E268.65437
G1 X108.296 Y70.169 E268.73510
G1 X134.534 Y85.318 E271.95466
G1 X134.534 Y86.078 E272.03539
G1 X108.296 Y70.929 E275.25495
G1 X108.296 Y71.688 E275.33569
G1 X134.534 Y86.837 E278.55524
G1 X134.534 Y87.597 E278.63598
