; generated by Slic3r 1.1.7 on 2014-12-11 at 16:44:13

; perimeters extrusion width = 0.50mm
; infill extrusion width = 1.02mm
; solid infill extrusion width = 0.85mm
; top infill extrusion width = 0.85mm

G21 ; set units to millimeters
M107
M190 S35 ; wait for bed temperature to be reached
M104 S215 ; set temperature
G28 ; home all axes
G1 Z5 F200; lift nozzle


M109 S215 ; wait for temperature to be reached
G90 ; use absolute coordinates
G92 E0
M82 ; use absolute distances for extrusion
G1 F1800.000 E-5.00000
G92 E0
G1 Z0.350 F7800.000
G1 X11.215 Y11.215 F7800.000
G1 E5.00000 F1800.000
G1 X20.195 Y2.235 E6.34953 F2700.000
G1 X22.077 Y0.914 E6.59384
G1 X24.296 Y0.313 E6.83814
G1 X26.588 Y0.502 E7.08244
G1 X28.678 Y1.459 E7.32675 F2700.000
G1 X29.610 Y2.235 E7.45561
G1 X197.765 Y170.390 E32.72563
G1 X199.086 Y172.272 E32.96993
G1 X199.687 Y174.491 E33.21423
G1 X199.498 Y176.782 E33.45854
G1 X198.541 Y178.873 E33.70284
G1 X197.765 Y179.805 E33.83170
G1 X179.805 Y197.765 E36.53077
G1 X177.923 Y199.086 E36.77507
G1 X175.704 Y199.687 E37.01938
G1 X173.412 Y199.498 E37.26368
G1 X171.322 Y198.541 E37.50798
G1 X170.390 Y197.765 E37.63684
G1 X2.235 Y29.610 E62.90686
G1 X0.914 Y27.728 E63.15116
G1 X0.313 Y25.509 E63.39547
G1 X0.502 Y23.218 E63.63977
G1 X1.459 Y21.127 E63.88407
G1 X2.235 Y20.195 E64.01294
G1 X11.162 Y11.268 E65.35450
G1 F1800.000 E60.35450
G92 E0
G1 X145.743 Y161.350 F7800.000
G1 E5.00000 F1800.000
G1 X161.350 Y145.743 E7.34539 F1350.000
G1 X190.704 Y175.097 E11.75674
G1 X175.097 Y190.704 E14.10214
G1 X145.796 Y161.403 E18.50552
G1 X144.813 Y161.350 F7800.000
G1 X161.350 Y144.813 E20.99056 F1350.000
G1 X191.634 Y175.097 E25.54156
G1 X175.097 Y191.634 E28.02659
G1 X144.867 Y161.403 E32.56962
G1 X143.884 Y161.350 F7800.000
G1 X161.350 Y143.884 E35.19431 F945.000
G1 X192.563 Y175.097 E39.88495
G1 X175.097 Y192.563 E42.50964
G1 X143.937 Y161.403 E47.19231
G1 X144.367 Y161.220 F7800.000
G1 X148.090 Y163.052 F7800.000
G1 X182.334 Y182.822 E51.39407 F2700.000
G1 X182.815 Y182.341 E51.46639
G1 X146.427 Y161.332 E55.93133
G1 X146.895 Y160.843 E56.00325
G1 X183.296 Y181.860 E60.46981
G1 X183.778 Y181.379 E60.54213
G1 X147.376 Y160.362 E65.00869
G1 X147.857 Y159.881 E65.08101
G1 X184.259 Y180.897 E69.54757
G1 X184.740 Y180.416 E69.61989
G1 X148.338 Y159.400 E74.08645
G1 X148.820 Y158.918 E74.15877
G1 X185.221 Y179.935 E78.62533
G1 X185.703 Y179.454 E78.69765
G1 X149.301 Y158.437 E83.16421
G1 X149.782 Y157.956 E83.23653
G1 X186.184 Y178.973 E87.70309
G1 X186.665 Y178.491 E87.77541
G1 X150.263 Y157.475 E92.24197
G1 X150.745 Y156.993 E92.31429
G1 X187.146 Y178.010 E96.78084
G1 X187.628 Y177.529 E96.85316
G1 X151.226 Y156.512 E101.31972
G1 X151.707 Y156.031 E101.39204
G1 X188.109 Y177.048 E105.85860
G1 X188.590 Y176.566 E105.93092
G1 X152.188 Y155.550 E110.39748
G1 X152.669 Y155.068 E110.46980
G1 X189.071 Y176.085 E114.93636
G1 X189.553 Y175.604 E115.00868
G1 X153.151 Y154.587 E119.47524
G1 X153.632 Y154.106 E119.54756
G1 X190.021 Y175.115 E124.01250
G1 X188.357 Y173.395 F7800.000
G1 X154.113 Y153.625 E128.21426 F2700.000
G1 X154.594 Y153.143 E128.28658
G1 X186.561 Y171.599 E132.20892
G1 X184.765 Y169.803 F7800.000
G1 X155.076 Y152.662 E135.85184 F2700.000
G1 X155.557 Y152.181 E135.92416
G1 X182.969 Y168.007 E139.28765
G1 X181.173 Y166.211 F7800.000
G1 X156.038 Y151.700 E142.37172 F2700.000
G1 X156.519 Y151.218 E142.44404
G1 X179.377 Y164.415 E145.24869
G1 X177.581 Y162.619 F7800.000
G1 X157.001 Y150.737 E147.77391 F2700.000
G1 X157.482 Y150.256 E147.84623
G1 X175.785 Y160.823 E150.09203
G1 X173.989 Y159.027 F7800.000
G1 X157.963 Y149.775 E152.05841 F2700.000
G1 X158.444 Y149.294 E152.13073
G1 X172.193 Y157.231 E153.81768
G1 X170.397 Y155.435 F7800.000
G1 X158.926 Y148.812 E155.22521 F2700.000
G1 X159.407 Y148.331 E155.29753
G1 X168.601 Y153.639 E156.42563
G1 X166.805 Y151.843 F7800.000
G1 X159.888 Y147.850 E157.27432 F2700.000
G1 X160.369 Y147.369 E157.34664
G1 X165.009 Y150.047 E157.91589
G1 X163.213 Y148.251 F7800.000
G1 X160.851 Y146.887 E158.20573 F2700.000
G1 X161.417 Y146.455 E158.28142
G1 X161.332 Y146.406 E158.29183
G1 X149.886 Y164.848 F7800.000
G1 X181.853 Y183.304 E162.21417 F2700.000
G1 X181.371 Y183.785 E162.28649
G1 X151.682 Y166.644 E165.92940
G1 X153.478 Y168.440 F7800.000
G1 X180.890 Y184.266 E169.29289 F2700.000
G1 X180.409 Y184.747 E169.36521
G1 X155.274 Y170.236 E172.44928
G1 X157.070 Y172.032 F7800.000
G1 X179.928 Y185.229 E175.25393 F2700.000
G1 X179.447 Y185.710 E175.32625
G1 X158.866 Y173.828 E177.85147
G1 X160.662 Y175.624 F7800.000
G1 X178.965 Y186.191 E180.09727 F2700.000
G1 X178.484 Y186.672 E180.16959
G1 X162.458 Y177.420 E182.13597
G1 X164.254 Y179.216 F7800.000
G1 X178.003 Y187.154 E183.82292 F2700.000
G1 X177.522 Y187.635 E183.89524
G1 X166.050 Y181.012 E185.30277
G1 X167.846 Y182.808 F7800.000
G1 X177.040 Y188.116 E186.43087 F2700.000
G1 X176.559 Y188.597 E186.50319
G1 X169.642 Y184.604 E187.35187
G1 X171.438 Y186.400 F7800.000
G1 X176.078 Y189.079 E187.92113 F2700.000
G1 X175.597 Y189.560 E187.99345
G1 X173.234 Y188.196 E188.28329
G1 X175.030 Y189.992 F7800.000
G1 X175.115 Y190.041 E188.29370 F2700.000
G1 F1800.000 E183.29370
G92 E0
G1 X68.654 Y69.844 F7800.000
G1 E5.00000 F1800.000
G1 X67.923 Y70.267 E5.08974 F1350.000
G1 X67.129 Y70.555 E5.17950
G1 X66.297 Y70.702 E5.26926
G1 X65.453 Y70.702 E5.35901
G1 X64.621 Y70.555 E5.44876
G1 X63.827 Y70.267 E5.53851
G1 X63.096 Y69.844 E5.62828
G1 X62.449 Y69.301 E5.71802
G1 X61.906 Y68.654 E5.80777
G1 X61.483 Y67.923 E5.89753
G1 X61.195 Y67.129 E5.98728
G1 X61.048 Y66.297 E6.07703
G1 X61.048 Y65.453 E6.16678
G1 X61.195 Y64.621 E6.25652
G1 X61.483 Y63.827 E6.34628
G1 X61.906 Y63.096 E6.43605
G1 X62.449 Y62.449 E6.52579
G1 X63.096 Y61.906 E6.61554
G1 X63.827 Y61.484 E6.70528
G1 X64.621 Y61.195 E6.79505
G1 X65.453 Y61.048 E6.88480
G1 X66.297 Y61.048 E6.97455
G1 X66.971 Y61.167 E7.04721
G1 X67.129 Y61.195 E7.06429 F1350.000
G1 X67.923 Y61.484 E7.15406
G1 X68.654 Y61.906 E7.24382
G1 X69.301 Y62.449 E7.33356
G1 X69.844 Y63.096 E7.42331
G1 X70.267 Y63.827 E7.51306
G1 X70.555 Y64.621 E7.60282
G1 X70.702 Y65.453 E7.69258
G1 X70.702 Y66.297 E7.78232
G1 X70.555 Y67.129 E7.87207
G1 X70.267 Y67.923 E7.96183
G1 X69.844 Y68.654 E8.05159
G1 X69.301 Y69.301 E8.14133
G1 X68.712 Y69.796 E8.22312
G1 X68.276 Y69.304 F7800.000
G1 X67.644 Y69.669 E8.30064 F1350.000
G1 X66.958 Y69.918 E8.37818
G1 X66.342 Y70.027 E8.44474
G1 X66.240 Y70.045 E8.45572
G1 X65.510 Y70.045 E8.53326
G1 X64.792 Y69.918 E8.61079
G1 X64.106 Y69.669 E8.68832
G1 X63.474 Y69.304 E8.76587
G1 X62.915 Y68.835 E8.84340
G1 X62.446 Y68.276 E8.92093
G1 X62.081 Y67.644 E8.99847
G1 X61.867 Y67.056 E9.06502
G1 X61.832 Y66.958 E9.07600
G1 X61.705 Y66.240 E9.15354
G1 X61.705 Y65.510 E9.23107
G1 X61.832 Y64.792 E9.30860
G1 X62.081 Y64.106 E9.38614
G1 X62.446 Y63.474 E9.46368
G1 X62.915 Y62.915 E9.54121
G1 X63.474 Y62.446 E9.61874
G1 X64.106 Y62.081 E9.69627
G1 X64.792 Y61.832 E9.77381
G1 X65.510 Y61.705 E9.85135
G1 X66.240 Y61.705 E9.92889 F1350.000
G1 X66.958 Y61.832 E10.00641
G1 X67.644 Y62.081 E10.08395
G1 X68.276 Y62.446 E10.16150
G1 X68.835 Y62.915 E10.23902
G1 X69.304 Y63.474 E10.31656
G1 X69.669 Y64.106 E10.39409
G1 X69.918 Y64.792 E10.47163
G1 X70.045 Y65.510 E10.54917
G1 X70.045 Y66.240 E10.62670
G1 X69.918 Y66.958 E10.70423
G1 X69.669 Y67.644 E10.78177
G1 X69.304 Y68.276 E10.85931
G1 X68.835 Y68.835 E10.93684
G1 X68.333 Y69.256 E11.00640
G1 X67.898 Y68.764 F7800.000
G1 X67.365 Y69.071 E11.07172 F945.000
G1 X66.788 Y69.281 E11.13704
G1 X66.182 Y69.388 E11.20236
G1 X65.568 Y69.388 E11.26767
G1 X64.962 Y69.281 E11.33299
G1 X64.385 Y69.071 E11.39831
G1 X63.852 Y68.764 E11.46363
G1 X63.382 Y68.369 E11.52894
G1 X62.986 Y67.898 E11.59426
G1 X62.679 Y67.365 E11.65958
G1 X62.469 Y66.788 E11.72490
G1 X62.362 Y66.182 E11.79022
G1 X62.362 Y65.568 E11.85553
G1 X62.469 Y64.962 E11.92085
G1 X62.679 Y64.385 E11.98617
G1 X62.986 Y63.852 E12.05149
G1 X63.382 Y63.382 E12.11680
G1 X63.852 Y62.986 E12.18212
G1 X64.385 Y62.679 E12.24743
G1 X64.962 Y62.469 E12.31275
G1 X65.568 Y62.362 E12.37807
G1 X66.182 Y62.362 E12.44339
G1 X66.743 Y62.461 E12.50383
G1 X67.365 Y62.679 E12.57396 F945.000
G1 X67.898 Y62.986 E12.63928
G1 X68.369 Y63.382 E12.70459
G1 X68.764 Y63.852 E12.76991
G1 X69.071 Y64.385 E12.83522
G1 X69.281 Y64.962 E12.90054
G1 X69.388 Y65.568 E12.96586
G1 X69.388 Y66.182 E13.03118
G1 X69.281 Y66.788 E13.09649
G1 X69.071 Y67.365 E13.16181
G1 X68.764 Y67.898 E13.22713
G1 X68.369 Y68.369 E13.29245
G1 X67.955 Y68.715 E13.34980
G1 F1800.000 E8.34980
G92 E0
G1 X66.810 Y61.965 F7800.000
G1 X107.925 Y123.532 F7800.000
G1 E5.00000 F1800.000
G1 X9.296 Y24.903 E19.82186 F1350.000
G1 X24.903 Y9.296 E22.16725
G1 X123.532 Y107.925 E36.98911
G1 X107.978 Y123.479 E39.32653
G1 X107.925 Y124.462 F7800.000
G1 X8.366 Y24.903 E54.28804 F1350.000
G1 X24.903 Y8.366 E56.77308
G1 X124.462 Y107.925 E71.73458
G1 X107.978 Y124.409 E74.21165
G1 X107.925 Y125.391 F7800.000
G1 X7.437 Y24.903 E89.31280 F945.000
G1 X24.903 Y7.437 E91.93749
G1 X125.391 Y107.925 E107.03864
G1 X107.978 Y125.338 E109.65535
G1 X107.796 Y124.908 F7800.000
G1 X107.858 Y122.820 F7800.000
G1 X107.943 Y122.869 E109.66576 F2700.000
G1 X108.428 Y122.385 E109.73857
G1 X106.050 Y121.012 E110.03028
G1 X104.242 Y119.204 F7800.000
G1 X108.912 Y121.900 E110.60330 F2700.000
G1 X109.397 Y121.416 E110.67610
G1 X102.434 Y117.396 E111.53042
G1 X100.626 Y115.588 F7800.000
G1 X109.881 Y120.931 E112.66604 F2700.000
G1 X110.366 Y120.447 E112.73884
G1 X98.818 Y113.780 E114.15576
G1 X97.010 Y111.971 F7800.000
G1 X110.850 Y119.962 E115.85398 F2700.000
G1 X111.335 Y119.478 E115.92679
G1 X95.202 Y110.163 E117.90631
G1 X93.394 Y108.355 F7800.000
G1 X111.819 Y118.993 E120.16714 F2700.000
G1 X112.304 Y118.509 E120.23994
G1 X91.586 Y106.547 E122.78207
G1 X89.777 Y104.739 F7800.000
G1 X112.788 Y118.024 E125.60550 F2700.000
G1 X113.272 Y117.540 E125.67831
G1 X87.969 Y102.931 E128.78304
G1 X86.161 Y101.123 F7800.000
G1 X113.757 Y117.055 E132.16907 F2700.000
G1 X114.241 Y116.571 E132.24187
G1 X84.353 Y99.315 E135.90921
G1 X82.545 Y97.507 F7800.000
G1 X114.726 Y116.086 E139.85784 F2700.000
G1 X115.210 Y115.602 E139.93065
G1 X80.737 Y95.699 E144.16059
G1 X78.929 Y93.890 F7800.000
G1 X115.695 Y115.117 E148.67183 F2700.000
G1 X116.179 Y114.633 E148.74463
G1 X77.121 Y92.082 E153.53717
G1 X75.313 Y90.274 F7800.000
G1 X116.664 Y114.148 E158.61102 F2700.000
G1 X117.148 Y113.664 E158.68382
G1 X73.505 Y88.466 E164.03897
G1 X71.696 Y86.658 F7800.000
G1 X117.633 Y113.179 E169.67541 F2700.000
G1 X122.607 Y107.645 F7800.000
G1 X51.807 Y66.769 E178.36258 F2700.000
G1 X49.999 Y64.961 F7800.000
G1 X120.799 Y105.837 E187.04974 F2700.000
G1 X118.990 Y104.029 F7800.000
G1 X48.191 Y63.153 E195.73690 F2700.000
G1 X46.383 Y61.345 F7800.000
G1 X117.182 Y102.221 E204.42407 F2700.000
G1 X115.374 Y100.413 F7800.000
G1 X64.297 Y70.923 E210.69130 F2700.000
G1 X66.028 Y71.158 F7800.000
G1 X113.566 Y98.605 E216.52427 F2700.000
G1 X111.758 Y96.796 F7800.000
G1 X67.114 Y71.021 E222.00211 F2700.000
G1 X67.953 Y70.741 E222.09604
G1 X109.950 Y94.988 E227.24915
G1 X108.142 Y93.180 F7800.000
G1 X68.645 Y70.377 E232.09549 F2700.000
G1 X69.235 Y69.953 E232.17266
G1 X106.334 Y91.372 E236.72477
G1 X104.526 Y89.564 F7800.000
G1 X69.745 Y69.483 E240.99247 F2700.000
G1 X70.176 Y68.968 E241.06388
G1 X102.718 Y87.756 E245.05673
G1 X100.910 Y85.948 F7800.000
G1 X70.517 Y68.401 E248.78588 F2700.000
G1 X70.797 Y67.798 E248.85648
G1 X99.101 Y84.140 E252.32941
G1 X97.293 Y82.332 F7800.000
G1 X71.014 Y67.159 E255.55398 F2700.000
G1 X71.136 Y66.465 E255.62882
G1 X95.485 Y80.524 E258.61652
G1 X93.677 Y78.716 F7800.000
G1 X71.158 Y65.714 E261.37959 F2700.000
G1 X71.068 Y64.898 E261.46690
G1 X91.869 Y76.907 E264.01926
G1 X90.061 Y75.099 F7800.000
G1 X70.809 Y63.984 E266.38145 F2700.000
G1 X70.260 Y62.903 E266.51036
G1 X88.253 Y73.291 E268.71812
G1 X86.445 Y71.483 F7800.000
G1 X15.646 Y30.607 E277.40528 F2700.000
G1 X17.454 Y32.415 F7800.000
G1 X66.256 Y60.592 E283.39346 F2700.000
G1 X65.045 Y60.656 E283.52236
G1 X19.262 Y34.223 E289.14005
G1 X21.070 Y36.031 F7800.000
G1 X64.125 Y60.889 E294.42299 F2700.000
G1 X63.372 Y61.219 E294.51030
G1 X22.878 Y37.840 E299.47904
G1 X24.686 Y39.648 F7800.000
G1 X62.733 Y61.614 E304.14749 F2700.000
G1 X62.194 Y62.067 E304.22233
G1 X26.494 Y41.456 E308.60273
G1 X28.302 Y43.264 F7800.000
G1 X61.748 Y62.574 E312.70658 F2700.000
G1 X61.366 Y63.118 E312.77719
G1 X30.110 Y45.072 E316.61234
G1 X31.918 Y46.880 F7800.000
G1 X61.045 Y63.697 E320.18627 F2700.000
G1 X60.816 Y64.328 E320.25768
G1 X33.726 Y48.688 E323.58155
G1 X35.535 Y50.496 F7800.000
G1 X60.664 Y65.004 E326.66491 F2700.000
G1 X60.592 Y65.727 E326.74208
G1 X37.343 Y52.304 E329.59475
G1 X39.151 Y54.112 F7800.000
G1 X60.622 Y66.509 E332.22928 F2700.000
G1 X60.798 Y67.375 E332.32321
G1 X40.959 Y55.920 E334.75755
G1 X42.767 Y57.729 F7800.000
G1 X61.223 Y68.384 E337.02212 F2700.000
G1 X62.292 Y69.766 F7800.000
G1 X44.575 Y59.537 E339.19602 F2700.000
G1 X53.616 Y68.577 F7800.000
G1 X122.478 Y108.335 E347.64549 F2700.000
G1 X121.993 Y108.819 E347.71829
G1 X55.424 Y70.385 E355.88646
G1 X57.232 Y72.193 F7800.000
G1 X121.509 Y109.304 E363.77332 F2700.000
G1 X121.024 Y109.788 E363.84612
G1 X59.040 Y74.001 E371.45168
G1 X60.848 Y75.810 F7800.000
G1 X120.540 Y110.273 E378.77594 F2700.000
G1 X120.055 Y110.757 E378.84874
G1 X62.656 Y77.618 E385.89170
G1 X64.464 Y79.426 F7800.000
G1 X119.571 Y111.242 E392.65335 F2700.000
G1 X119.086 Y111.726 E392.72616
G1 X66.272 Y81.234 E399.20651
G1 X68.080 Y83.042 F7800.000
G1 X118.602 Y112.210 E405.40556 F2700.000
G1 X118.117 Y112.695 E405.47836
G1 X69.888 Y84.850 E411.39611
G1 X84.637 Y69.675 F7800.000
G1 X13.837 Y28.799 E420.08327 F2700.000
G1 X12.029 Y26.991 F7800.000
G1 X82.829 Y67.867 E428.77044 F2700.000
G1 X81.020 Y66.059 F7800.000
G1 X10.221 Y25.183 E437.45760 F2700.000
G1 X10.350 Y24.493 E437.53216
G1 X79.212 Y64.251 E445.98162
G1 X77.404 Y62.443 F7800.000
G1 X10.835 Y24.009 E454.14979 F2700.000
G1 X11.319 Y23.524 E454.22259
G1 X75.596 Y60.635 E462.10945
G1 X73.788 Y58.826 F7800.000
G1 X11.804 Y23.040 E469.71501 F2700.000
G1 X12.288 Y22.555 E469.78782
G1 X71.980 Y57.018 E477.11208
G1 X70.172 Y55.210 F7800.000
G1 X12.773 Y22.071 E484.15503 F2700.000
G1 X13.257 Y21.586 E484.22784
G1 X68.364 Y53.402 E490.98949
G1 X66.556 Y51.594 F7800.000
G1 X13.742 Y21.102 E497.46984 F2700.000
G1 X14.226 Y20.617 E497.54265
G1 X64.748 Y49.786 E503.74170
G1 X62.940 Y47.978 F7800.000
G1 X14.711 Y20.133 E509.65945 F2700.000
G1 X15.195 Y19.648 E509.73226
G1 X61.131 Y46.170 E515.36870
G1 X59.323 Y44.362 F7800.000
G1 X15.680 Y19.164 E520.72385 F2700.000
G1 X16.164 Y18.680 E520.79666
G1 X57.515 Y42.554 E525.87050
G1 X55.707 Y40.746 F7800.000
G1 X16.649 Y18.195 E530.66304 F2700.000
G1 X17.133 Y17.711 E530.73585
G1 X53.899 Y38.937 E535.24709
G1 X52.091 Y37.129 F7800.000
G1 X17.618 Y17.226 E539.47703 F2700.000
G1 X18.102 Y16.742 E539.54983
G1 X50.283 Y35.321 E543.49847
G1 X48.475 Y33.513 F7800.000
G1 X18.586 Y16.257 E547.16580 F2700.000
G1 X19.071 Y15.773 E547.23861
G1 X46.667 Y31.705 E550.62464
G1 X44.859 Y29.897 F7800.000
G1 X19.555 Y15.288 E553.72938 F2700.000
G1 X20.040 Y14.804 E553.80218
G1 X43.050 Y28.089 E556.62561
G1 X41.242 Y26.281 F7800.000
G1 X20.524 Y14.319 E559.16774 F2700.000
G1 X21.009 Y13.835 E559.24055
G1 X39.434 Y24.473 E561.50137
G1 X37.626 Y22.665 F7800.000
G1 X21.493 Y13.350 E563.48090 F2700.000
G1 X21.978 Y12.866 E563.55370
G1 X35.818 Y20.856 E565.25193
G1 X34.010 Y19.048 F7800.000
G1 X22.462 Y12.381 E566.66885 F2700.000
G1 X22.947 Y11.897 E566.74165
G1 X32.202 Y17.240 E567.87727
G1 X30.394 Y15.432 F7800.000
G1 X23.431 Y11.412 E568.73159 F2700.000
G1 X23.916 Y10.928 E568.80440
G1 X28.586 Y13.624 E569.37741
G1 X26.778 Y11.816 F7800.000
G1 X24.400 Y10.443 E569.66913 F2700.000
G1 X24.970 Y10.008 E569.74529
G1 X24.885 Y9.959 E569.75571
M140 S30 ; set bed temperature
G1 F1800.000 E564.75571
G92 E0
G1 Z0.550 F7800.000
G1 X145.157 Y161.350 F7800.000
G1 E5.00000 F1800.000
G1 X161.350 Y145.157 E6.05811 F1800.000
