; generated by Slic3r 1.1.7 on 2014-11-01 at 22:22:56

; perimeters extrusion width = 0.50mm
; infill extrusion width = 1.02mm
; solid infill extrusion width = 0.85mm
; top infill extrusion width = 0.85mm

G21 ; set units to millimeters
M107
M190 S35 ; wait for bed temperature to be reached
M104 S210 ; set temperature
G28 ; home all axes
G1 Z5 F200; lift nozzle


M109 S210 ; wait for temperature to be reached
G90 ; use absolute coordinates
G92 E0
M82 ; use absolute distances for extrusion
G1 F1800.000 E-5.00000
G92 E0
G1 Z0.350 F7800.000
G1 X58.727 Y60.026 F7800.000
G1 E5.00000 F1800.000
G1 X61.067 Y57.736 E5.30605 F2700.000
G1 X63.664 Y55.484 E5.62735
G1 X66.390 Y53.390 E5.94864
G1 X69.237 Y51.464 E6.26992
G1 X72.194 Y49.711 E6.59122
G1 X75.251 Y48.138 E6.91251
G1 X78.396 Y46.751 E7.23380
G1 X81.619 Y45.554 E7.55510
G1 X84.907 Y44.552 E7.87638
G1 X88.249 Y43.749 E8.19768
G1 X91.634 Y43.147 E8.51897
G1 X95.048 Y42.748 E8.84026
G1 X98.480 Y42.554 E9.16155
G1 X101.918 Y42.566 E9.48283
G1 X105.515 Y42.804 E9.81977 F2700.000
G1 X108.760 Y43.206 E10.12540
G1 X112.140 Y43.831 E10.44669
G1 X115.637 Y44.707 E10.78362
G1 X118.758 Y45.683 E11.08925
G1 X121.972 Y46.902 E11.41053
G1 X125.257 Y48.388 E11.74747
G1 X128.153 Y49.905 E12.05310
G1 X131.098 Y51.678 E12.37438
G1 X134.064 Y53.727 E12.71132
G1 X136.644 Y55.737 E13.01695
G1 X139.225 Y58.007 E13.33824
G1 X141.777 Y60.553 E13.67517
G1 X143.956 Y62.991 E13.98080
G1 X146.090 Y65.686 E14.30210
G1 X148.059 Y68.504 E14.62339
G1 X149.936 Y71.582 E14.96031
G1 X151.475 Y74.467 E15.26595
G1 X152.909 Y77.591 E15.58723
G1 X154.154 Y80.795 E15.90853
G1 X155.247 Y84.230 E16.24545
G1 X156.058 Y87.398 E16.55109
G1 X156.711 Y90.773 E16.87238
G1 X157.160 Y94.181 E17.19367
G1 X157.405 Y97.610 E17.51496
G1 X157.445 Y101.047 E17.83625
G1 X157.261 Y104.647 E18.17318
G1 X156.907 Y107.898 E18.47881
G1 X156.333 Y111.287 E18.80010
G1 X155.556 Y114.636 E19.12139
G1 X154.524 Y118.090 E19.45832
G1 X153.410 Y121.164 E19.76395
G1 X152.048 Y124.321 E20.08525
G1 X150.499 Y127.390 E20.40654
G1 X148.678 Y130.501 E20.74346
G1 X146.867 Y133.223 E21.04909
G1 X144.795 Y135.966 E21.37039
G1 X142.563 Y138.581 E21.69168
G1 X140.179 Y141.057 E22.01297
G1 X137.651 Y143.387 E22.33426
G1 X134.989 Y145.561 E22.65555
G1 X132.200 Y147.572 E22.97684
G1 X129.297 Y149.412 E23.29813
G1 X126.138 Y151.149 E23.63506
G1 X123.187 Y152.557 E23.94069
G1 X120.002 Y153.849 E24.26198
G1 X116.745 Y154.949 E24.58327
G1 X113.264 Y155.887 E24.92020
G1 X110.063 Y156.555 E25.22584
G1 X106.662 Y157.056 E25.54713
G1 X103.237 Y157.352 E25.86842
G1 X99.801 Y157.443 E26.18971
G1 X96.365 Y157.328 E26.51100
G1 X92.943 Y157.008 E26.83229
G1 X89.545 Y156.484 E27.15359
G1 X86.185 Y155.758 E27.47488
G1 X82.875 Y154.832 E27.79617
G1 X79.471 Y153.646 E28.13309
G1 X76.449 Y152.395 E28.43872
G1 X73.357 Y150.892 E28.76002
G1 X70.361 Y149.208 E29.08131
G1 X67.470 Y147.347 E29.40260
G1 X64.696 Y145.317 E29.72389
G1 X61.926 Y143.011 E30.06082
G1 X59.537 Y140.778 E30.36645
G1 X57.170 Y138.285 E30.68774
G1 X54.856 Y135.521 E31.02467
G1 X52.904 Y132.897 E31.33030
G1 X51.020 Y130.022 E31.65158
G1 X49.312 Y127.039 E31.97289
G1 X47.785 Y123.959 E32.29417
G1 X46.445 Y120.794 E32.61547
G1 X45.296 Y117.554 E32.93676
G1 X44.307 Y114.087 E33.27369
G1 X43.591 Y110.897 E33.57932
G1 X43.039 Y107.504 E33.90060
G1 X42.692 Y104.084 E34.22188
G1 X42.552 Y100.481 E34.55883
G1 X42.613 Y97.212 E34.86446
G1 X42.881 Y93.785 E35.18575
G1 X43.355 Y90.380 E35.50704
G1 X44.031 Y87.010 E35.82832
G1 X44.907 Y83.686 E36.14962
G1 X45.981 Y80.420 E36.47092
G1 X47.248 Y77.225 E36.79221
G1 X48.703 Y74.111 E37.11350
G1 X50.431 Y70.947 E37.45042
G1 X52.160 Y68.171 E37.75605
G1 X54.148 Y65.367 E38.07734
G1 X56.301 Y62.687 E38.39864
G1 X58.673 Y60.079 E38.72814
G1 F1800.000 E33.72814
G92 E0
G1 X103.716 Y103.106 F7800.000
G1 E5.00000 F1800.000
G1 X102.896 Y103.879 E5.10526 F1350.000
G1 X101.921 Y104.442 E5.21052
G1 X100.842 Y104.765 E5.31579
G1 X99.718 Y104.831 E5.42104
G1 X98.840 Y104.676 E5.50433
G1 X98.609 Y104.635 E5.52631
G1 X97.575 Y104.189 E5.63157
G1 X96.671 Y103.517 E5.73683
G1 X95.947 Y102.654 E5.84209
G1 X95.442 Y101.648 E5.94735
G1 X95.182 Y100.552 E6.05261
G1 X95.182 Y99.426 E6.15788
G1 X95.442 Y98.330 E6.26314
G1 X95.947 Y97.323 E6.36840
G1 X96.671 Y96.461 E6.47366
G1 X97.575 Y95.788 E6.57892
G1 X98.609 Y95.342 E6.68419
G1 X99.718 Y95.146 E6.78945
G1 X100.608 Y95.198 E6.87273
G1 X100.842 Y95.212 E6.89471 F1350.000
G1 X101.921 Y95.535 E6.99997
G1 X102.897 Y96.098 E7.10523
G1 X103.716 Y96.871 E7.21049
G1 X104.335 Y97.812 E7.31576
G1 X104.720 Y98.870 E7.42102
G1 X104.850 Y99.989 E7.52628
G1 X104.720 Y101.107 E7.63154
G1 X104.335 Y102.166 E7.73680
G1 X103.757 Y103.044 E7.83506
G1 X103.209 Y102.681 F7800.000
G1 X102.501 Y103.349 E7.92596 F1350.000
G1 X101.659 Y103.835 E8.01687
G1 X100.727 Y104.114 E8.10777
G1 X99.756 Y104.170 E8.19868
G1 X98.799 Y104.002 E8.28958
G1 X97.906 Y103.616 E8.38049
G1 X97.125 Y103.036 E8.47139
G1 X96.500 Y102.290 E8.56230
G1 X96.064 Y101.421 E8.65320
G1 X95.839 Y100.475 E8.74411
G1 X95.839 Y99.502 E8.83501
G1 X96.064 Y98.556 E8.92592
G1 X96.500 Y97.687 E9.01682
G1 X97.125 Y96.942 E9.10773
G1 X97.906 Y96.361 E9.19863
G1 X98.799 Y95.976 E9.28954
G1 X99.600 Y95.834 E9.36564
G1 X99.756 Y95.807 E9.38044 F1350.000
G1 X100.727 Y95.863 E9.47135
G1 X101.659 Y96.142 E9.56225
G1 X102.501 Y96.629 E9.65316
G1 X103.209 Y97.296 E9.74407
G1 X103.743 Y98.109 E9.83497
G1 X104.076 Y99.023 E9.92588
G1 X104.189 Y99.989 E10.01678
G1 X104.076 Y100.955 E10.10769
G1 X103.743 Y101.869 E10.19859
G1 X103.250 Y102.619 E10.28249
G1 X102.702 Y102.256 F7800.000
G1 X102.106 Y102.818 E10.35904 F945.000
G1 X101.397 Y103.228 E10.43559
G1 X100.613 Y103.462 E10.51214
G1 X99.795 Y103.510 E10.58868
G1 X99.069 Y103.382 E10.65761
G1 X98.988 Y103.368 E10.66523
G1 X98.236 Y103.043 E10.74178
G1 X97.579 Y102.554 E10.81833
G1 X97.053 Y101.927 E10.89488
G1 X96.685 Y101.195 E10.97143
G1 X96.496 Y100.398 E11.04797
G1 X96.496 Y99.579 E11.12452
G1 X96.685 Y98.782 E11.20107
G1 X97.053 Y98.050 E11.27762
G1 X97.579 Y97.423 E11.35417
G1 X98.236 Y96.934 E11.43072
G1 X98.988 Y96.609 E11.50727
G1 X99.795 Y96.467 E11.58382
G1 X100.531 Y96.510 E11.65274
G1 X100.613 Y96.515 E11.66037 F945.000
G1 X101.397 Y96.750 E11.73691
G1 X102.106 Y97.159 E11.81346
G1 X102.702 Y97.721 E11.89001
G1 X103.152 Y98.406 E11.96656
G1 X103.432 Y99.175 E12.04311
G1 X103.527 Y99.989 E12.11966
G1 X103.432 Y100.802 E12.19621
G1 X103.152 Y101.572 E12.27275
G1 X102.743 Y102.193 E12.34229
G1 F1800.000 E7.34229
G92 E0
G1 X100.521 Y96.429 F7800.000
G1 X137.476 Y131.732 F7800.000
G1 E5.00000 F1800.000
G1 X136.514 Y132.866 E5.13903 F1350.000
G1 X134.483 Y134.991 E5.41380
G1 X132.328 Y136.991 E5.68857
G1 X130.057 Y138.858 E5.96334
G1 X127.679 Y140.586 E6.23810
G1 X125.201 Y142.169 E6.51287
G1 X122.634 Y143.600 E6.78764
G1 X119.985 Y144.876 E7.06241
G1 X117.265 Y145.991 E7.33718
G1 X114.483 Y146.941 E7.61195
G1 X111.649 Y147.723 E7.88672
G1 X108.773 Y148.334 E8.16148
G1 X105.866 Y148.772 E8.43625
G1 X103.076 Y149.032 E8.69821
G1 X100.000 Y149.124 E8.98582
G1 X97.062 Y149.036 E9.26058
G1 X94.134 Y148.772 E9.53535
G1 X91.227 Y148.334 E9.81012
G1 X88.351 Y147.723 E10.08489
G1 X85.517 Y146.941 E10.35966
G1 X82.626 Y145.946 E10.64541
G1 X80.015 Y144.876 E10.90918
G1 X77.366 Y143.600 E11.18395
G1 X74.799 Y142.169 E11.45871
G1 X72.321 Y140.586 E11.73352
G1 X69.943 Y138.858 E12.00825
G1 X67.672 Y136.991 E12.28303
G1 X65.517 Y134.991 E12.55779
G1 X63.486 Y132.866 E12.83256
G1 X61.585 Y130.624 E13.10733
G1 X59.821 Y128.272 E13.38209
G1 X58.202 Y125.818 E13.65686
G1 X56.732 Y123.272 E13.93163
G1 X55.417 Y120.643 E14.20640
G1 X54.261 Y117.940 E14.48117
G1 X53.270 Y115.172 E14.75594
G1 X52.419 Y112.236 E15.04169
G1 X51.791 Y109.484 E15.30545
G1 X51.310 Y106.584 E15.58023
G1 X51.002 Y103.660 E15.85500
G1 X50.870 Y100.724 E16.12976
G1 X50.914 Y97.784 E16.40453
G1 X51.134 Y94.853 E16.67930
G1 X51.529 Y91.939 E16.95407
G1 X52.097 Y89.055 E17.22884
G1 X52.836 Y86.210 E17.50361
G1 X53.745 Y83.414 E17.77837
G1 X54.819 Y80.677 E18.05314
G1 X56.055 Y78.010 E18.32791
G1 X57.448 Y75.421 E18.60268
G1 X58.993 Y72.920 E18.87745
G1 X60.685 Y70.516 E19.15222
G1 X62.518 Y68.218 E19.42699
G1 X64.485 Y66.033 E19.70175
G1 X66.580 Y63.970 E19.97652
G1 X68.794 Y62.036 E20.25129
G1 X71.119 Y60.238 E20.52606
G1 X73.548 Y58.581 E20.80083
G1 X76.072 Y57.074 E21.07560
G1 X78.681 Y55.719 E21.35037
G1 X81.367 Y54.524 E21.62514
G1 X84.119 Y53.491 E21.89990
G1 X86.928 Y52.624 E22.17467
G1 X89.784 Y51.927 E22.44944
G1 X92.677 Y51.402 E22.72421
G1 X95.596 Y51.051 E22.99898
G1 X98.530 Y50.876 E23.27375
G1 X101.587 Y50.883 E23.55950
G1 X104.404 Y51.051 E23.82327 F1350.000
G1 X107.323 Y51.402 E24.09804
G1 X110.216 Y51.927 E24.37280
G1 X113.072 Y52.624 E24.64757
G1 X115.881 Y53.491 E24.92234
G1 X118.633 Y54.524 E25.19711
G1 X121.423 Y55.774 E25.48286
G1 X123.928 Y57.074 E25.74663
G1 X126.452 Y58.581 E26.02140
G1 X128.881 Y60.238 E26.29617
G1 X131.206 Y62.036 E26.57093
G1 X133.420 Y63.970 E26.84570
G1 X135.593 Y66.121 E27.13146
G1 X137.482 Y68.218 E27.39522
G1 X139.315 Y70.516 E27.66999
G1 X141.007 Y72.920 E27.94476
G1 X142.552 Y75.421 E28.21953
G1 X143.945 Y78.010 E28.49430
G1 X145.181 Y80.677 E28.76907
G1 X146.255 Y83.414 E29.04383
G1 X147.164 Y86.210 E29.31860
G1 X147.903 Y89.055 E29.59337
G1 X148.471 Y91.939 E29.86814
G1 X148.866 Y94.853 E30.14291
G1 X149.086 Y97.784 E30.41768
G1 X149.130 Y100.724 E30.69244
G1 X148.998 Y103.661 E30.96721
G1 X148.690 Y106.584 E31.24198
G1 X148.183 Y109.599 E31.52774
G1 X147.555 Y112.350 E31.79150
G1 X146.730 Y115.172 E32.06627
G1 X145.739 Y117.940 E32.34104
G1 X144.583 Y120.643 E32.61581
G1 X143.268 Y123.272 E32.89058
G1 X141.798 Y125.818 E33.16534
G1 X140.179 Y128.272 E33.44011
G1 X138.415 Y130.624 E33.71488
G1 X137.525 Y131.675 E33.84361
G1 X137.978 Y132.157 F7800.000
G1 X137.003 Y133.306 E33.98448 F1350.000
G1 X134.944 Y135.460 E34.26292
G1 X132.760 Y137.486 E34.54137
G1 X130.459 Y139.378 E34.81981
G1 X128.049 Y141.129 E35.09826
G1 X125.539 Y142.733 E35.37670
G1 X122.937 Y144.184 E35.65515
G1 X120.252 Y145.476 E35.93359
G1 X117.496 Y146.606 E36.21204
G1 X114.677 Y147.569 E36.49048
G1 X111.805 Y148.362 E36.76893
G1 X108.891 Y148.981 E37.04737
G1 X105.945 Y149.425 E37.32582
G1 X102.978 Y149.692 E37.60426
G1 X100.000 Y149.781 E37.88270
G1 X97.022 Y149.692 E38.16115
G1 X94.055 Y149.425 E38.43959
G1 X91.109 Y148.981 E38.71804
G1 X88.195 Y148.362 E38.99648
G1 X85.323 Y147.569 E39.27493
G1 X82.504 Y146.606 E39.55337
G1 X79.748 Y145.476 E39.83182
G1 X77.063 Y144.184 E40.11026
G1 X74.461 Y142.733 E40.38871
G1 X71.951 Y141.129 E40.66715
G1 X69.541 Y139.378 E40.94560
G1 X67.139 Y137.392 E41.23686
G1 X65.056 Y135.460 E41.50246
G1 X62.997 Y133.306 E41.78091
G1 X61.071 Y131.034 E42.05936
G1 X59.284 Y128.650 E42.33780
G1 X57.643 Y126.164 E42.61624
G1 X56.153 Y123.584 E42.89469
G1 X54.820 Y120.919 E43.17313
G1 X53.649 Y118.180 E43.45158
G1 X52.645 Y115.375 E43.73002
G1 X51.809 Y112.516 E44.00847
G1 X51.146 Y109.611 E44.28691
G1 X50.658 Y106.672 E44.56536
G1 X50.347 Y103.710 E44.84380
G1 X50.213 Y100.733 E45.12225
G1 X50.258 Y97.755 E45.40069
G1 X50.480 Y94.784 E45.67914
G1 X50.880 Y91.832 E45.95758
G1 X51.456 Y88.909 E46.23603
G1 X52.205 Y86.025 E46.51447
G1 X53.126 Y83.192 E46.79291
G1 X54.214 Y80.419 E47.07136
G1 X55.467 Y77.716 E47.34980
G1 X56.951 Y74.976 E47.64107
G1 X58.445 Y72.558 E47.90667
G1 X60.159 Y70.122 E48.18512
G1 X62.017 Y67.793 E48.46356
G1 X64.010 Y65.579 E48.74201
G1 X66.133 Y63.488 E49.02045
G1 X68.376 Y61.528 E49.29890
G1 X70.733 Y59.706 E49.57734
G1 X73.194 Y58.027 E49.85579
G1 X75.752 Y56.499 E50.13423
G1 X78.396 Y55.127 E50.41268
G1 X81.117 Y53.915 E50.69112
G1 X83.907 Y52.869 E50.96956
G1 X86.753 Y51.991 E51.24801
G1 X89.648 Y51.284 E51.52645
G1 X92.579 Y50.752 E51.80490
G1 X95.537 Y50.397 E52.08334
G1 X98.510 Y50.218 E52.36179
G1 X101.490 Y50.218 E52.64023 F1350.000
G1 X104.600 Y50.413 E52.93150
G1 X107.421 Y50.752 E53.19710
G1 X110.352 Y51.284 E53.47555
G1 X113.247 Y51.991 E53.75399
G1 X116.222 Y52.917 E54.04525
G1 X118.883 Y53.915 E54.31086
G1 X121.604 Y55.127 E54.58930
G1 X124.248 Y56.499 E54.86775
G1 X126.806 Y58.027 E55.14619
G1 X129.267 Y59.706 E55.42464
G1 X131.624 Y61.528 E55.70308
G1 X133.867 Y63.488 E55.98153
G1 X136.082 Y65.681 E56.27279
G1 X137.983 Y67.793 E56.53840
G1 X139.841 Y70.122 E56.81684
G1 X141.555 Y72.558 E57.09528
G1 X143.122 Y75.092 E57.37373
G1 X144.533 Y77.716 E57.65217
G1 X145.786 Y80.419 E57.93062
G1 X146.874 Y83.192 E58.20906
G1 X147.795 Y86.025 E58.48751
G1 X148.544 Y88.909 E58.76595
G1 X149.120 Y91.832 E59.04440
G1 X149.520 Y94.784 E59.32284
G1 X149.742 Y97.755 E59.60129
G1 X149.787 Y100.733 E59.87973
G1 X149.653 Y103.710 E60.15818
G1 X149.342 Y106.672 E60.43662
G1 X148.854 Y109.611 E60.71507
G1 X148.191 Y112.516 E60.99351
G1 X147.420 Y115.153 E61.25032
G1 X147.435 Y115.153 E61.25170
G1 X146.351 Y118.180 E61.55220
G1 X145.180 Y120.919 E61.83064
G1 X143.847 Y123.584 E62.10909
G1 X142.357 Y126.164 E62.38753
G1 X140.716 Y128.650 E62.66598
G1 X138.929 Y131.034 E62.94442
G1 X138.026 Y132.099 E63.07499
G1 X138.479 Y132.581 F7800.000
G1 X137.492 Y133.746 E63.21770 F945.000
G1 X135.406 Y135.928 E63.49982
G1 X133.193 Y137.981 E63.78194
G1 X130.861 Y139.898 E64.06406
G1 X128.419 Y141.672 E64.34618
G1 X125.876 Y143.297 E64.62830
G1 X123.239 Y144.767 E64.91042
G1 X120.520 Y146.077 E65.19254
G1 X117.727 Y147.222 E65.47466
G1 X114.870 Y148.197 E65.75678
G1 X111.961 Y149.000 E66.03891
G1 X109.008 Y149.628 E66.32102
G1 X106.023 Y150.078 E66.60315
G1 X103.017 Y150.348 E66.88527
G1 X100.000 Y150.438 E67.16739
G1 X96.983 Y150.348 E67.44951
G1 X93.977 Y150.078 E67.73163
G1 X90.992 Y149.628 E68.01375
G1 X88.039 Y149.000 E68.29587
G1 X85.130 Y148.197 E68.57799
G1 X82.273 Y147.222 E68.86011
G1 X79.480 Y146.077 E69.14223
G1 X76.761 Y144.767 E69.42436
G1 X74.124 Y143.297 E69.70648
G1 X71.581 Y141.672 E69.98860
G1 X69.139 Y139.898 E70.27072
G1 X66.692 Y137.874 E70.56749
G1 X64.594 Y135.928 E70.83493
G1 X62.508 Y133.746 E71.11706
G1 X60.557 Y131.444 E71.39918
G1 X58.746 Y129.028 E71.68130
G1 X57.083 Y126.509 E71.96342
G1 X55.574 Y123.895 E72.24554
G1 X54.224 Y121.196 E72.52766
G1 X53.038 Y118.420 E72.80978
G1 X52.019 Y115.578 E73.09190
G1 X51.138 Y112.528 E73.38868
G1 X50.501 Y109.738 E73.65612
G1 X50.007 Y106.761 E73.93824
G1 X49.691 Y103.759 E74.22036
G1 X49.556 Y100.743 E74.50248
G1 X49.601 Y97.725 E74.78460
G1 X49.827 Y94.715 E75.06672
G1 X50.232 Y91.724 E75.34884
G1 X50.815 Y88.762 E75.63097
G1 X51.574 Y85.841 E75.91309
G1 X52.507 Y82.970 E76.19521
G1 X53.610 Y80.161 E76.47733
G1 X54.879 Y77.422 E76.75945
G1 X56.309 Y74.764 E77.04157
G1 X57.896 Y72.196 E77.32369
G1 X59.633 Y69.728 E77.60581
G1 X61.515 Y67.368 E77.88793
G1 X63.535 Y65.125 E78.17005
G1 X65.804 Y62.903 E78.46683
G1 X67.959 Y61.020 E78.73427
G1 X70.346 Y59.174 E79.01639
G1 X72.840 Y57.473 E79.29851
G1 X75.431 Y55.925 E79.58063
G1 X78.111 Y54.535 E79.86275
G1 X80.868 Y53.307 E80.14487
G1 X83.694 Y52.247 E80.42700
G1 X86.578 Y51.357 E80.70912
G1 X89.511 Y50.641 E80.99124
G1 X92.481 Y50.102 E81.27336
G1 X95.478 Y49.742 E81.55548
G1 X98.491 Y49.561 E81.83760
G1 X101.666 Y49.571 E82.13437
G1 X104.522 Y49.742 E82.40182 F945.000
G1 X107.519 Y50.102 E82.68394
G1 X110.489 Y50.641 E82.96606
G1 X113.422 Y51.357 E83.24818
G1 X116.306 Y52.247 E83.53030
G1 X119.132 Y53.307 E83.81242
G1 X122.029 Y54.607 E84.10919
G1 X124.569 Y55.925 E84.37664
G1 X127.160 Y57.473 E84.65876
G1 X129.654 Y59.174 E84.94088
G1 X132.041 Y61.020 E85.22300
G1 X134.426 Y63.116 E85.51977
G1 X136.465 Y65.125 E85.78722
G1 X138.485 Y67.368 E86.06934
G1 X140.367 Y69.728 E86.35146
G1 X142.104 Y72.196 E86.63358
G1 X143.691 Y74.764 E86.91570
G1 X145.121 Y77.422 E87.19782
G1 X146.390 Y80.161 E87.47994
G1 X147.493 Y82.970 E87.76206
G1 X148.426 Y85.841 E88.04418
G1 X149.185 Y88.762 E88.32630
G1 X149.768 Y91.724 E88.60843
G1 X150.173 Y94.715 E88.89055
G1 X150.399 Y97.725 E89.17267
G1 X150.437 Y100.900 E89.46944
G1 X150.309 Y103.759 E89.73688
G1 X149.993 Y106.761 E90.01900
G1 X149.464 Y109.891 E90.31578
