; generated by Slic3r 1.1.7 on 2014-11-07 at 22:29:50

; perimeters extrusion width = 0.50mm
; infill extrusion width = 0.70mm
; solid infill extrusion width = 0.70mm
; top infill extrusion width = 0.70mm

G21 ; set units to millimeters
M107
M190 S35 ; wait for bed temperature to be reached
M104 S210 ; set temperature
G28 ; home all axes
G1 Z5 F200; lift nozzle


M109 S210 ; wait for temperature to be reached
G90 ; use absolute coordinates
G92 E0
M82 ; use absolute distances for extrusion
G1 F1800.000 E-5.00000
G92 E0
G1 Z0.350 F7800.000
G1 X42.453 Y47.101 F7800.000
G1 E5.00000 F1800.000
G1 X43.445 Y46.323 E5.14786 F3600.000
G1 X44.490 Y45.618 E5.29568
G1 X45.583 Y44.990 E5.44352
G1 X46.717 Y44.441 E5.59133
G1 X47.887 Y43.974 E5.73911
G1 X49.089 Y43.592 E5.88697
G1 X50.314 Y43.297 E6.03480
G1 X51.557 Y43.090 E6.18259
G1 X52.812 Y42.972 E6.33045
G1 X53.784 Y42.940 E6.44452
G1 X104.852 Y42.554 E12.43474
G1 X108.289 Y42.566 E12.83793
G1 X111.886 Y42.804 E13.26078 F3600.000
G1 X115.131 Y43.206 E13.64433
G1 X118.512 Y43.831 E14.04755
G1 X122.008 Y44.707 E14.47038
G1 X125.130 Y45.683 E14.85393
G1 X128.344 Y46.902 E15.25713
G1 X131.628 Y48.388 E15.67998
G1 X134.525 Y49.905 E16.06354
G1 X137.470 Y51.678 E16.46673
G1 X140.303 Y53.624 E16.86996
G1 X143.015 Y55.737 E17.27317
G1 X145.716 Y58.125 E17.69600
G1 X148.037 Y60.428 E18.07955
G1 X150.328 Y62.991 E18.48277
G1 X152.462 Y65.686 E18.88598
G1 X154.431 Y68.504 E19.28919
G1 X156.307 Y71.582 E19.71202
G1 X157.846 Y74.467 E20.09558
G1 X159.280 Y77.591 E20.49878
G1 X160.525 Y80.795 E20.90200
G1 X161.576 Y84.068 E21.30520
G1 X162.429 Y87.398 E21.70842
G1 X163.082 Y90.773 E22.11163
G1 X163.532 Y94.181 E22.51484
G1 X163.777 Y97.610 E22.91805
G1 X163.816 Y101.047 E23.32126
G1 X163.650 Y104.481 E23.72447
G1 X163.279 Y107.898 E24.12768
G1 X162.704 Y111.287 E24.53089
G1 X161.927 Y114.636 E24.93410
G1 X160.896 Y118.090 E25.35693
G1 X159.781 Y121.164 E25.74049
G1 X158.419 Y124.321 E26.14370
G1 X156.871 Y127.390 E26.54691
G1 X155.142 Y130.361 E26.95012
G1 X153.138 Y133.357 E27.37295
G1 X151.167 Y135.966 E27.75651
G1 X148.935 Y138.581 E28.15972
G1 X146.551 Y141.057 E28.56293
G1 X144.023 Y143.387 E28.96614
G1 X141.360 Y145.561 E29.36935
G1 X138.572 Y147.572 E29.77256
G1 X135.669 Y149.412 E30.17577
G1 X132.510 Y151.149 E30.59860
G1 X129.558 Y152.557 E30.98216
G1 X126.373 Y153.849 E31.38537
G1 X123.116 Y154.949 E31.78858
G1 X119.799 Y155.852 E32.19179
G1 X116.434 Y156.555 E32.59500
G1 X113.033 Y157.056 E32.99821
G1 X109.609 Y157.352 E33.40142
G1 X106.172 Y157.443 E33.80463
G1 X102.737 Y157.328 E34.20784
G1 X99.314 Y157.008 E34.61105
G1 X95.917 Y156.484 E35.01426
G1 X92.557 Y155.758 E35.41747
G1 X89.246 Y154.832 E35.82068
G1 X85.997 Y153.709 E36.22389
G1 X82.821 Y152.395 E36.62710
G1 X79.729 Y150.892 E37.03031
G1 X76.732 Y149.208 E37.43352
G1 X73.842 Y147.347 E37.83673
G1 X71.068 Y145.317 E38.23994
G1 X68.297 Y143.011 E38.66277
G1 X65.908 Y140.778 E39.04633
G1 X63.542 Y138.285 E39.44954
G1 X61.328 Y135.655 E39.85275
G1 X59.276 Y132.897 E40.25597
G1 X57.392 Y130.022 E40.65916
G1 X55.683 Y127.039 E41.06239
G1 X54.156 Y123.959 E41.46559
G1 X52.816 Y120.794 E41.86880
G1 X51.668 Y117.554 E42.27202
G1 X50.801 Y114.587 E42.63456
G1 X36.829 Y65.342 E48.63868
G1 X36.534 Y64.117 E48.78651
G1 X36.327 Y62.874 E48.93430
G1 X36.209 Y61.619 E49.08215
G1 X36.182 Y60.342 E49.23200
G1 X36.243 Y59.101 E49.37780
G1 X36.395 Y57.850 E49.52551
G1 X36.635 Y56.613 E49.67336
G1 X36.963 Y55.396 E49.82126
G1 X37.377 Y54.206 E49.96903
G1 X37.875 Y53.048 E50.11690
G1 X38.454 Y51.929 E50.26469
G1 X39.112 Y50.854 E50.41250
G1 X39.845 Y49.828 E50.56038
G1 X40.648 Y48.858 E50.70813
G1 X41.520 Y47.947 E50.85602
G1 X42.398 Y47.151 E50.99501
G1 F1800.000 E45.99501
G92 E0
G1 X47.008 Y61.832 F7800.000
G1 E5.00000 F1800.000
G1 X46.736 Y62.043 E5.04045 F1800.000
G1 X46.426 Y62.195 E5.08089
G1 X46.092 Y62.282 E5.12134
G1 X45.748 Y62.299 E5.16179
G1 X45.407 Y62.247 E5.20224
G1 X45.084 Y62.127 E5.24269
G1 X44.791 Y61.945 E5.28314
G1 X44.541 Y61.707 E5.32358
G1 X44.344 Y61.424 E5.36404
G1 X44.208 Y61.107 E5.40448
G1 X44.139 Y60.769 E5.44494
G1 X44.139 Y60.425 E5.48538
G1 X44.208 Y60.087 E5.52583
G1 X44.344 Y59.770 E5.56628
G1 X44.541 Y59.487 E5.60673
G1 X44.791 Y59.249 E5.64718
G1 X45.084 Y59.067 E5.68762
G1 X45.407 Y58.947 E5.72807
G1 X45.748 Y58.895 E5.76852
G1 X46.045 Y58.910 E5.80338
G1 X46.426 Y58.999 E5.84932 F1800.000
G1 X46.736 Y59.151 E5.88977
G1 X47.008 Y59.362 E5.93022
G1 X47.233 Y59.623 E5.97067
G1 X47.400 Y59.925 E6.01112
G1 X47.504 Y60.254 E6.05156
G1 X47.534 Y60.550 E6.08642
G1 X47.504 Y60.940 E6.13236
G1 X47.400 Y61.269 E6.17281
G1 X47.233 Y61.571 E6.21326
G1 X47.057 Y61.775 E6.24491
G1 F1800.000 E1.24491
G92 E0
G1 X46.050 Y58.518 F7800.000
G1 X60.139 Y60.769 F7800.000
G1 E5.00000 F1800.000
G1 X60.139 Y60.425 E5.04045 F1800.000
G1 X60.208 Y60.087 E5.08090
G1 X60.344 Y59.770 E5.12135
G1 X60.541 Y59.487 E5.16180
G1 X60.791 Y59.249 E5.20225
G1 X61.084 Y59.067 E5.24269
G1 X61.407 Y58.947 E5.28314
G1 X61.748 Y58.895 E5.32359
G1 X62.045 Y58.910 E5.35845
G1 X62.426 Y58.999 E5.40439 F1800.000
G1 X62.736 Y59.151 E5.44484
G1 X63.008 Y59.362 E5.48529
G1 X63.202 Y59.587 E5.52015
G1 X63.400 Y59.925 E5.56608
G1 X63.504 Y60.254 E5.60653
G1 X63.534 Y60.550 E5.64139
G1 X63.504 Y60.940 E5.68733
G1 X63.400 Y61.269 E5.72778
G1 X63.233 Y61.571 E5.76822
G1 X63.008 Y61.832 E5.80867
G1 X62.736 Y62.043 E5.84912
G1 X62.426 Y62.195 E5.88957
G1 X62.138 Y62.270 E5.92443
G1 X61.748 Y62.299 E5.97037
G1 X61.407 Y62.247 E6.01082
G1 X61.084 Y62.127 E6.05127
G1 X60.791 Y61.945 E6.09172
G1 X60.541 Y61.707 E6.13216
G1 X60.344 Y61.424 E6.17261
G1 X60.208 Y61.107 E6.21306
G1 X60.154 Y60.843 E6.24471
G1 F1800.000 E1.24471
G92 E0
G1 X62.192 Y58.547 F7800.000
G1 X54.859 Y53.948 F7800.000
G1 E5.00000 F1800.000
G1 X54.736 Y54.043 E5.01822 F1800.000
G1 X54.426 Y54.195 E5.05867
G1 X54.092 Y54.282 E5.09912
G1 X53.748 Y54.299 E5.13957
G1 X53.407 Y54.247 E5.18002
G1 X53.084 Y54.127 E5.22047
G1 X52.791 Y53.945 E5.26092
G1 X52.541 Y53.707 E5.30136
G1 X52.344 Y53.424 E5.34181
G1 X52.208 Y53.107 E5.38226
G1 X52.139 Y52.769 E5.42271
G1 X52.139 Y52.425 E5.46316
G1 X52.208 Y52.087 E5.50360
G1 X52.344 Y51.770 E5.54406
G1 X52.541 Y51.487 E5.58450
G1 X52.791 Y51.249 E5.62496
G1 X53.084 Y51.067 E5.66540
G1 X53.407 Y50.947 E5.70585
G1 X53.748 Y50.895 E5.74630
G1 X54.045 Y50.910 E5.78116
G1 X54.426 Y50.999 E5.82709 F1800.000
G1 X54.736 Y51.151 E5.86755
G1 X55.008 Y51.362 E5.90799
G1 X55.233 Y51.623 E5.94844
G1 X55.400 Y51.925 E5.98889
G1 X55.504 Y52.254 E6.02934
G1 X55.538 Y52.597 E6.06979
G1 X55.504 Y52.940 E6.11023
G1 X55.400 Y53.269 E6.15069
G1 X55.233 Y53.571 E6.19113
G1 X55.008 Y53.832 E6.23158
G1 X54.918 Y53.902 E6.24501
G1 F1800.000 E1.24501
G92 E0
G1 X54.063 Y50.519 F7800.000
G1 X54.380 Y56.449 F7800.000
G1 E5.00000 F1800.000
G1 X54.917 Y56.555 E5.06421 F1800.000
G1 X55.435 Y56.731 E5.12840
G1 X55.926 Y56.973 E5.19258
G1 X56.381 Y57.277 E5.25680
G1 X56.793 Y57.638 E5.32099
G1 X57.154 Y58.050 E5.38520
G1 X57.458 Y58.505 E5.44938
G1 X57.667 Y58.928 E5.50479
G1 X57.876 Y59.514 E5.57772
G1 X57.983 Y60.051 E5.64191
G1 X58.018 Y60.597 E5.70612
G1 X57.983 Y61.143 E5.77033
G1 X57.876 Y61.680 E5.83453
G1 X57.700 Y62.198 E5.89872
G1 X57.458 Y62.689 E5.96290
G1 X57.154 Y63.144 E6.02713
G1 X56.793 Y63.556 E6.09131
G1 X56.381 Y63.917 E6.15552
G1 X55.926 Y64.221 E6.21970
G1 X55.503 Y64.430 E6.27511
G1 X54.917 Y64.639 E6.34804
G1 X54.380 Y64.745 E6.41224
G1 X53.834 Y64.781 E6.47644
G1 X53.363 Y64.750 E6.53184
G1 X52.751 Y64.639 E6.60478
G1 X52.233 Y64.463 E6.66897
G1 X51.742 Y64.221 E6.73316
G1 X51.287 Y63.917 E6.79738
G1 X50.876 Y63.556 E6.86156
G1 X50.515 Y63.144 E6.92577
G1 X50.211 Y62.689 E6.98995
G1 X50.002 Y62.266 E7.04535
G1 X49.793 Y61.680 E7.11829
G1 X49.686 Y61.143 E7.18248
G1 X49.650 Y60.597 E7.24668
G1 X49.686 Y60.051 E7.31090
G1 X49.793 Y59.514 E7.37510
G1 X49.968 Y58.996 E7.43930
G1 X50.210 Y58.505 E7.50348
G1 X50.515 Y58.050 E7.56770
G1 X50.875 Y57.638 E7.63188
G1 X51.287 Y57.277 E7.69609
G1 X51.742 Y56.973 E7.76027
G1 X52.166 Y56.764 E7.81567
G1 X52.751 Y56.555 E7.88861
G1 X53.288 Y56.449 E7.95280
G1 X53.834 Y56.413 E8.01701
G1 X54.305 Y56.444 E8.07240
G1 X54.306 Y56.444 E8.07242 F1800.000
G1 X54.294 Y57.101 F7800.000
G1 X54.747 Y57.191 E8.12652 F1800.000
G1 X55.153 Y57.329 E8.17684
G1 X55.597 Y57.544 E8.23467
G1 X55.981 Y57.800 E8.28877
G1 X56.327 Y58.104 E8.34286
G1 X56.631 Y58.451 E8.39696
G1 X56.888 Y58.834 E8.45105
G1 X57.077 Y59.219 E8.50139
G1 X57.240 Y59.684 E8.55922
G1 X57.330 Y60.137 E8.61331
G1 X57.360 Y60.597 E8.66741
G1 X57.332 Y61.025 E8.71774
G1 X57.240 Y61.510 E8.77557
G1 X57.092 Y61.946 E8.82966
G1 X56.888 Y62.360 E8.88375
G1 X56.649 Y62.717 E8.93410
G1 X56.327 Y63.090 E8.99192
G1 X55.981 Y63.394 E9.04602
G1 X55.597 Y63.650 E9.10011
G1 X55.183 Y63.854 E9.15421
G1 X54.747 Y64.003 E9.20830
G1 X54.294 Y64.093 E9.26240
G1 X53.834 Y64.123 E9.31649
G1 X53.374 Y64.093 E9.37059
G1 X52.953 Y64.009 E9.42092
G1 X52.485 Y63.854 E9.47875
G1 X52.071 Y63.650 E9.53284
G1 X51.715 Y63.412 E9.58318
G1 X51.341 Y63.090 E9.64101
G1 X51.037 Y62.743 E9.69511
G1 X50.781 Y62.360 E9.74920
G1 X50.577 Y61.946 E9.80330
G1 X50.429 Y61.510 E9.85739
G1 X50.339 Y61.057 E9.91148
G1 X50.308 Y60.597 E9.96558
G1 X50.339 Y60.137 E10.01968
G1 X50.429 Y59.684 E10.07378
G1 X50.577 Y59.248 E10.12787
G1 X50.781 Y58.834 E10.18196
G1 X51.019 Y58.477 E10.23230
G1 X51.341 Y58.104 E10.29012
G1 X51.688 Y57.800 E10.34422
G1 X52.071 Y57.544 E10.39831
G1 X52.485 Y57.340 E10.45241
G1 X52.922 Y57.191 E10.50651
G1 X53.374 Y57.101 E10.56060
G1 X53.802 Y57.073 E10.61093
G1 X54.220 Y57.097 E10.65997 F1800.000
G1 X53.818 Y56.656 F7800.000
G1 F1800.000 E5.65997
G92 E0
G1 X53.797 Y66.897 F7800.000
G1 E5.00000 F1800.000
G1 X54.045 Y66.910 E5.02903 F1800.000
G1 X54.426 Y66.999 E5.07497 F1800.000
G1 X54.736 Y67.151 E5.11542
G1 X55.008 Y67.362 E5.15587
G1 X55.233 Y67.623 E5.19632
G1 X55.400 Y67.925 E5.23676
G1 X55.504 Y68.254 E5.27721
G1 X55.538 Y68.597 E5.31766
G1 X55.504 Y68.940 E5.35811
G1 X55.400 Y69.269 E5.39856
G1 X55.233 Y69.571 E5.43901
G1 X55.008 Y69.832 E5.47946
G1 X54.736 Y70.043 E5.51990
G1 X54.426 Y70.195 E5.56035
G1 X54.092 Y70.282 E5.60080
G1 X53.748 Y70.299 E5.64125
G1 X53.407 Y70.247 E5.68170
G1 X53.084 Y70.127 E5.72215
G1 X52.791 Y69.945 E5.76260
G1 X52.541 Y69.707 E5.80304
G1 X52.344 Y69.424 E5.84349
G1 X52.208 Y69.107 E5.88394
G1 X52.139 Y68.769 E5.92439
G1 X52.139 Y68.425 E5.96484
G1 X52.208 Y68.087 E6.00529
G1 X52.344 Y67.770 E6.04574
G1 X52.541 Y67.487 E6.08618
G1 X52.791 Y67.249 E6.12664
G1 X53.084 Y67.067 E6.16708
G1 X53.407 Y66.947 E6.20753
G1 X53.723 Y66.899 E6.24501
G1 X54.284 Y66.600 F7800.000
G1 F1800.000 E1.24501
G92 E0
G1 X50.947 Y69.498 F7800.000
G1 E5.00000 F1800.000
G1 X49.956 Y69.088 E5.12574 F1800.000
G1 X49.360 Y68.790 E5.20390
G1 X48.787 Y68.450 E5.28207
G1 X48.240 Y68.070 E5.36022
G1 X47.721 Y67.652 E5.43839
G1 X47.234 Y67.198 E5.51655
G1 X46.779 Y66.710 E5.59471
G1 X46.361 Y66.191 E5.67287
G1 X45.981 Y65.644 E5.75103
G1 X45.641 Y65.071 E5.82919
G1 X45.343 Y64.475 E5.90735
G1 X44.941 Y63.505 E6.03048
G1 X45.681 Y63.618 E6.11825
G1 X46.292 Y63.587 E6.19005
G1 X46.885 Y63.434 E6.26187
G1 X47.434 Y63.164 E6.33364
G1 X47.918 Y62.790 E6.40544
G1 X48.317 Y62.325 E6.47725
G1 X48.614 Y61.790 E6.54903
G1 X48.692 Y61.542 E6.57949
G1 X49.100 Y61.564 E6.62737
G1 X49.156 Y61.850 E6.66158
G1 X49.360 Y62.450 E6.73586
G1 X49.640 Y63.019 E6.81019
G1 X49.992 Y63.545 E6.88447
G1 X50.410 Y64.021 E6.95879
G1 X50.886 Y64.439 E7.03306
G1 X51.413 Y64.791 E7.10740
G1 X51.981 Y65.071 E7.18169
G1 X52.581 Y65.275 E7.25597
G1 X52.878 Y65.334 E7.29148
G1 X52.909 Y65.730 E7.33812
G1 X52.502 Y65.881 E7.38905
G1 X51.983 Y66.205 E7.46082
G1 X51.539 Y66.627 E7.53265
G1 X51.189 Y67.129 E7.60442
G1 X50.948 Y67.691 E7.67624
G1 X50.824 Y68.291 E7.74803
G1 X50.824 Y68.903 E7.81982
G1 X50.932 Y69.425 E7.88233
G1 X48.692 Y59.652 F7800.000
G1 X48.614 Y59.404 E7.91276 F1800.000
G1 X48.317 Y58.869 E7.98457
G1 X47.918 Y58.404 E8.05637
G1 X47.435 Y58.030 E8.12815
G1 X46.885 Y57.760 E8.19997
G1 X46.292 Y57.607 E8.27176
G1 X45.681 Y57.576 E8.34358
G1 X44.941 Y57.689 E8.43134
G1 X45.343 Y56.719 E8.55446
G1 X45.641 Y56.123 E8.63262
G1 X45.981 Y55.550 E8.71078
G1 X46.361 Y55.003 E8.78894
G1 X46.779 Y54.484 E8.86710
G1 X47.233 Y53.996 E8.94526
G1 X47.721 Y53.542 E9.02343
G1 X48.240 Y53.124 E9.10158
G1 X48.787 Y52.744 E9.17974
G1 X49.360 Y52.404 E9.25791
G1 X49.956 Y52.106 E9.33607
G1 X50.947 Y51.696 E9.46182
G1 X50.824 Y52.291 E9.53312
G1 X50.824 Y52.903 E9.60491
G1 X50.948 Y53.503 E9.67673
G1 X51.189 Y54.065 E9.74851
G1 X51.539 Y54.568 E9.82033
G1 X51.982 Y54.989 E9.89210
G1 X52.502 Y55.313 E9.96391
G1 X52.909 Y55.464 E10.01483
G1 X52.878 Y55.860 E10.06147
G1 X52.581 Y55.919 E10.09697
G1 X51.981 Y56.123 E10.17125
G1 X51.413 Y56.403 E10.24558
G1 X50.886 Y56.755 E10.31986
G1 X50.410 Y57.173 E10.39418
G1 X49.992 Y57.649 E10.46846
G1 X49.640 Y58.176 E10.54279
G1 X49.360 Y58.744 E10.61707
G1 X49.157 Y59.344 E10.69136
G1 X49.100 Y59.630 E10.72559
G1 X48.767 Y59.648 E10.76467
G1 X54.768 Y55.491 F7800.000
G1 X55.434 Y55.164 E10.85178 F1800.000
G1 X55.918 Y54.790 E10.92359
G1 X56.317 Y54.325 E10.99538
G1 X56.614 Y53.790 E11.06717
G1 X56.798 Y53.206 E11.13898
G1 X56.859 Y52.597 E11.21076
G1 X56.770 Y51.716 E11.31471
G1 X57.712 Y52.106 E11.43433
G1 X58.308 Y52.404 E11.51249
G1 X58.881 Y52.744 E11.59065
G1 X59.428 Y53.124 E11.66881
G1 X59.947 Y53.542 E11.74698
G1 X60.435 Y53.996 E11.82513
G1 X60.889 Y54.484 E11.90330
G1 X61.307 Y55.003 E11.98146
G1 X61.687 Y55.550 E12.05962
G1 X62.027 Y56.123 E12.13778
G1 X62.325 Y56.719 E12.21594
G1 X62.702 Y57.627 E12.33125
G1 X61.681 Y57.576 E12.45113
G1 X61.076 Y57.668 E12.52293
G1 X60.502 Y57.881 E12.59473
G1 X59.982 Y58.205 E12.66650
G1 X59.539 Y58.626 E12.73831
G1 X59.189 Y59.129 E12.81012
G1 X58.955 Y59.675 E12.87977
G1 X58.570 Y59.634 E12.92520
G1 X58.512 Y59.344 E12.95995
G1 X58.308 Y58.744 E13.03423
G1 X58.028 Y58.176 E13.10857
G1 X57.676 Y57.649 E13.18285
G1 X57.258 Y57.173 E13.25717
G1 X56.782 Y56.755 E13.33145
G1 X56.255 Y56.403 E13.40578
G1 X55.688 Y56.123 E13.48006
G1 X55.088 Y55.919 E13.55434
G1 X54.816 Y55.865 E13.58679
G1 X54.777 Y55.566 E13.62221
G1 X58.955 Y61.519 F7800.000
G1 X59.189 Y62.065 E13.69188 F1800.000
G1 X59.539 Y62.568 E13.76368
G1 X59.982 Y62.989 E13.83546
G1 X60.502 Y63.313 E13.90727
G1 X61.076 Y63.526 E13.97906
G1 X61.681 Y63.618 E14.05087
G1 X62.702 Y63.567 E14.17074
G1 X62.325 Y64.475 E14.28604
G1 X62.027 Y65.071 E14.36421
G1 X61.687 Y65.644 E14.44237
G1 X61.307 Y66.191 E14.52053
G1 X60.889 Y66.710 E14.59869
G1 X60.435 Y67.198 E14.67685
G1 X59.947 Y67.652 E14.75501
G1 X59.428 Y68.070 E14.83317
G1 X58.881 Y68.450 E14.91133
G1 X58.308 Y68.790 E14.98950
G1 X57.712 Y69.088 E15.06765
G1 X56.770 Y69.479 E15.18728
G1 X56.859 Y68.597 E15.29119
G1 X56.797 Y67.988 E15.36300
G1 X56.614 Y67.404 E15.43480
G1 X56.317 Y66.869 E15.50660
G1 X55.918 Y66.404 E15.57840
G1 X55.435 Y66.030 E15.65018
G1 X54.768 Y65.703 E15.73731
G1 X54.816 Y65.329 E15.78154
G1 X55.088 Y65.275 E15.81397
G1 X55.687 Y65.071 E15.88825
G1 X56.256 Y64.791 E15.96259
G1 X56.782 Y64.439 E16.03686
G1 X57.259 Y64.021 E16.11119
G1 X57.676 Y63.545 E16.18545
G1 X58.028 Y63.018 E16.25980
G1 X58.308 Y62.450 E16.33407
G1 X58.512 Y61.851 E16.40837
G1 X58.570 Y61.560 E16.44314
G1 X58.880 Y61.527 E16.47977
G1 X63.619 Y62.639 F7800.000
G1 X63.422 Y63.412 E16.57333 F1800.000
G1 X63.196 Y64.089 E16.65700
G1 X62.923 Y64.748 E16.74067
G1 X62.604 Y65.386 E16.82433
G1 X62.240 Y65.999 E16.90800
G1 X61.833 Y66.585 E16.99167
G1 X61.386 Y67.141 E17.07534
G1 X60.900 Y67.663 E17.15900
G1 X60.378 Y68.149 E17.24267
G1 X59.822 Y68.596 E17.32633
G1 X59.236 Y69.003 E17.41000
G1 X58.623 Y69.367 E17.49367
G1 X57.985 Y69.686 E17.57733
G1 X57.326 Y69.959 E17.66100
G1 X56.649 Y70.185 E17.74466
G1 X55.478 Y70.484 E17.88649
G1 X56.007 Y69.530 E18.01446
G1 X56.151 Y69.073 E18.07059
G1 X56.199 Y68.597 E18.12671
G1 X56.151 Y68.121 E18.18284
G1 X56.007 Y67.664 E18.23896
G1 X55.952 Y67.564 E18.25239
G1 X55.775 Y67.246 E18.29508
