; generated by Slic3r 1.1.7 on 2014-10-11 at 16:32:26

; perimeters extrusion width = 0.50mm
; infill extrusion width = 1.02mm
; solid infill extrusion width = 0.85mm
; top infill extrusion width = 0.85mm

G21 ; set units to millimeters
M107
M190 S35 ; wait for bed temperature to be reached
M104 S210 ; set temperature
G28 ; home all axes
G1 Z5 F300; lift nozzle


M109 S210 ; wait for temperature to be reached
G90 ; use absolute coordinates
G92 E0
M82 ; use absolute distances for extrusion
G1 F1800.000 E-5.00000
G92 E0
G1 Z0.350 F7800.000
G1 X74.781 Y81.662 F7800.000
G1 E5.00000 F1800.000
G1 X76.535 Y80.175 E5.25652 F3079.416
G1 X78.690 Y79.374 E5.51303
G1 X79.898 Y79.263 E5.64834
G1 X120.102 Y79.263 E10.13414
G1 X122.367 Y79.660 E10.39066
G1 X124.361 Y80.804 E10.64717 F3079.416
G1 X125.848 Y82.558 E10.90369
G1 X126.649 Y84.713 E11.16021
G1 X126.759 Y85.920 E11.29551
G1 X126.759 Y96.146 E12.43637
G1 X126.362 Y98.410 E12.69289
G1 X125.390 Y100.189 E12.91910
G1 X111.642 Y118.072 E15.43591
G1 X111.395 Y118.319 E15.47484
G1 X110.506 Y119.065 E15.60432
G1 X110.201 Y119.278 E15.64579
G1 X109.215 Y119.845 E15.77271
G1 X108.848 Y120.016 E15.81795
G1 X107.809 Y120.389 E15.94115
G1 X107.385 Y120.502 E15.99002
G1 X106.329 Y120.681 E16.10958
G1 X105.933 Y120.715 E16.15386
G1 X105.402 Y120.737 E16.21317
G1 X96.247 Y120.711 E17.23464
G1 X94.863 Y120.504 E17.39084
G1 X93.400 Y120.020 E17.56279
G1 X92.045 Y119.284 E17.73481
G1 X91.732 Y119.065 E17.77741
G1 X90.843 Y118.319 E17.90688
G1 X90.189 Y117.626 E18.01327
G1 X74.912 Y99.249 E20.67957
G1 X74.699 Y98.945 E20.72103
G1 X74.132 Y97.959 E20.84794
G1 X73.961 Y97.591 E20.89322
G1 X73.588 Y96.552 E21.01635
G1 X73.475 Y96.129 E21.06522
G1 X73.296 Y95.072 E21.18482
G1 X73.241 Y94.146 E21.28837
G1 X73.241 Y85.920 E22.20608
G1 X73.638 Y83.656 E22.46260
G1 X74.744 Y81.727 E22.71075
G1 F1800.000 E17.71075
G92 E0
G1 X103.507 Y111.526 F7800.000
G1 E5.00000 F1800.000
G1 X103.037 Y111.878 E5.06543 F1539.708
G1 X102.596 Y112.118 E5.12145
G1 X101.973 Y112.364 E5.19621
G1 X101.400 Y112.488 E5.26160
G1 X100.815 Y112.530 E5.32703
G1 X100.230 Y112.488 E5.39246
G1 X99.658 Y112.364 E5.45788
G1 X99.108 Y112.159 E5.52328
G1 X98.594 Y111.878 E5.58872
G1 X98.124 Y111.526 E5.65414
G1 X97.710 Y111.112 E5.71957
G1 X97.358 Y110.642 E5.78500
G1 X97.117 Y110.202 E5.84102
G1 X96.872 Y109.578 E5.91577
G1 X96.748 Y109.005 E5.98117
G1 X96.706 Y108.421 E6.04658
G1 X96.748 Y107.836 E6.11203
G1 X96.854 Y107.345 E6.16805
G1 X97.077 Y106.713 E6.24276
G1 X97.358 Y106.199 E6.30820
G1 X97.709 Y105.729 E6.37362
G1 X98.124 Y105.315 E6.43905
G1 X98.526 Y105.014 E6.49508
G1 X99.108 Y104.682 E6.56982
G1 X99.658 Y104.477 E6.63525
G1 X100.231 Y104.353 E6.70066
G1 X100.815 Y104.311 E6.76607
G1 X101.316 Y104.347 E6.82211
G1 X101.973 Y104.477 E6.89685 F1539.708
G1 X102.522 Y104.682 E6.96224
G1 X103.037 Y104.963 E7.02769
G1 X103.507 Y105.315 E7.09310
G1 X103.921 Y105.729 E7.15854
G1 X104.273 Y106.199 E7.22396
G1 X104.554 Y106.713 E7.28938
G1 X104.759 Y107.263 E7.35483
G1 X104.883 Y107.836 E7.42022
G1 X104.925 Y108.420 E7.48564
G1 X104.883 Y109.005 E7.55109
G1 X104.759 Y109.578 E7.61650
G1 X104.554 Y110.128 E7.68190
G1 X104.273 Y110.642 E7.74734
G1 X103.921 Y111.112 E7.81276
G1 X103.560 Y111.473 E7.86982
G1 X103.075 Y111.028 F7800.000
G1 X102.681 Y111.324 E7.92476 F1539.708
G1 X102.282 Y111.542 E7.97554
G1 X101.788 Y111.732 E8.03459
G1 X101.307 Y111.836 E8.08952
G1 X100.815 Y111.871 E8.14446
G1 X100.324 Y111.836 E8.19940
G1 X99.843 Y111.732 E8.25433
G1 X99.382 Y111.560 E8.30926
G1 X98.950 Y111.324 E8.36420
G1 X98.556 Y111.028 E8.41913
G1 X98.207 Y110.680 E8.47407
G1 X97.935 Y110.316 E8.52486
G1 X97.676 Y109.854 E8.58390
G1 X97.504 Y109.393 E8.63885
G1 X97.400 Y108.912 E8.69377
G1 X97.364 Y108.421 E8.74871
G1 X97.397 Y107.966 E8.79950
G1 X97.504 Y107.448 E8.85855
G1 X97.676 Y106.987 E8.91347
G1 X97.912 Y106.555 E8.96841
G1 X98.207 Y106.161 E9.02335
G1 X98.556 Y105.812 E9.07829
G1 X98.950 Y105.517 E9.13323
G1 X99.382 Y105.281 E9.18816
G1 X99.843 Y105.109 E9.24310
G1 X100.324 Y105.005 E9.29803
G1 X100.778 Y104.972 E9.34881
G1 X101.307 Y105.005 E9.40787 F1539.708
G1 X101.788 Y105.109 E9.46280
G1 X102.249 Y105.281 E9.51773
G1 X102.681 Y105.517 E9.57267
G1 X103.075 Y105.812 E9.62760
G1 X103.423 Y106.161 E9.68254
G1 X103.718 Y106.555 E9.73748
G1 X103.954 Y106.987 E9.79241
G1 X104.127 Y107.448 E9.84736
G1 X104.231 Y107.929 E9.90228
G1 X104.266 Y108.420 E9.95722
G1 X104.231 Y108.912 E10.01216
G1 X104.126 Y109.393 E10.06709
G1 X103.954 Y109.854 E10.12202
G1 X103.718 Y110.286 E10.17697
G1 X103.423 Y110.680 E10.23190
G1 X103.128 Y110.975 E10.27847
G1 F1800.000 E5.27847
G92 E0
G1 X100.726 Y104.475 F7800.000
G1 X98.084 Y112.415 F7800.000
G1 E5.00000 F1800.000
G1 X96.908 Y112.415 E5.13123 F1539.708
G1 X96.723 Y112.389 E5.15200
G1 X96.584 Y112.291 E5.17106
G1 X96.526 Y112.192 E5.18383
G1 X96.500 Y112.008 E5.20461
G1 X96.500 Y111.193 E5.29553
G1 X96.860 Y111.073 E5.33783
G1 X97.212 Y111.543 E5.40333
G1 X98.031 Y112.362 E5.53260
G1 X103.547 Y112.415 F7800.000
G1 X104.419 Y111.543 E5.67025 F1539.708
G1 X104.827 Y110.998 E5.74615
G1 X105.153 Y110.401 E5.82209
G1 X105.306 Y109.992 E5.87086
G1 X105.738 Y110.070 E5.91988
G1 X105.738 Y112.008 E6.13614
G1 X105.727 Y112.137 E6.15057
G1 X105.688 Y112.244 E6.16334
G1 X105.567 Y112.365 E6.18240
G1 X105.459 Y112.404 E6.19517
G1 X105.330 Y112.415 E6.20960
G1 X103.622 Y112.415 E6.40024
G1 X105.738 Y94.481 F7800.000
G1 X105.738 Y106.771 E7.77150 F1539.708
G1 X105.306 Y106.849 E7.82052
G1 X105.153 Y106.440 E7.86931
G1 X104.827 Y105.843 E7.94522
G1 X104.419 Y105.298 E8.02114
G1 X103.938 Y104.817 E8.09706
G1 X103.393 Y104.409 E8.17296
G1 X102.796 Y104.083 E8.24890
G1 X102.159 Y103.845 E8.32477
G1 X101.494 Y103.701 E8.40068
G1 X100.815 Y103.652 E8.47661
G1 X100.137 Y103.701 E8.55251
G1 X99.472 Y103.845 E8.62839
G1 X98.835 Y104.083 E8.70432
G1 X98.237 Y104.409 E8.78022
G1 X97.693 Y104.817 E8.85615
G1 X97.212 Y105.298 E8.93207
G1 X96.860 Y105.768 E8.99756
G1 X96.500 Y105.648 E9.03985
G1 X96.500 Y98.080 E9.88425
G1 X96.452 Y97.522 E9.94680
G1 X96.288 Y96.899 E10.01865
G1 X96.017 Y96.314 E10.09054
G1 X95.928 Y96.187 E10.10788
G1 X95.648 Y95.786 E10.16241
G1 X95.195 Y95.334 E10.23382
G1 X94.667 Y94.965 E10.30569
G1 X94.083 Y94.694 E10.37757
G1 X93.460 Y94.530 E10.44942
G1 X92.902 Y94.481 E10.51197
G1 X81.970 Y94.481 E11.73171
G1 X81.785 Y94.455 E11.75248
G1 X81.686 Y94.398 E11.76525
G1 X81.588 Y94.258 E11.78431
G1 X81.562 Y94.074 E11.80509
G1 X81.562 Y87.585 E12.52911
G1 X118.438 Y87.585 E16.64355
G1 X118.438 Y94.481 E17.41305
G1 X105.813 Y94.481 E18.82168
G1 X106.395 Y95.138 F7800.000
G1 X106.395 Y112.036 E20.70708 F1539.708
G1 X106.376 Y112.251 E20.73113
G1 X106.332 Y112.418 E20.75037
G1 X106.259 Y112.574 E20.76960
G1 X106.160 Y112.715 E20.78884
G1 X106.038 Y112.837 E20.80810
G1 X105.897 Y112.936 E20.82734
G1 X105.740 Y113.009 E20.84658
G1 X105.574 Y113.054 E20.86581
G1 X105.359 Y113.072 E20.88987
G1 X96.879 Y113.072 E21.83602
G1 X96.664 Y113.054 E21.86007
G1 X96.498 Y113.009 E21.87931
G1 X96.342 Y112.936 E21.89854
G1 X96.200 Y112.837 E21.91778
G1 X96.078 Y112.715 E21.93705
G1 X95.979 Y112.574 E21.95628
G1 X95.907 Y112.418 E21.97552
G1 X95.862 Y112.251 E21.99476
G1 X95.843 Y112.036 E22.01881
G1 X95.843 Y98.106 E23.57310
G1 X95.802 Y97.631 E23.62627
G1 X95.667 Y97.121 E23.68512
G1 X95.445 Y96.643 E23.74400
G1 X95.143 Y96.210 E23.80286
G1 X94.771 Y95.839 E23.86145
G1 X94.419 Y95.593 E23.90938
G1 X94.339 Y95.537 E23.92031
G1 X93.860 Y95.315 E23.97918
G1 X93.350 Y95.180 E24.03803
G1 X92.876 Y95.138 E24.09120
G1 X81.941 Y95.138 E25.31125
G1 X81.726 Y95.120 E25.33530
G1 X81.560 Y95.075 E25.35453
G1 X81.403 Y95.002 E25.37377
G1 X81.262 Y94.903 E25.39301
G1 X81.140 Y94.781 E25.41227
G1 X81.041 Y94.640 E25.43151
G1 X80.968 Y94.484 E25.45074
G1 X80.924 Y94.317 E25.46998
G1 X80.905 Y94.102 E25.49403
G1 X80.905 Y86.928 E26.29457
G1 X119.095 Y86.928 E30.55564
G1 X119.095 Y95.138 E31.47177
G1 X106.470 Y95.138 E32.88040
G1 X107.052 Y95.796 F7800.000
G1 X107.052 Y112.065 E34.69568 F1539.708
G1 X107.026 Y112.366 E34.72935
G1 X106.952 Y112.643 E34.76141
G1 X106.830 Y112.904 E34.79348
G1 X106.665 Y113.139 E34.82554
G1 X106.462 Y113.343 E34.85764
G1 X106.226 Y113.507 E34.88970
G1 X105.966 Y113.629 E34.92176
G1 X105.688 Y113.703 E34.95383
G1 X105.388 Y113.730 E34.98750
G1 X96.850 Y113.730 E35.94005
G1 X96.550 Y113.703 E35.97372
G1 X96.272 Y113.629 E36.00578
G1 X96.012 Y113.507 E36.03785
G1 X95.776 Y113.343 E36.06991
G1 X95.573 Y113.139 E36.10201
G1 X95.408 Y112.904 E36.13407
G1 X95.287 Y112.643 E36.16614
G1 X95.212 Y112.366 E36.19820
G1 X95.186 Y112.065 E36.23187
G1 X95.186 Y98.132 E37.78648
G1 X95.152 Y97.741 E37.83027
G1 X95.046 Y97.344 E37.87612
G1 X94.873 Y96.971 E37.92198
G1 X94.637 Y96.634 E37.96784
G1 X94.347 Y96.344 E38.01360
G1 X94.044 Y96.132 E38.05494
G1 X93.638 Y95.935 E38.10525
G1 X93.241 Y95.830 E38.15110
G1 X92.850 Y95.796 E38.19489
G1 X81.912 Y95.796 E39.41525
G1 X81.612 Y95.769 E39.44892
G1 X81.334 Y95.695 E39.48098
G1 X81.074 Y95.573 E39.51305
G1 X80.838 Y95.409 E39.54511
G1 X80.635 Y95.205 E39.57721
G1 X80.470 Y94.970 E39.60927
G1 X80.348 Y94.709 E39.64134
G1 X80.274 Y94.432 E39.67340
G1 X80.248 Y94.131 E39.70707
G1 X80.248 Y86.270 E40.58412
G1 X119.752 Y86.270 E44.99182
G1 X119.752 Y95.796 E46.05457
G1 X107.127 Y95.796 E47.46320
G1 X106.552 Y95.796 F7800.000
G1 X102.792 Y103.594 F7800.000
G1 X96.928 Y97.730 E48.38854 F3079.416
G1 X96.957 Y98.689 E48.49557
G1 X101.512 Y103.244 E49.21437
G1 X100.551 Y103.213 E49.32168
G1 X96.957 Y99.619 E49.88879
G1 X96.957 Y100.550 E49.99260
G1 X99.729 Y103.322 E50.43008
G1 X99.008 Y103.531 E50.51387
G1 X96.957 Y101.480 E50.83753
G1 X96.957 Y102.411 E50.94134
G1 X98.365 Y103.819 E51.16362
G1 X97.790 Y104.174 E51.23906
G1 X96.957 Y103.341 E51.37053
G1 X96.957 Y104.271 E51.47433
G1 X97.275 Y104.589 E51.52453
G1 X105.282 Y105.153 F7800.000
G1 X96.586 Y96.458 E52.89660 F3079.416
G1 X82.018 Y93.985 F7800.000
G1 X82.058 Y94.025 E52.90291 F3079.416
G1 X82.989 Y94.025 E53.00672
G1 X82.018 Y93.055 E53.15984
G1 X82.018 Y92.124 E53.26365
G1 X83.919 Y94.025 E53.56357
G1 X84.849 Y94.025 E53.66738
G1 X82.018 Y91.194 E54.11411
G1 X82.018 Y90.263 E54.21792
G1 X85.780 Y94.025 E54.81145
G1 X86.710 Y94.025 E54.91526
G1 X82.018 Y89.333 E55.65560
G1 X82.018 Y88.403 E55.75941
G1 X87.641 Y94.025 E56.64656
G1 X88.571 Y94.025 E56.75037
G1 X82.587 Y88.041 E57.69459
G1 X83.517 Y88.041 E57.79840
G1 X89.501 Y94.025 E58.74262
G1 X90.432 Y94.025 E58.84642
G1 X84.448 Y88.041 E59.79064
G1 X85.378 Y88.041 E59.89445
G1 X91.362 Y94.025 E60.83867
G1 X92.293 Y94.025 E60.94248
G1 X86.309 Y88.041 E61.88670
G1 X87.239 Y88.041 E61.99051
G1 X93.251 Y94.053 E62.93922
G1 X94.524 Y94.395 E63.08621
G1 X88.169 Y88.041 E64.08886
G1 X89.100 Y88.041 E64.19267
G1 X105.282 Y104.223 E66.74604
G1 X105.282 Y103.293 E66.84984
G1 X90.030 Y88.041 E69.25640
G1 X90.960 Y88.041 E69.36021
G1 X105.282 Y102.362 E71.61996
G1 X105.282 Y101.432 E71.72377
G1 X91.891 Y88.041 E73.83672
G1 X92.821 Y88.041 E73.94052
G1 X105.282 Y100.501 E75.90666
G1 X105.282 Y99.571 E76.01047
G1 X93.752 Y88.041 E77.82981
G1 X94.682 Y88.041 E77.93361
G1 X105.282 Y98.641 E79.60614
G1 X105.282 Y97.710 E79.70995
G1 X95.612 Y88.041 E81.23567
G1 X96.543 Y88.041 E81.33948
G1 X105.282 Y96.780 E82.71839
G1 X105.282 Y95.849 E82.82220
G1 X97.473 Y88.041 E84.05431
G1 X98.404 Y88.041 E84.15812
G1 X105.282 Y94.919 E85.24342
G1 X105.318 Y94.025 E85.34326
G1 X99.334 Y88.041 E86.28748
G1 X100.264 Y88.041 E86.39129
G1 X106.248 Y94.025 E87.33551
G1 X107.179 Y94.025 E87.43932
G1 X101.195 Y88.041 E88.38354
G1 X102.125 Y88.041 E88.48735
G1 X108.109 Y94.025 E89.43157
G1 X109.040 Y94.025 E89.53537
G1 X103.056 Y88.041 E90.47959
G1 X103.986 Y88.041 E90.58340
G1 X109.970 Y94.025 E91.52762
G1 X110.900 Y94.025 E91.63143
G1 X104.916 Y88.041 E92.57565
G1 X105.847 Y88.041 E92.67946
G1 X111.831 Y94.025 E93.62368
G1 X112.761 Y94.025 E93.72749
G1 X106.777 Y88.041 E94.67171
G1 X107.707 Y88.041 E94.77551
G1 X113.691 Y94.025 E95.71973
G1 X114.622 Y94.025 E95.82354
G1 X108.638 Y88.041 E96.76776
G1 X109.568 Y88.041 E96.87157
G1 X115.552 Y94.025 E97.81579
G1 X116.483 Y94.025 E97.91960
G1 X110.499 Y88.041 E98.86382
G1 X111.429 Y88.041 E98.96763
G1 X117.413 Y94.025 E99.91185
G1 X117.982 Y93.663 E99.98704
G1 X112.359 Y88.041 E100.87419
G1 X113.290 Y88.041 E100.97800
G1 X117.982 Y92.733 E101.71834
G1 X117.982 Y91.803 E101.82215
G1 X114.220 Y88.041 E102.41569
G1 X115.151 Y88.041 E102.51950
G1 X117.982 Y90.872 E102.96623
G1 X117.982 Y89.942 E103.07003
G1 X116.081 Y88.041 E103.36996
G1 X117.011 Y88.041 E103.47377
G1 X117.982 Y89.011 E103.62688
G1 X117.982 Y88.081 E103.73069
G1 X117.942 Y88.041 E103.73700
G1 F1800.000 E98.73700
G92 E0
G1 X105.573 Y107.135 F7800.000
G1 E5.00000 F1800.000
G1 X105.637 Y107.758 E5.10368 F1026.472
G1 X105.660 Y108.449 E5.21818
G1 X105.637 Y109.083 E5.32316
G1 X105.573 Y109.706 E5.42680
G1 X105.290 Y111.128 F7800.000
G1 X105.080 Y111.758 E5.46986 F1026.472
G1 X104.423 Y112.087 E5.51759
G1 F1800.000 E0.51759
G92 E0
G1 X96.595 Y110.815 F7800.000
G1 E5.00000 F1800.000
G1 X96.484 Y110.374 E5.02952 F1026.472
G1 X96.370 Y109.740 E5.07130
G1 X96.328 Y109.357 E5.09631
G1 X96.328 Y107.484 F7800.000
G1 X96.370 Y107.100 E5.12134 F1026.472
G1 X96.484 Y106.467 E5.16308
G1 X96.595 Y106.026 E5.19261
M106 S255
M140 S30 ; set bed temperature
G1 F1800.000 E0.19261
G92 E0
G1 Z0.550 F7800.000
G1 X102.416 Y104.917 F7800.000
G1 E5.00000 F1800.000
G1 X102.898 Y105.180 E5.02667 F1404.070
G1 X103.338 Y105.509 E5.05333
G1 X103.726 Y105.898 E5.07999
G1 X104.056 Y106.338 E5.10666
G1 X104.319 Y106.820 E5.13332
G1 X104.511 Y107.335 E5.15998
G1 X104.628 Y107.872 E5.18664
G1 X104.661 Y108.336 E5.20919
G1 X104.628 Y108.969 E5.23993
G1 X104.511 Y109.506 E5.26660
G1 X104.319 Y110.021 E5.29326
G1 X104.056 Y110.503 E5.31993
G1 X103.726 Y110.943 E5.34659
G1 X103.338 Y111.332 E5.37325
G1 X102.966 Y111.610 E5.39579
G1 X102.416 Y111.924 E5.42654
G1 X101.901 Y112.116 E5.45321
G1 X101.364 Y112.233 E5.47987
G1 X100.815 Y112.272 E5.50653
G1 X100.267 Y112.233 E5.53320
G1 X99.730 Y112.116 E5.55986
G1 X99.215 Y111.924 E5.58652
G1 X98.733 Y111.661 E5.61319
G1 X98.293 Y111.332 E5.63985
G1 X97.904 Y110.943 E5.66652
G1 X97.575 Y110.503 E5.69318
G1 X97.312 Y110.021 E5.71984
G1 X97.119 Y109.506 E5.74650
G1 X97.003 Y108.969 E5.77317
G1 X96.970 Y108.505 E5.79571
G1 X97.003 Y107.872 E5.82645
G1 X97.120 Y107.335 E5.85312
G1 X97.312 Y106.820 E5.87978
G1 X97.575 Y106.338 E5.90645
G1 X97.904 Y105.898 E5.93311
G1 X98.293 Y105.509 E5.95977
G1 X98.733 Y105.180 E5.98644
G1 X99.215 Y104.917 E6.01310
G1 X99.730 Y104.725 E6.03976
G1 X100.267 Y104.608 E6.06643
G1 X100.815 Y104.569 E6.09309
G1 X101.279 Y104.602 E6.11563
G1 X101.901 Y104.725 E6.14638 F1404.070
G1 X102.345 Y104.890 E6.16940
G1 X102.207 Y105.373 F7800.000
G1 X102.627 Y105.602 E6.19260 F1404.070
G1 X103.010 Y105.888 E6.21579
G1 X103.348 Y106.226 E6.23899
G1 X103.634 Y106.609 E6.26218
G1 X103.863 Y107.029 E6.28537
G1 X104.030 Y107.476 E6.30857
G1 X104.132 Y107.944 E6.33176
G1 X104.163 Y108.371 E6.35257
G1 X104.132 Y108.897 E6.37812
G1 X104.030 Y109.364 E6.40132
G1 X103.863 Y109.812 E6.42451
G1 X103.634 Y110.232 E6.44770
G1 X103.348 Y110.615 E6.47090
G1 X103.010 Y110.953 E6.49409
G1 X102.627 Y111.239 E6.51729
G1 X102.207 Y111.468 E6.54048
G1 X101.759 Y111.635 E6.56367
G1 X101.292 Y111.737 E6.58686
G1 X100.815 Y111.771 E6.61006
G1 X100.339 Y111.737 E6.63325
G1 X99.871 Y111.635 E6.65645
G1 X99.423 Y111.468 E6.67964
G1 X99.047 Y111.263 E6.70044
G1 X98.621 Y110.953 E6.72600
G1 X98.283 Y110.615 E6.74920
G1 X97.997 Y110.232 E6.77239
G1 X97.768 Y109.812 E6.79558
G1 X97.618 Y109.411 E6.81639
G1 X97.499 Y108.897 E6.84195
G1 X97.465 Y108.420 E6.86514
G1 X97.499 Y107.944 E6.88834
G1 X97.600 Y107.476 E6.91153
G1 X97.768 Y107.029 E6.93472
G1 X97.973 Y106.652 E6.95553
G1 X98.283 Y106.226 E6.98109
G1 X98.621 Y105.888 E7.00428
G1 X98.964 Y105.631 E7.02509
G1 X99.423 Y105.373 E7.05065
G1 X99.871 Y105.206 E7.07384
G1 X100.339 Y105.104 E7.09703
G1 X100.766 Y105.073 E7.11784
