; generated by Slic3r 1.1.7 on 2014-10-25 at 18:11:51

; perimeters extrusion width = 0.50mm
; infill extrusion width = 1.02mm
; solid infill extrusion width = 0.85mm
; top infill extrusion width = 0.85mm

G21 ; set units to millimeters
M107
M190 S35 ; wait for bed temperature to be reached
M104 S210 ; set temperature
G28 ; home all axes
G1 Z5 F200; lift nozzle


M109 S210 ; wait for temperature to be reached
G90 ; use absolute coordinates
G92 E0
M82 ; use absolute distances for extrusion
G1 F1800.000 E-5.00000
G92 E0
G1 Z0.350 F7800.000
G1 X67.495 Y110.515 F7800.000
G1 E5.00000 F1800.000
G1 X68.458 Y109.977 E5.11171 F2700.000
G1 X68.812 Y109.799 E5.15193
G1 X69.429 Y109.501 E5.22135
G1 X70.428 Y109.077 E5.33130
G1 X71.451 Y108.706 E5.44155
G1 X72.048 Y108.516 E5.50500
G1 X73.128 Y108.224 E5.61835
G1 X74.189 Y107.997 E5.72835
G1 X75.262 Y107.828 E5.83840
G1 X75.786 Y107.767 E5.89183
G1 X76.949 Y107.679 E6.00997
G1 X78.437 Y107.665 E6.16072
G1 X79.166 Y107.694 E6.23468 F2700.000
G1 X80.250 Y107.790 E6.34492
G1 X81.325 Y107.944 E6.45496
G1 X81.912 Y108.052 E6.51547
G1 X83.021 Y108.306 E6.63070
G1 X84.063 Y108.605 E6.74061
G1 X85.088 Y108.960 E6.85042
G1 X85.573 Y109.150 E6.90326
G1 X86.090 Y109.368 E6.96009
G1 X87.067 Y109.828 E7.06957
G1 X87.661 Y110.136 E7.13728
G1 X88.596 Y110.677 E7.24676
G1 X89.498 Y111.265 E7.35588
G1 X90.365 Y111.898 E7.46459
G1 X90.852 Y112.285 E7.52763
G1 X91.716 Y113.036 E7.64360
G1 X92.487 Y113.782 E7.75235
G1 X93.215 Y114.566 E7.86070
G1 X93.897 Y115.381 E7.96839
G1 X94.297 Y115.902 E8.03499
G1 X94.952 Y116.839 E8.15082
G1 X95.512 Y117.739 E8.25813
G1 X96.020 Y118.660 E8.36474
G1 X96.299 Y119.219 E8.42805
G1 X96.882 Y120.554 E8.57571
G1 X97.166 Y121.312 E8.65765
G1 X97.489 Y122.313 E8.76422
G1 X97.754 Y123.310 E8.86880
G1 X97.966 Y124.308 E8.97219
G1 X98.099 Y125.097 E9.05317
G1 X98.229 Y126.194 E9.16519
G1 X98.297 Y127.226 E9.26995
G1 X98.315 Y127.946 E9.34292
G1 X98.294 Y128.831 E9.43264
G1 X98.244 Y129.485 E9.49910
G1 X98.123 Y130.478 E9.60036
G1 X97.955 Y131.459 E9.70131
G1 X97.739 Y132.430 E9.80204
G1 X97.477 Y133.388 E9.90265
G1 X97.170 Y134.331 E10.00319
G1 X96.973 Y134.862 E10.06057
G1 X96.599 Y135.769 E10.16001
G1 X96.333 Y136.340 E10.22373
G1 X95.874 Y137.233 E10.32546
G1 X95.373 Y138.102 E10.42719
G1 X94.829 Y138.946 E10.52892
G1 X94.244 Y139.763 E10.63067
G1 X93.480 Y140.711 E10.75404
G1 X92.958 Y141.304 E10.83412
G1 X92.260 Y142.026 E10.93586
G1 X91.527 Y142.713 E11.03759
G1 X90.762 Y143.362 E11.13931
G1 X89.965 Y143.974 E11.24107
G1 X89.140 Y144.545 E11.34279
G1 X88.287 Y145.076 E11.44452
G1 X87.410 Y145.564 E11.54625
G1 X86.314 Y146.094 E11.66963
G1 X85.588 Y146.407 E11.74972
G1 X84.648 Y146.761 E11.85146
G1 X83.692 Y147.069 E11.95318
G1 X82.723 Y147.329 E12.05492
G1 X81.741 Y147.541 E12.15666
G1 X80.750 Y147.705 E12.25839
G1 X79.753 Y147.820 E12.36012
G1 X78.751 Y147.885 E12.46187
G1 X77.534 Y147.897 E12.58522
G1 X76.743 Y147.869 E12.66532
G1 X75.743 Y147.788 E12.76705
G1 X74.747 Y147.657 E12.86878
G1 X73.759 Y147.477 E12.97052
G1 X72.781 Y147.249 E13.07226
G1 X71.816 Y146.974 E13.17398
G1 X70.865 Y146.651 E13.27572
G1 X69.931 Y146.282 E13.37746
G1 X68.826 Y145.772 E13.50083
G1 X68.123 Y145.410 E13.58089
G1 X67.254 Y144.908 E13.68264
G1 X66.410 Y144.364 E13.78438
G1 X65.593 Y143.779 E13.88612
G1 X64.807 Y143.155 E13.98786
G1 X64.052 Y142.493 E14.08958
G1 X63.330 Y141.795 E14.19134
G1 X62.644 Y141.062 E14.29304
G1 X61.994 Y140.297 E14.39477
G1 X61.382 Y139.500 E14.49654
G1 X60.696 Y138.494 E14.61990
G1 X60.280 Y137.822 E14.69997
G1 X59.793 Y136.945 E14.80170
G1 X59.335 Y136.013 E14.90685
G1 X58.919 Y135.047 E15.01340
G1 X58.574 Y134.108 E15.11478
G1 X58.274 Y133.154 E15.21616
G1 X57.974 Y131.971 E15.33974
G1 X57.817 Y131.205 E15.41901
G1 X57.660 Y130.216 E15.52051
G1 X57.552 Y129.218 E15.62216
G1 X57.516 Y128.567 E15.68823
G1 X57.506 Y127.953 E15.75047
G1 X57.540 Y126.884 E15.85879
G1 X57.624 Y125.872 E15.96167
G1 X57.760 Y124.855 E16.06565
G1 X57.889 Y124.122 E16.14107
G1 X58.131 Y123.050 E16.25246
G1 X58.432 Y121.986 E16.36451
G1 X58.591 Y121.504 E16.41585
G1 X58.766 Y121.002 E16.46975
G1 X59.154 Y120.028 E16.57602
G1 X59.596 Y119.066 E16.68323
G1 X59.919 Y118.434 E16.75519
G1 X60.481 Y117.451 E16.86987
G1 X61.057 Y116.558 E16.97761
G1 X61.679 Y115.696 E17.08530
G1 X62.029 Y115.251 E17.14261
G1 X62.349 Y114.863 E17.19364
G1 X63.067 Y114.062 E17.30253
G1 X63.561 Y113.554 E17.37439
G1 X64.354 Y112.810 E17.48452
G1 X65.177 Y112.116 E17.59359
G1 X66.038 Y111.466 E17.70290
G1 X66.518 Y111.133 E17.76211
G1 X67.431 Y110.554 E17.87165
G1 F1800.000 E12.87165
G92 E0
G1 X80.540 Y132.430 F7800.000
G1 E5.00000 F1800.000
G1 X79.955 Y132.697 E5.06520 F1350.000
G1 X79.343 Y132.896 E5.13040
G1 X78.712 Y133.024 E5.19560
G1 X78.071 Y133.079 E5.26081
G1 X77.428 Y133.061 E5.32597
G1 X76.791 Y132.969 E5.39120
G1 X76.169 Y132.805 E5.45637
G1 X75.569 Y132.572 E5.52158
G1 X75.000 Y132.272 E5.58677
G1 X74.469 Y131.909 E5.65197
G1 X73.983 Y131.487 E5.71716
G1 X73.548 Y131.013 E5.78236
G1 X73.169 Y130.492 E5.84757
G1 X72.853 Y129.932 E5.91276
G1 X72.603 Y129.340 E5.97794
G1 X72.421 Y128.722 E6.04313
G1 X72.312 Y128.088 E6.10835
G1 X72.275 Y127.446 E6.17353
G1 X72.312 Y126.803 E6.23875
G1 X72.421 Y126.169 E6.30391
G1 X72.603 Y125.552 E6.36914
G1 X72.853 Y124.959 E6.43434
G1 X73.169 Y124.399 E6.49952
G1 X73.548 Y123.878 E6.56470
G1 X73.983 Y123.404 E6.62990
G1 X74.469 Y122.983 E6.69511
G1 X75.000 Y122.620 E6.76031
G1 X75.569 Y122.319 E6.82550
G1 X76.169 Y122.086 E6.89069
G1 X76.791 Y121.922 E6.95589
G1 X77.428 Y121.831 E7.02107
G1 X78.072 Y121.812 E7.08630
G1 X78.603 Y121.858 E7.14036
G1 X79.343 Y121.995 E7.21661 F1350.000
G1 X79.955 Y122.194 E7.28181
G1 X80.540 Y122.461 E7.34702
G1 X80.998 Y122.737 E7.40111
G1 X81.601 Y123.187 E7.47736
G1 X82.062 Y123.635 E7.54253
G1 X82.470 Y124.133 E7.60772
G1 X82.818 Y124.674 E7.67292
G1 X83.102 Y125.252 E7.73813
G1 X83.318 Y125.858 E7.80332
G1 X83.464 Y126.485 E7.86851
G1 X83.537 Y127.124 E7.93371
G1 X83.537 Y127.767 E7.99890
G1 X83.476 Y128.298 E8.05300
G1 X83.318 Y129.033 E8.12923
G1 X83.102 Y129.639 E8.19444
G1 X82.818 Y130.217 E8.25963
G1 X82.529 Y130.666 E8.31373
G1 X82.062 Y131.256 E8.38997
G1 X81.601 Y131.705 E8.45516
G1 X81.092 Y132.098 E8.52033
G1 X80.605 Y132.391 E8.57794
G1 X80.233 Y131.848 F7800.000
G1 X79.716 Y132.084 E8.63552 F1350.000
G1 X79.176 Y132.260 E8.69310
G1 X78.619 Y132.372 E8.75069
G1 X78.052 Y132.421 E8.80828
G1 X77.485 Y132.405 E8.86584
G1 X76.922 Y132.324 E8.92345
G1 X76.372 Y132.180 E8.98101
G1 X75.843 Y131.973 E9.03860
G1 X75.340 Y131.708 E9.09618
G1 X74.871 Y131.387 E9.15376
G1 X74.441 Y131.015 E9.21134
G1 X74.057 Y130.596 E9.26893
G1 X73.723 Y130.137 E9.32652
G1 X73.444 Y129.642 E9.38410
G1 X73.222 Y129.118 E9.44167
G1 X73.062 Y128.573 E9.49925
G1 X72.965 Y128.013 E9.55685
G1 X72.933 Y127.446 E9.61442
G1 X72.965 Y126.878 E9.67201
G1 X73.062 Y126.318 E9.72958
G1 X73.222 Y125.773 E9.78718
G1 X73.444 Y125.249 E9.84476
G1 X73.723 Y124.755 E9.90233
G1 X74.057 Y124.295 E9.95991
G1 X74.441 Y123.876 E10.01749
G1 X74.871 Y123.504 E10.07508
G1 X75.340 Y123.183 E10.13267
G1 X75.843 Y122.918 E10.19025
G1 X76.372 Y122.712 E10.24783
G1 X76.922 Y122.567 E10.30541
G1 X77.484 Y122.486 E10.36298
G1 X77.981 Y122.472 E10.41329
G1 X78.619 Y122.519 E10.47810 F1350.000
G1 X79.176 Y122.632 E10.53570
G1 X79.716 Y122.807 E10.59328
G1 X80.168 Y123.014 E10.64357
G1 X80.720 Y123.337 E10.70841
G1 X81.170 Y123.684 E10.76600
G1 X81.578 Y124.080 E10.82356
G1 X81.937 Y124.520 E10.88114
G1 X82.245 Y124.998 E10.93873
G1 X82.495 Y125.508 E10.99631
G1 X82.686 Y126.043 E11.05389
G1 X82.815 Y126.597 E11.11148
G1 X82.880 Y127.161 E11.16906
G1 X82.880 Y127.730 E11.22664
G1 X82.815 Y128.294 E11.28423
G1 X82.686 Y128.848 E11.34180
G1 X82.495 Y129.383 E11.39939
G1 X82.245 Y129.893 E11.45697
G1 X81.976 Y130.311 E11.50726
G1 X81.578 Y130.811 E11.57210
G1 X81.170 Y131.207 E11.62968
G1 X80.720 Y131.554 E11.68724
G1 X80.298 Y131.809 E11.73723
G1 X79.926 Y131.266 F7800.000
G1 X79.478 Y131.471 E11.78720 F945.000
G1 X79.009 Y131.623 E11.83717
G1 X78.525 Y131.721 E11.88714
G1 X78.034 Y131.763 E11.93711
G1 X77.541 Y131.749 E11.98707
G1 X77.053 Y131.679 E12.03705
G1 X76.576 Y131.554 E12.08701
G1 X76.116 Y131.375 E12.13698
G1 X75.680 Y131.144 E12.18695
G1 X75.273 Y130.866 E12.23692
G1 X74.900 Y130.543 E12.28689
G1 X74.567 Y130.180 E12.33685
G1 X74.277 Y129.781 E12.38683
G1 X74.034 Y129.351 E12.43679
G1 X73.842 Y128.897 E12.48676
G1 X73.703 Y128.424 E12.53672
G1 X73.619 Y127.938 E12.58670
G1 X73.591 Y127.446 E12.63666
G1 X73.619 Y126.953 E12.68664
G1 X73.703 Y126.467 E12.73660
G1 X73.842 Y125.994 E12.78657
G1 X74.034 Y125.540 E12.83654
G1 X74.277 Y125.110 E12.88651
G1 X74.567 Y124.711 E12.93647
G1 X74.900 Y124.348 E12.98644
G1 X75.273 Y124.025 E13.03641
G1 X75.680 Y123.747 E13.08638
G1 X76.116 Y123.517 E13.13635
G1 X76.576 Y123.338 E13.18632
G1 X77.053 Y123.212 E13.23629
G1 X77.541 Y123.142 E13.28625
G1 X78.034 Y123.128 E13.33623
G1 X78.491 Y123.167 E13.38270
G1 X79.008 Y123.268 E13.43614 F945.000
G1 X79.478 Y123.421 E13.48611
G1 X79.926 Y123.626 E13.53608
G1 X80.319 Y123.862 E13.58256
G1 X80.739 Y124.181 E13.63599
G1 X81.093 Y124.525 E13.68596
G1 X81.405 Y124.907 E13.73592
G1 X81.671 Y125.322 E13.78589
G1 X81.889 Y125.764 E13.83586
G1 X82.055 Y126.229 E13.88583
G1 X82.167 Y126.709 E13.93580
G1 X82.223 Y127.199 E13.98577
G1 X82.223 Y127.692 E14.03574
G1 X82.170 Y128.148 E14.08222
G1 X82.055 Y128.663 E14.13565
G1 X81.889 Y129.127 E14.18562
G1 X81.671 Y129.570 E14.23559
G1 X81.423 Y129.956 E14.28207
G1 X81.093 Y130.366 E14.33551
G1 X80.739 Y130.710 E14.38547
G1 X80.349 Y131.011 E14.43543
G1 X79.990 Y131.227 E14.47781
G1 F1800.000 E9.47781
G92 E0
G1 X78.516 Y122.668 F7800.000
G1 X83.440 Y138.246 F7800.000
G1 E5.00000 F1800.000
G1 X82.555 Y138.659 E5.09890 F1350.000
G1 X81.999 Y138.873 E5.15925
G1 X81.434 Y139.060 E5.21961
G1 X80.859 Y139.219 E5.27997
G1 X80.278 Y139.349 E5.34032
G1 X79.520 Y139.472 E5.41817
G1 X78.506 Y139.568 E5.52135
G1 X77.910 Y139.582 E5.58170
G1 X77.315 Y139.568 E5.64206
G1 X76.721 Y139.524 E5.70242
G1 X76.130 Y139.451 E5.76277
G1 X75.543 Y139.349 E5.82313
G1 X74.961 Y139.219 E5.88349
G1 X74.387 Y139.060 E5.94384
G1 X73.822 Y138.873 E6.00420
G1 X73.266 Y138.659 E6.06456
G1 X72.721 Y138.417 E6.12492
G1 X72.189 Y138.149 E6.18527
G1 X71.671 Y137.856 E6.24563
G1 X71.168 Y137.537 E6.30598
G1 X70.681 Y137.194 E6.36634
G1 X70.211 Y136.827 E6.42670
G1 X69.760 Y136.438 E6.48706
G1 X69.328 Y136.028 E6.54741
G1 X68.918 Y135.596 E6.60777
G1 X68.529 Y135.145 E6.66813
G1 X68.162 Y134.676 E6.72848
G1 X67.819 Y134.188 E6.78884
G1 X67.500 Y133.685 E6.84920
G1 X67.207 Y133.167 E6.90956
G1 X66.942 Y132.640 E6.96932
G1 X66.668 Y132.015 E7.03845
G1 X66.466 Y131.472 E7.09715
G1 X66.286 Y130.907 E7.15723
G1 X66.135 Y130.333 E7.21732
G1 X66.011 Y129.753 E7.27746
G1 X65.915 Y129.166 E7.33770
G1 X65.849 Y128.577 E7.39773
G1 X65.827 Y128.054 E7.45083
G1 X65.842 Y127.462 E7.51079
G1 X65.887 Y126.857 E7.57226
G1 X65.963 Y126.253 E7.63394
G1 X66.052 Y125.740 E7.68669
G1 X66.182 Y125.152 E7.74770
G1 X66.344 Y124.562 E7.80977
G1 X66.543 Y123.962 E7.87374
G1 X66.772 Y123.375 E7.93766
G1 X67.224 Y122.420 E8.04461
G1 X67.534 Y121.868 E8.10884
G1 X67.882 Y121.319 E8.17463
G1 X68.257 Y120.792 E8.24016
G1 X68.663 Y120.283 E8.30614
G1 X69.100 Y119.794 E8.37261
G1 X69.566 Y119.326 E8.43953
G1 X70.062 Y118.876 E8.50739
G1 X70.568 Y118.465 E8.57343
G1 X71.098 Y118.080 E8.63983
G1 X71.652 Y117.723 E8.70655
G1 X72.233 Y117.393 E8.77429
G1 X72.830 Y117.096 E8.84189
G1 X73.708 Y116.731 E8.93823
G1 X74.339 Y116.516 E9.00571
G1 X74.987 Y116.335 E9.07388
G1 X75.643 Y116.191 E9.14198
G1 X76.303 Y116.084 E9.20973
G1 X76.969 Y116.015 E9.27752
G1 X77.637 Y115.983 E9.34532
G1 X78.187 Y115.983 E9.40107
G1 X78.586 Y115.995 E9.44151 F1350.000
G1 X79.253 Y116.052 E9.50932
G1 X80.183 Y116.192 E9.60455
G1 X81.112 Y116.412 E9.70138
G1 X81.486 Y116.517 E9.74075
G1 X82.116 Y116.732 E9.80815
G1 X82.994 Y117.098 E9.90452
G1 X83.860 Y117.547 E10.00334
G1 X84.174 Y117.726 E10.03996
G1 X84.727 Y118.083 E10.10671
G1 X85.506 Y118.662 E10.20500
G1 X86.258 Y119.329 E10.30685
G1 X86.931 Y120.020 E10.40462
G1 X87.568 Y120.798 E10.50647
G1 X87.943 Y121.325 E10.57196
G1 X88.291 Y121.874 E10.63782
G1 X88.600 Y122.426 E10.70201
G1 X89.051 Y123.380 E10.80885
G1 X89.334 Y124.130 E10.89009
G1 X89.479 Y124.569 E10.93691
G1 X89.641 Y125.161 E10.99915
G1 X89.771 Y125.750 E11.06019
G1 X89.860 Y126.263 E11.11301
G1 X89.935 Y126.867 E11.17464
G1 X89.980 Y127.470 E11.23593
G1 X89.994 Y128.062 E11.29590
G1 X89.971 Y128.587 E11.34915
G1 X89.904 Y129.176 E11.40925
G1 X89.808 Y129.763 E11.46948
G1 X89.564 Y130.798 E11.57723
G1 X89.352 Y131.479 E11.64954
G1 X89.145 Y132.034 E11.70951
G1 X88.916 Y132.567 E11.76826
G1 X88.614 Y133.167 E11.83634
G1 X88.320 Y133.685 E11.89670
G1 X88.002 Y134.188 E11.95706
G1 X87.659 Y134.675 E12.01741
G1 X87.292 Y135.145 E12.07777
G1 X86.903 Y135.596 E12.13813
G1 X86.492 Y136.028 E12.19848
G1 X85.930 Y136.551 E12.27633
G1 X85.140 Y137.194 E12.37951
G1 X84.653 Y137.537 E12.43986
G1 X84.150 Y137.856 E12.50022
G1 X83.507 Y138.212 E12.57476
G1 X83.735 Y138.833 F7800.000
G1 X82.807 Y139.266 E12.67855 F1350.000
G1 X82.221 Y139.492 E12.74218
G1 X81.624 Y139.689 E12.80580
G1 X81.019 Y139.856 E12.86943
G1 X80.406 Y139.994 E12.93305
G1 X79.600 Y140.124 E13.01580
G1 X79.164 Y140.178 E13.06029
G1 X78.538 Y140.224 E13.12391
G1 X77.910 Y140.240 E13.18754
G1 X77.283 Y140.224 E13.25116
G1 X76.656 Y140.178 E13.31479
G1 X76.033 Y140.101 E13.37841
G1 X75.414 Y139.994 E13.44204
G1 X74.802 Y139.856 E13.50566
G1 X74.197 Y139.689 E13.56929
G1 X73.600 Y139.492 E13.63292
G1 X73.014 Y139.266 E13.69654
G1 X72.440 Y139.011 E13.76017
G1 X71.879 Y138.729 E13.82379
G1 X71.333 Y138.419 E13.88742
G1 X70.802 Y138.083 E13.95104
G1 X70.140 Y137.606 E14.03379
G1 X69.794 Y137.336 E14.07828
G1 X69.319 Y136.925 E14.14190
G1 X68.864 Y136.492 E14.20553
G1 X68.431 Y136.038 E14.26915
G1 X68.021 Y135.562 E14.33278
G1 X67.634 Y135.067 E14.39640
G1 X67.273 Y134.554 E14.46003
G1 X66.937 Y134.023 E14.52366
G1 X66.627 Y133.477 E14.58728
G1 X66.346 Y132.919 E14.65055
G1 X66.061 Y132.266 E14.72272
G1 X65.846 Y131.688 E14.78520
G1 X65.656 Y131.093 E14.84852
G1 X65.496 Y130.489 E14.91185
G1 X65.365 Y129.877 E14.97523
G1 X65.265 Y129.259 E15.03870
G1 X65.194 Y128.635 E15.10232
G1 X65.169 Y128.054 E15.16127
G1 X65.185 Y127.429 E15.22452
G1 X65.233 Y126.792 E15.28931
G1 X65.313 Y126.152 E15.35465
G1 X65.406 Y125.619 E15.40944
G1 X65.544 Y124.996 E15.47411
G1 X65.715 Y124.370 E15.53983
G1 X65.924 Y123.740 E15.60708
G1 X66.167 Y123.119 E15.67467
G1 X66.446 Y122.504 E15.74309
G1 X66.970 Y121.530 E15.85520
G1 X67.335 Y120.954 E15.92429
G1 X67.965 Y120.098 E16.03194
G1 X68.403 Y119.579 E16.10079
G1 X68.873 Y119.079 E16.17021
G1 X69.376 Y118.600 E16.24065
G1 X69.905 Y118.148 E16.31111
G1 X70.459 Y117.726 E16.38176
G1 X71.039 Y117.334 E16.45265
G1 X71.641 Y116.973 E16.52379
G1 X72.202 Y116.673 E16.58818
G1 X72.833 Y116.376 E16.65884
G1 X73.482 Y116.114 E16.72980
G1 X74.147 Y115.888 E16.80095
G1 X74.827 Y115.697 E16.87255
G1 X75.517 Y115.546 E16.94415
G1 X76.213 Y115.433 E17.01556
G1 X76.915 Y115.360 E17.08701
G1 X77.619 Y115.326 E17.15848
G1 X78.621 Y115.339 E17.25996 F1350.000
G1 X79.613 Y115.434 E17.36094
G1 X80.309 Y115.547 E17.43236
G1 X80.710 Y115.634 E17.47399
G1 X81.679 Y115.889 E17.57548
G1 X82.626 Y116.225 E17.67734
G1 X83.273 Y116.502 E17.74862
G1 X83.902 Y116.815 E17.81981
G1 X84.787 Y117.337 E17.92392
G1 X85.656 Y117.946 E18.03144
G1 X86.448 Y118.603 E18.13570
G1 X87.204 Y119.348 E18.24322
G1 X87.860 Y120.103 E18.34455
G1 X88.490 Y120.960 E18.45228
G1 X88.854 Y121.536 E18.52141
G1 X89.182 Y122.120 E18.58927
G1 X89.656 Y123.125 E18.70181
G1 X89.958 Y123.924 E18.78834
G1 X90.108 Y124.378 E18.83684
G1 X90.280 Y125.005 E18.90270
G1 X90.417 Y125.629 E18.96741
G1 X90.509 Y126.162 E19.02226
G1 X90.589 Y126.802 E19.08755
G1 X90.636 Y127.438 E19.15220
G1 X90.651 Y128.062 E19.21545
G1 X90.626 Y128.645 E19.27455
G1 X90.555 Y129.269 E19.33822
