; generated by Slic3r 1.1.7 on 2014-11-04 at 17:47:22

; perimeters extrusion width = 0.50mm
; infill extrusion width = 0.70mm
; solid infill extrusion width = 0.70mm
; top infill extrusion width = 0.70mm

G21 ; set units to millimeters
M107
M190 S35 ; wait for bed temperature to be reached
M104 S210 ; set temperature
G28 ; home all axes
G1 Z5 F200; lift nozzle


M109 S210 ; wait for temperature to be reached
G90 ; use absolute coordinates
G92 E0
M82 ; use absolute distances for extrusion
G1 F1800.000 E-5.00000
G92 E0
G1 Z0.350 F7800.000
G1 X68.903 Y68.746 F7800.000
G1 E5.00000 F1800.000
G1 X69.695 Y68.002 E5.11013 F2700.000
G1 X70.027 Y67.717 E5.15445
G1 X70.518 Y67.308 E5.21920
G1 X71.379 Y66.658 E5.32852
G1 X71.859 Y66.325 E5.38772
G1 X72.836 Y65.707 E5.50486
G1 X73.799 Y65.169 E5.61657
G1 X74.154 Y64.991 E5.65680
G1 X74.771 Y64.694 E5.72621
G1 X75.769 Y64.269 E5.83616
G1 X76.792 Y63.898 E5.94641
G1 X77.389 Y63.708 E6.00986
G1 X78.830 Y63.335 E6.16065
G1 X79.531 Y63.190 E6.23317
G1 X80.604 Y63.020 E6.34324
G1 X81.685 Y62.909 E6.45337
G1 X82.290 Y62.871 E6.51480
G1 X83.253 Y62.846 E6.61246
G1 X116.916 Y62.848 E10.02313
G1 X118.004 Y62.886 E10.13344 F2700.000
G1 X119.088 Y62.982 E10.24368
G1 X120.163 Y63.136 E10.35373
G1 X120.750 Y63.244 E10.41425
G1 X121.859 Y63.498 E10.52946
G1 X122.901 Y63.797 E10.63938
G1 X123.925 Y64.151 E10.74917
G1 X124.411 Y64.342 E10.80202
G1 X125.478 Y64.810 E10.92006
G1 X126.498 Y65.328 E11.03603
G1 X127.434 Y65.869 E11.14552
G1 X127.816 Y66.112 E11.19140
G1 X128.336 Y66.457 E11.25465
G1 X129.202 Y67.090 E11.36336
G1 X130.031 Y67.766 E11.47166
G1 X130.843 Y68.503 E11.58279
G1 X131.325 Y68.974 E11.65110
G1 X132.053 Y69.757 E11.75944
G1 X132.734 Y70.573 E11.86714
G1 X133.368 Y71.418 E11.97409
G1 X133.790 Y72.031 E12.04956
G1 X134.350 Y72.931 E12.15686
G1 X134.858 Y73.852 E12.26348
G1 X135.315 Y74.791 E12.36936
G1 X135.601 Y75.448 E12.44194
G1 X136.004 Y76.504 E12.55640
G1 X136.326 Y77.505 E12.66298
G1 X136.592 Y78.502 E12.76755
G1 X136.804 Y79.500 E12.87094
G1 X136.937 Y80.289 E12.95192
G1 X137.067 Y81.386 E13.06395
G1 X137.135 Y82.418 E13.16871
G1 X137.154 Y83.258 E13.25377
G1 X137.152 Y116.920 E16.66449
G1 X137.132 Y117.520 E16.72530
G1 X137.082 Y118.174 E16.79176
G1 X137.005 Y118.849 E16.86055
G1 X136.857 Y119.803 E16.95838
G1 X136.577 Y121.119 E17.09469
G1 X136.315 Y122.076 E17.19530
G1 X136.140 Y122.629 E17.25405
G1 X135.654 Y123.947 E17.39636
G1 X135.213 Y124.945 E17.50694
G1 X134.712 Y125.921 E17.61810
G1 X134.210 Y126.791 E17.71983
G1 X133.666 Y127.635 E17.82157
G1 X133.082 Y128.451 E17.92330
G1 X132.458 Y129.238 E18.02503
G1 X131.796 Y129.993 E18.12677
G1 X131.098 Y130.715 E18.22851
G1 X130.365 Y131.401 E18.33022
G1 X129.599 Y132.051 E18.43197
G1 X128.628 Y132.785 E18.55534
G1 X127.977 Y133.234 E18.63543
G1 X127.125 Y133.764 E18.73716
G1 X126.247 Y134.252 E18.83890
G1 X125.347 Y134.697 E18.94064
G1 X124.226 Y135.173 E19.06400
G1 X123.486 Y135.450 E19.14409
G1 X122.530 Y135.757 E19.24582
G1 X121.560 Y136.017 E19.34756
G1 X120.579 Y136.229 E19.44929
G1 X119.588 Y136.393 E19.55103
G1 X118.591 Y136.508 E19.65276
G1 X117.589 Y136.574 E19.75450
G1 X116.748 Y136.593 E19.83969
G1 X83.088 Y136.591 E23.25013
G1 X82.085 Y136.558 E23.35187
G1 X81.084 Y136.476 E23.45360
G1 X80.089 Y136.345 E23.55534
G1 X79.101 Y136.166 E23.65707
G1 X78.123 Y135.938 E23.75881
G1 X77.157 Y135.662 E23.86054
G1 X76.206 Y135.340 E23.96228
G1 X75.272 Y134.971 E24.06401
G1 X74.358 Y134.557 E24.16575
G1 X73.465 Y134.098 E24.26748
G1 X72.595 Y133.596 E24.36921
G1 X71.751 Y133.052 E24.47095
G1 X70.935 Y132.468 E24.57269
G1 X70.148 Y131.844 E24.67442
G1 X69.393 Y131.182 E24.77615
G1 X68.671 Y130.484 E24.87789
G1 X67.985 Y129.751 E24.97961
G1 X67.335 Y128.985 E25.08135
G1 X66.724 Y128.189 E25.18310
G1 X66.038 Y127.183 E25.30646
G1 X65.622 Y126.511 E25.38654
G1 X65.134 Y125.633 E25.48828
G1 X64.676 Y124.702 E25.59341
G1 X64.150 Y123.446 E25.73137
G1 X63.915 Y122.797 E25.80133
G1 X63.616 Y121.843 E25.90268
G1 X63.363 Y120.874 E26.00407
G1 X63.128 Y119.715 E26.12396
G1 X63.002 Y118.904 E26.20707
G1 X62.894 Y117.907 E26.30871
G1 X62.846 Y116.745 E26.42650
G1 X62.847 Y83.145 E29.83090
G1 X62.882 Y82.076 E29.93922
G1 X62.965 Y81.064 E30.04211
G1 X63.101 Y80.047 E30.14607
G1 X63.231 Y79.314 E30.22150
G1 X63.472 Y78.242 E30.33289
G1 X63.773 Y77.178 E30.44495
G1 X64.107 Y76.194 E30.55018
G1 X64.495 Y75.220 E30.65645
G1 X64.758 Y74.632 E30.72164
G1 X65.432 Y73.315 E30.87158
G1 X65.822 Y72.643 E30.95028
G1 X66.398 Y71.750 E31.05801
G1 X67.020 Y70.888 E31.16572
G1 X67.691 Y70.055 E31.27405
G1 X68.110 Y69.575 E31.33864
G1 X68.850 Y68.800 E31.44720
G1 F1800.000 E26.44720
G92 E0
G1 X87.404 Y119.945 F7800.000
G1 E5.00000 F1800.000
G1 X86.942 Y120.393 E5.06519 F1350.000
G1 X86.433 Y120.786 E5.13038
G1 X85.882 Y121.119 E5.19557
G1 X85.296 Y121.386 E5.26077
G1 X84.789 Y121.551 E5.31487
G1 X84.054 Y121.712 E5.39110
G1 X83.412 Y121.768 E5.45631
G1 X82.769 Y121.749 E5.52149
G1 X82.132 Y121.658 E5.58670
G1 X81.510 Y121.494 E5.65188
G1 X80.911 Y121.261 E5.71709
G1 X80.342 Y120.960 E5.78228
G1 X79.810 Y120.597 E5.84747
G1 X79.324 Y120.176 E5.91266
G1 X78.889 Y119.702 E5.97786
G1 X78.511 Y119.181 E6.04307
G1 X78.194 Y118.621 E6.10826
G1 X77.944 Y118.028 E6.17343
G1 X77.763 Y117.411 E6.23864
G1 X77.653 Y116.777 E6.30386
G1 X77.616 Y116.134 E6.36903
G1 X77.653 Y115.492 E6.43425
G1 X77.762 Y114.858 E6.49941
G1 X77.944 Y114.240 E6.56464
G1 X78.194 Y113.648 E6.62985
G1 X78.511 Y113.087 E6.69502
G1 X78.889 Y112.567 E6.76020
G1 X79.324 Y112.093 E6.82542
G1 X79.810 Y111.671 E6.89062
G1 X80.342 Y111.308 E6.95583
G1 X80.911 Y111.008 E7.02101
G1 X81.510 Y110.774 E7.08619
G1 X82.133 Y110.611 E7.15140
G1 X82.769 Y110.519 E7.21656
G1 X83.413 Y110.501 E7.28180
G1 X83.944 Y110.547 E7.33587
G1 X84.685 Y110.684 E7.41213 F1350.000
G1 X85.296 Y110.883 E7.47732
G1 X85.882 Y111.150 E7.54254
G1 X86.433 Y111.482 E7.60773
G1 X86.942 Y111.875 E7.67292
G1 X87.404 Y112.324 E7.73809
G1 X87.811 Y112.822 E7.80328
G1 X88.159 Y113.363 E7.86848
G1 X88.443 Y113.940 E7.93369
G1 X88.659 Y114.547 E7.99888
G1 X88.805 Y115.173 E8.06408
G1 X88.866 Y115.704 E8.11817
G1 X88.878 Y116.456 E8.19441
G1 X88.805 Y117.095 E8.25960
G1 X88.659 Y117.722 E8.32479
G1 X88.443 Y118.328 E8.39000
G1 X88.159 Y118.905 E8.45519
G1 X87.811 Y119.447 E8.52039
G1 X87.451 Y119.887 E8.57800
G1 X86.919 Y119.500 F7800.000
G1 X86.511 Y119.896 E8.63557 F1350.000
G1 X86.061 Y120.243 E8.69315
G1 X85.575 Y120.536 E8.75073
G1 X85.058 Y120.773 E8.80832
G1 X84.517 Y120.948 E8.86590
G1 X83.960 Y121.061 E8.92348
G1 X83.394 Y121.110 E8.98108
G1 X82.826 Y121.093 E9.03865
G1 X82.334 Y121.023 E9.08894
G1 X81.714 Y120.868 E9.15377
G1 X81.184 Y120.662 E9.21136
G1 X80.681 Y120.397 E9.26893
G1 X80.212 Y120.076 E9.32652
G1 X79.783 Y119.704 E9.38409
G1 X79.398 Y119.285 E9.44168
G1 X79.064 Y118.825 E9.49927
G1 X78.785 Y118.330 E9.55685
G1 X78.564 Y117.807 E9.61441
G1 X78.404 Y117.262 E9.67200
G1 X78.307 Y116.702 E9.72960
G1 X78.274 Y116.134 E9.78717
G1 X78.307 Y115.567 E9.84476
G1 X78.404 Y115.007 E9.90233
G1 X78.564 Y114.461 E9.95993
G1 X78.785 Y113.938 E10.01751
G1 X79.064 Y113.443 E10.07508
G1 X79.398 Y112.983 E10.13266
G1 X79.783 Y112.565 E10.19025
G1 X80.212 Y112.193 E10.24783
G1 X80.681 Y111.872 E10.30543
G1 X81.184 Y111.607 E10.36300
G1 X81.714 Y111.400 E10.42057
G1 X82.263 Y111.256 E10.47816
G1 X82.826 Y111.175 E10.53573
G1 X83.322 Y111.161 E10.58604
G1 X83.960 Y111.207 E10.65086 F1350.000
G1 X84.517 Y111.320 E10.70845
G1 X85.058 Y111.496 E10.76603
G1 X85.509 Y111.702 E10.81633
G1 X86.061 Y112.026 E10.88116
G1 X86.511 Y112.373 E10.93875
G1 X86.919 Y112.769 E10.99631
G1 X87.279 Y113.208 E11.05389
G1 X87.586 Y113.687 E11.11148
G1 X87.837 Y114.197 E11.16907
G1 X88.028 Y114.732 E11.22665
G1 X88.156 Y115.285 E11.28423
G1 X88.213 Y115.779 E11.33451
G1 X88.221 Y116.418 E11.39935
G1 X88.156 Y116.983 E11.45693
G1 X88.028 Y117.537 E11.51451
G1 X87.837 Y118.072 E11.57210
G1 X87.586 Y118.582 E11.62968
G1 X87.279 Y119.060 E11.68726
G1 X86.966 Y119.442 E11.73725
G1 X86.434 Y119.055 F7800.000
G1 X86.080 Y119.399 E11.78722 F945.000
G1 X85.690 Y119.700 E11.83718
G1 X85.267 Y119.954 E11.88715
G1 X84.819 Y120.159 E11.93712
G1 X84.383 Y120.301 E11.98360
G1 X83.866 Y120.410 E12.03704
G1 X83.375 Y120.452 E12.08701
G1 X82.882 Y120.438 E12.13697
G1 X82.394 Y120.368 E12.18694
G1 X81.917 Y120.242 E12.23691
G1 X81.457 Y120.063 E12.28688
G1 X81.021 Y119.833 E12.33685
G1 X80.614 Y119.555 E12.38682
G1 X80.241 Y119.232 E12.43678
G1 X79.908 Y118.868 E12.48675
G1 X79.618 Y118.469 E12.53672
G1 X79.376 Y118.040 E12.58669
G1 X79.184 Y117.586 E12.63665
G1 X79.045 Y117.113 E12.68662
G1 X78.961 Y116.627 E12.73660
G1 X78.932 Y116.134 E12.78656
G1 X78.961 Y115.642 E12.83653
G1 X79.045 Y115.156 E12.88649
G1 X79.184 Y114.683 E12.93647
G1 X79.376 Y114.228 E12.98644
G1 X79.618 Y113.799 E13.03640
G1 X79.908 Y113.400 E13.08637
G1 X80.241 Y113.037 E13.13634
G1 X80.614 Y112.714 E13.18631
G1 X81.021 Y112.435 E13.23628
G1 X81.457 Y112.205 E13.28625
G1 X81.917 Y112.026 E13.33621
G1 X82.394 Y111.901 E13.38618
G1 X82.882 Y111.831 E13.43614
G1 X83.375 Y111.817 E13.48612
G1 X83.832 Y111.856 E13.53259
G1 X84.350 Y111.957 E13.58604 F945.000
G1 X84.819 Y112.109 E13.63600
G1 X85.267 Y112.314 E13.68598
G1 X85.690 Y112.569 E13.73594
G1 X86.080 Y112.870 E13.78591
G1 X86.434 Y113.214 E13.83587
G1 X86.746 Y113.595 E13.88584
G1 X87.013 Y114.010 E13.93581
G1 X87.230 Y114.453 E13.98578
G1 X87.396 Y114.917 E14.03575
G1 X87.508 Y115.398 E14.08572
G1 X87.560 Y115.853 E14.13220
G1 X87.564 Y116.381 E14.18563
G1 X87.508 Y116.871 E14.23560
G1 X87.396 Y117.351 E14.28557
G1 X87.230 Y117.816 E14.33554
G1 X87.013 Y118.258 E14.38550
G1 X86.746 Y118.673 E14.43547
G1 X86.481 Y118.997 E14.47785
G1 F1800.000 E9.47785
G92 E0
G1 X83.829 Y111.356 F7800.000
G1 X92.094 Y124.443 F7800.000
G1 E5.00000 F1800.000
G1 X91.402 Y125.127 E5.09851 F1350.000
G1 X90.951 Y125.516 E5.15887
G1 X90.482 Y125.883 E5.21922
G1 X89.995 Y126.226 E5.27958
G1 X89.491 Y126.544 E5.33994
G1 X88.973 Y126.838 E5.40029
G1 X88.441 Y127.106 E5.46065
G1 X87.735 Y127.409 E5.53850
G1 X86.775 Y127.748 E5.64167
G1 X86.201 Y127.907 E5.70203
G1 X85.619 Y128.038 E5.76239
G1 X85.033 Y128.140 E5.82275
G1 X84.441 Y128.213 E5.88310
G1 X83.847 Y128.256 E5.94346
G1 X83.252 Y128.271 E6.00381
G1 X82.656 Y128.256 E6.06417
G1 X81.891 Y128.191 E6.14202
G1 X80.884 Y128.038 E6.24520
G1 X80.303 Y127.907 E6.30555
G1 X79.565 Y127.694 E6.38340
G1 X78.607 Y127.347 E6.48658
G1 X78.063 Y127.106 E6.54693
G1 X77.380 Y126.753 E6.62478
G1 X76.509 Y126.226 E6.72796
G1 X76.022 Y125.883 E6.78831
G1 X75.552 Y125.516 E6.84867
G1 X75.101 Y125.127 E6.90903
G1 X74.670 Y124.716 E6.96938
G1 X74.146 Y124.154 E7.04723
G1 X73.503 Y123.364 E7.15041
G1 X73.068 Y122.731 E7.22826
G1 X72.548 Y121.855 E7.33143
G1 X72.283 Y121.329 E7.39120
G1 X72.010 Y120.703 E7.46033
G1 X71.807 Y120.160 E7.51903
G1 X71.595 Y119.479 E7.59139
G1 X71.352 Y118.442 E7.69931
G1 X71.257 Y117.855 E7.75955
G1 X71.190 Y117.266 E7.81957
G1 X71.168 Y116.742 E7.87267
G1 X71.183 Y116.151 E7.93264
G1 X71.228 Y115.546 E7.99410
G1 X71.294 Y115.012 E8.04864
G1 X71.412 Y114.333 E8.11844
G1 X71.523 Y113.841 E8.16954
G1 X71.686 Y113.250 E8.23161
G1 X71.884 Y112.651 E8.29558
G1 X72.114 Y112.063 E8.35950
G1 X72.378 Y111.481 E8.42426
G1 X72.676 Y110.908 E8.48969
G1 X72.875 Y110.556 E8.53069
G1 X73.436 Y109.706 E8.63386
G1 X73.820 Y109.197 E8.69845
G1 X74.234 Y108.705 E8.76364
G1 X74.679 Y108.233 E8.82939
G1 X75.403 Y107.565 E8.92922
G1 X75.909 Y107.153 E8.99526
G1 X76.439 Y106.769 E9.06166
G1 X76.993 Y106.412 E9.12839
G1 X77.836 Y105.950 E9.22575
G1 X78.434 Y105.668 E9.29274
G1 X79.050 Y105.419 E9.36004
G1 X79.680 Y105.205 E9.42751
G1 X80.328 Y105.024 E9.49568
G1 X80.984 Y104.879 E9.56379
G1 X81.913 Y104.740 E9.65895
G1 X82.579 Y104.684 E9.72668
G1 X83.529 Y104.672 E9.82287
G1 X83.928 Y104.684 E9.86331 F1350.000
G1 X84.594 Y104.740 E9.93112
G1 X85.256 Y104.834 E9.99880
G1 X86.180 Y105.025 E10.09437
G1 X86.828 Y105.206 E10.16256
G1 X87.457 Y105.421 E10.22997
G1 X88.335 Y105.786 E10.32634
G1 X89.201 Y106.236 E10.42515
G1 X89.515 Y106.415 E10.46178
G1 X90.069 Y106.772 E10.52852
G1 X90.847 Y107.351 E10.62681
G1 X91.348 Y107.778 E10.69355
G1 X92.066 Y108.486 E10.79571
G1 X92.688 Y109.202 E10.89174
G1 X93.284 Y110.013 E10.99379
G1 X93.632 Y110.562 E11.05965
G1 X93.942 Y111.115 E11.12383
G1 X94.392 Y112.069 E11.23068
G1 X94.675 Y112.819 E11.31192
G1 X94.820 Y113.257 E11.35874
G1 X94.982 Y113.850 E11.42097
G1 X95.112 Y114.438 E11.48202
G1 X95.201 Y114.952 E11.53483
G1 X95.276 Y115.555 E11.59647
G1 X95.321 Y116.159 E11.65776
G1 X95.329 Y117.021 E11.74509
G1 X95.245 Y117.865 E11.83104
G1 X95.150 Y118.452 E11.89127
G1 X94.906 Y119.487 E11.99903
G1 X94.693 Y120.168 E12.07133
G1 X94.327 Y121.098 E12.17263
G1 X93.955 Y121.855 E12.25810
G1 X93.569 Y122.520 E12.33595
G1 X93.000 Y123.364 E12.43912
G1 X92.634 Y123.834 E12.49948
G1 X92.145 Y124.389 E12.57440
G1 X92.569 Y124.896 F7800.000
G1 X91.844 Y125.614 E12.67781 F1350.000
G1 X91.368 Y126.024 E12.74143
G1 X90.873 Y126.410 E12.80506
G1 X90.360 Y126.772 E12.86869
G1 X89.829 Y127.108 E12.93231
G1 X89.283 Y127.418 E12.99594
G1 X88.722 Y127.700 E13.05956
G1 X88.148 Y127.954 E13.12319
G1 X87.628 Y128.158 E13.17972
G1 X86.966 Y128.377 E13.25045
G1 X86.360 Y128.545 E13.31407
G1 X85.748 Y128.682 E13.37770
G1 X85.129 Y128.790 E13.44133
G1 X84.506 Y128.867 E13.50495
G1 X83.879 Y128.913 E13.56858
G1 X83.252 Y128.928 E13.63220
G1 X82.624 Y128.913 E13.69583
G1 X81.998 Y128.867 E13.75945
G1 X81.374 Y128.790 E13.82308
G1 X80.756 Y128.682 E13.88670
G1 X79.961 Y128.494 E13.96945
G1 X79.538 Y128.377 E14.01394
G1 X78.942 Y128.180 E14.07756
G1 X78.356 Y127.954 E14.14119
G1 X77.782 Y127.700 E14.20481
G1 X77.221 Y127.418 E14.26844
G1 X76.515 Y127.007 E14.35119
G1 X76.144 Y126.772 E14.39567
G1 X75.630 Y126.410 E14.45930
G1 X75.135 Y126.024 E14.52292
G1 X74.660 Y125.614 E14.58655
G1 X74.205 Y125.181 E14.65017
G1 X73.772 Y124.726 E14.71380
G1 X73.362 Y124.251 E14.77742
G1 X72.975 Y123.756 E14.84105
G1 X72.614 Y123.242 E14.90468
G1 X72.278 Y122.712 E14.96830
G1 X71.968 Y122.165 E15.03193
G1 X71.688 Y121.607 E15.09520
G1 X71.402 Y120.955 E15.16737
G1 X71.137 Y120.224 E15.24612
G1 X70.837 Y119.177 E15.35646
G1 X70.707 Y118.566 E15.41984
G1 X70.606 Y117.947 E15.48331
G1 X70.518 Y117.051 E15.57461
G1 X70.526 Y116.118 E15.66909
G1 X70.574 Y115.480 E15.73388
G1 X70.655 Y114.841 E15.79922
G1 X70.747 Y114.308 E15.85402
G1 X70.885 Y113.685 E15.91868
G1 X71.057 Y113.059 E15.98440
G1 X71.265 Y112.429 E16.05165
G1 X71.508 Y111.808 E16.11924
G1 X71.984 Y110.803 E16.23188
G1 X72.312 Y110.218 E16.29978
G1 X72.677 Y109.642 E16.36887
G1 X73.073 Y109.086 E16.43803
G1 X73.744 Y108.267 E16.54538
G1 X74.214 Y107.768 E16.61479
G1 X74.717 Y107.288 E16.68524
G1 X75.246 Y106.837 E16.75570
G1 X76.070 Y106.225 E16.85972
G1 X76.654 Y105.849 E16.93011
G1 X77.265 Y105.502 E17.00123
G1 X77.893 Y105.189 E17.07237
G1 X78.823 Y104.803 E17.17441
G1 X79.488 Y104.576 E17.24556
G1 X80.169 Y104.386 E17.31716
G1 X80.859 Y104.234 E17.38877
G1 X81.554 Y104.122 E17.46017
G1 X82.256 Y104.048 E17.53162
G1 X82.960 Y104.014 E17.60309
G1 X83.962 Y104.027 E17.70458 F1350.000
G1 X84.665 Y104.087 E17.77605
G1 X85.650 Y104.235 E17.87698
G1 X86.339 Y104.387 E17.94852
G1 X87.020 Y104.578 E18.02013
G1 X87.968 Y104.913 E18.12198
G1 X88.614 Y105.191 E18.19326
G1 X88.964 Y105.364 E18.23283
G1 X89.854 Y105.852 E18.33564
G1 X90.438 Y106.228 E18.40605
G1 X91.262 Y106.840 E18.51003
G1 X91.790 Y107.291 E18.58038
G1 X92.053 Y107.542 E18.61722
G1 X92.762 Y108.271 E18.72029
G1 X93.435 Y109.092 E18.82783
G1 X93.831 Y109.648 E18.89698
G1 X94.196 Y110.225 E18.96611
G1 X94.405 Y110.594 E19.00912
G1 X94.816 Y111.403 E19.10110
G1 X95.241 Y112.436 E19.21420
G1 X95.449 Y113.067 E19.28154
G1 X95.621 Y113.694 E19.34740
G1 X95.758 Y114.317 E19.41211
G1 X95.850 Y114.851 E19.46695
G1 X95.935 Y115.547 E19.53801
G1 X95.977 Y116.127 E19.59689
G1 X95.993 Y116.751 E19.66014
G1 X95.967 Y117.333 E19.71924
G1 X95.896 Y117.958 E19.78291
G1 X95.808 Y118.498 E19.83835
