; generated by Slic3r 1.1.7 on 2014-11-05 at 18:19:35

; perimeters extrusion width = 0.50mm
; infill extrusion width = 0.70mm
; solid infill extrusion width = 0.70mm
; top infill extrusion width = 0.70mm

G21 ; set units to millimeters
M107
M190 S35 ; wait for bed temperature to be reached
M104 S210 ; set temperature
G28 ; home all axes
G1 Z5 F200; lift nozzle


M109 S210 ; wait for temperature to be reached
G90 ; use absolute coordinates
G92 E0
M82 ; use absolute distances for extrusion
G1 F1800.000 E-5.00000
G92 E0
G1 Z0.350 F7800.000
G1 X86.304 Y86.273 F7800.000
G1 E5.00000 F1800.000
G1 X101.951 Y70.620 E7.24253 F3600.000
G1 X102.818 Y69.797 E7.36368
G1 X103.734 Y69.030 E7.48469
G1 X104.694 Y68.320 E7.60570
G1 X105.706 Y67.666 E7.72780
G1 X106.737 Y67.085 E7.84770
G1 X107.810 Y66.565 E7.96847
G1 X108.916 Y66.110 E8.08972
G1 X110.057 Y65.722 E8.21181
G1 X111.199 Y65.410 E8.33172
G1 X112.368 Y65.167 E8.45273
G1 X113.548 Y64.997 E8.57349
G1 X114.751 Y64.898 E8.69584
G1 X115.935 Y64.875 E8.81574
G1 X117.128 Y64.924 E8.93675
G1 X118.315 Y65.047 E9.05769 F3600.000
G1 X119.494 Y65.242 E9.17872
G1 X120.658 Y65.510 E9.29977
G1 X121.803 Y65.849 E9.42077
G1 X122.925 Y66.258 E9.54176
G1 X124.019 Y66.735 E9.66263
G1 X125.083 Y67.279 E9.78378
G1 X126.111 Y67.887 E9.90476
G1 X127.100 Y68.557 E10.02578
G1 X128.045 Y69.287 E10.14679
G1 X128.944 Y70.073 E10.26780
G1 X129.792 Y70.913 E10.38874
G1 X130.588 Y71.805 E10.50981
G1 X131.326 Y72.743 E10.63082
G1 X132.006 Y73.725 E10.75182
G1 X132.624 Y74.747 E10.87282
G1 X133.178 Y75.805 E10.99383
G1 X133.666 Y76.895 E11.11484
G1 X134.085 Y78.013 E11.23580
G1 X134.438 Y79.166 E11.35794
G1 X134.714 Y80.316 E11.47777
G1 X134.921 Y81.493 E11.59886
G1 X135.055 Y82.679 E11.71986
G1 X135.116 Y83.872 E11.84086
G1 X135.104 Y85.065 E11.96171
G1 X135.018 Y86.257 E12.08279
G1 X134.858 Y87.441 E12.20388
G1 X134.627 Y88.613 E12.32488
G1 X134.320 Y89.778 E12.44698
G1 X133.949 Y90.901 E12.56683
G1 X133.506 Y92.010 E12.68782
G1 X132.996 Y93.089 E12.80875
G1 X132.419 Y94.136 E12.92984
G1 X131.780 Y95.145 E13.05091
G1 X131.079 Y96.113 E13.17192
G1 X130.321 Y97.035 E13.29283
G1 X129.581 Y97.836 E13.40342
G1 X98.048 Y129.381 E17.92258
G1 X97.182 Y130.203 E18.04359
G1 X96.266 Y130.970 E18.16459
G1 X95.307 Y131.679 E18.28544
G1 X94.304 Y132.329 E18.40658
G1 X93.263 Y132.915 E18.52761
G1 X92.188 Y133.436 E18.64861
G1 X91.084 Y133.890 E18.76962
G1 X89.953 Y134.275 E18.89062
G1 X88.801 Y134.590 E19.01163
G1 X87.634 Y134.833 E19.13244
G1 X86.450 Y135.004 E19.25364
G1 X85.259 Y135.101 E19.37464
G1 X84.066 Y135.125 E19.49554
G1 X82.873 Y135.076 E19.61659
G1 X81.684 Y134.953 E19.73766
G1 X80.506 Y134.758 E19.85866
G1 X79.343 Y134.490 E19.97958
G1 X78.197 Y134.151 E20.10067
G1 X77.075 Y133.742 E20.22168
G1 X75.980 Y133.265 E20.34268
G1 X74.917 Y132.721 E20.46369
G1 X73.889 Y132.113 E20.58469
G1 X72.900 Y131.443 E20.70568
G1 X71.955 Y130.713 E20.82669
G1 X71.056 Y129.927 E20.94768
G1 X70.208 Y129.086 E21.06871
G1 X69.413 Y128.195 E21.18970
G1 X68.675 Y127.259 E21.31050
G1 X67.994 Y126.275 E21.43174
G1 X67.376 Y125.253 E21.55273
G1 X66.822 Y124.196 E21.67365
G1 X66.334 Y123.105 E21.79474
G1 X65.915 Y121.989 E21.91551
G1 X65.566 Y120.848 E22.03645
G1 X65.286 Y119.684 E22.15775
G1 X65.079 Y118.507 E22.27876
G1 X64.945 Y117.321 E22.39977
G1 X64.884 Y116.128 E22.52077
G1 X64.897 Y114.923 E22.64287
G1 X64.982 Y113.743 E22.76278
G1 X65.141 Y112.560 E22.88371
G1 X65.373 Y111.387 E23.00479
G1 X65.677 Y110.232 E23.12580
G1 X66.051 Y109.099 E23.24671
G1 X66.494 Y107.989 E23.36780
G1 X67.005 Y106.909 E23.48881
G1 X67.587 Y105.854 E23.61090
G1 X68.220 Y104.855 E23.73082
G1 X68.920 Y103.888 E23.85174
G1 X69.679 Y102.965 E23.97282
G1 X70.419 Y102.164 E24.08333
G1 X86.251 Y86.327 E26.35221
G1 F1800.000 E21.35221
G92 E0
G1 X85.066 Y121.055 F7800.000
G1 E5.00000 F1800.000
G1 X85.642 Y121.308 E5.06378 F1800.000
G1 X86.024 Y121.557 E5.10997
G1 X86.359 Y121.866 E5.15617
G1 X86.640 Y122.226 E5.20237
G1 X86.857 Y122.627 E5.24856
G1 X87.005 Y123.058 E5.29477
G1 X87.080 Y123.507 E5.34095
G1 X87.080 Y123.963 E5.38715
G1 X87.005 Y124.413 E5.43336
G1 X86.857 Y124.844 E5.47953
G1 X86.639 Y125.245 E5.52574
G1 X86.359 Y125.605 E5.57196
G1 X86.024 Y125.914 E5.61813
G1 X85.719 Y126.113 E5.65507
G1 X85.642 Y126.163 E5.66433
G1 X85.225 Y126.346 E5.71051
G1 X84.783 Y126.458 E5.75670
G1 X84.328 Y126.496 E5.80292
G1 X83.874 Y126.458 E5.84909
G1 X83.432 Y126.346 E5.89530
G1 X83.015 Y126.163 E5.94149
G1 X82.633 Y125.914 E5.98767
G1 X82.298 Y125.605 E6.03387
G1 X82.018 Y125.246 E6.08005
G1 X81.801 Y124.844 E6.12626
G1 X81.652 Y124.413 E6.17247
G1 X81.577 Y123.964 E6.21864
G1 X81.577 Y123.508 E6.26485
G1 X81.652 Y123.058 E6.31106
G1 X81.800 Y122.627 E6.35723
G1 X82.018 Y122.226 E6.40344
G1 X82.298 Y121.866 E6.44964
G1 X82.633 Y121.557 E6.49583
G1 X83.015 Y121.308 E6.54203
G1 X83.560 Y121.069 E6.60232
G1 X83.511 Y120.679 E6.64210
G1 X83.192 Y120.627 E6.67483
G1 X82.668 Y120.481 E6.72989
G1 X82.164 Y120.280 E6.78494
G1 X81.684 Y120.024 E6.84003
G1 X81.289 Y119.757 E6.88831
G1 X80.821 Y119.366 E6.95011
G1 X80.448 Y118.971 E7.00518
G1 X80.159 Y118.592 E7.05347
G1 X79.840 Y118.072 E7.11528
G1 X79.613 Y117.578 E7.17034
G1 X79.461 Y117.126 E7.21860
G1 X79.327 Y116.544 E7.27914
G1 X78.929 Y116.521 E7.31951
G1 X78.799 Y116.903 E7.36034
G1 X78.582 Y117.304 E7.40655
G1 X78.301 Y117.664 E7.45275
G1 X77.966 Y117.972 E7.49897
G1 X77.584 Y118.222 E7.54513
G1 X77.167 Y118.405 E7.59133
G1 X76.725 Y118.517 E7.63754
G1 X76.270 Y118.554 E7.68373
G1 X75.816 Y118.517 E7.72989
G1 X75.374 Y118.405 E7.77608
G1 X74.957 Y118.222 E7.82230
G1 X74.575 Y117.972 E7.86850
G1 X74.240 Y117.664 E7.91466
G1 X73.960 Y117.304 E7.96088
G1 X73.743 Y116.903 E8.00708
G1 X73.594 Y116.471 E8.05329
G1 X73.519 Y116.022 E8.09946
G1 X73.519 Y115.566 E8.14567
G1 X73.595 Y115.116 E8.19187
G1 X73.742 Y114.685 E8.23803
G1 X73.959 Y114.284 E8.28424
G1 X74.240 Y113.924 E8.33045
G1 X74.575 Y113.615 E8.37666
G1 X74.957 Y113.366 E8.42283
G1 X75.374 Y113.183 E8.46903
G1 X75.816 Y113.071 E8.51524
G1 X76.271 Y113.033 E8.56143
G1 X76.725 Y113.071 E8.60760
G1 X77.167 Y113.183 E8.65378
G1 X77.584 Y113.366 E8.70000
G1 X77.966 Y113.615 E8.74620
G1 X78.301 Y113.924 E8.79236
G1 X78.582 Y114.284 E8.83858
G1 X78.799 Y114.685 E8.88478
G1 X78.914 Y115.021 E8.92076
G1 X79.312 Y114.998 E8.96112
G1 X79.450 Y114.377 E9.02558
G1 X79.626 Y113.863 E9.08061
G1 X79.856 Y113.371 E9.13570
G1 X80.138 Y112.907 E9.19073
G1 X80.469 Y112.476 E9.24579
G1 X80.797 Y112.130 E9.29410
G1 X81.261 Y111.734 E9.35587
G1 X81.713 Y111.431 E9.41095
G1 X82.134 Y111.208 E9.45923
G1 X82.700 Y110.981 E9.52103
G1 X83.159 Y110.854 E9.56933
G1 X83.426 Y110.806 E9.59676
G1 X83.475 Y110.417 E9.63653
G1 X82.898 Y110.164 E9.70031
G1 X82.517 Y109.914 E9.74651
G1 X82.181 Y109.606 E9.79267
G1 X81.901 Y109.246 E9.83889
G1 X81.728 Y108.925 E9.87583
G1 X81.684 Y108.845 E9.88509
G1 X81.536 Y108.413 E9.93130
G1 X81.461 Y107.964 E9.97747
G1 X81.461 Y107.508 E10.02367
G1 X81.521 Y107.148 E10.06061
G1 X81.536 Y107.058 E10.06987
G1 X81.684 Y106.627 E10.11605
G1 X81.901 Y106.226 E10.16225
G1 X82.181 Y105.866 E10.20846
G1 X82.517 Y105.557 E10.25468
G1 X82.898 Y105.308 E10.30083
G1 X83.316 Y105.125 E10.34703
G1 X83.669 Y105.035 E10.38399
G1 X83.758 Y105.013 E10.39325
G1 X84.212 Y104.975 E10.43943
G1 X84.666 Y105.013 E10.48560
G1 X85.108 Y105.125 E10.53179
G1 X85.526 Y105.308 E10.57800
G1 X85.908 Y105.558 E10.62421
G1 X86.243 Y105.866 E10.67037
G1 X86.523 Y106.226 E10.71658
G1 X86.740 Y106.627 E10.76279
G1 X86.888 Y107.058 E10.80900
G1 X86.963 Y107.508 E10.85518
G1 X86.963 Y107.964 E10.90137
G1 X86.888 Y108.414 E10.94757
G1 X86.740 Y108.845 E10.99374
G1 X86.523 Y109.246 E11.03995
G1 X86.243 Y109.606 E11.08616
G1 X85.907 Y109.915 E11.13238
G1 X85.526 Y110.164 E11.17853
G1 X84.981 Y110.403 E11.23882
G1 X85.030 Y110.792 E11.27859
G1 X85.382 Y110.854 E11.31471
G1 X85.841 Y110.981 E11.36301
G1 X86.407 Y111.208 E11.42481
G1 X86.828 Y111.431 E11.47309
G1 X87.280 Y111.734 E11.52817
G1 X87.743 Y112.130 E11.58994
G1 X88.071 Y112.476 E11.63826
G1 X88.402 Y112.907 E11.69332
G1 X88.684 Y113.371 E11.74834
G1 X88.938 Y113.926 E11.81017
G1 X89.090 Y114.377 E11.85845
G1 X89.213 Y114.927 E11.91555
G1 X89.611 Y114.950 E11.95592
G1 X89.742 Y114.569 E11.99677
G1 X89.959 Y114.168 E12.04296
G1 X90.239 Y113.808 E12.08914
G1 X90.575 Y113.499 E12.13536
G1 X90.956 Y113.250 E12.18152
G1 X91.374 Y113.067 E12.22774
G1 X91.816 Y112.955 E12.27395
G1 X92.270 Y112.917 E12.32014
G1 X92.724 Y112.955 E12.36630
G1 X93.166 Y113.066 E12.41249
G1 X93.584 Y113.250 E12.45870
G1 X93.966 Y113.499 E12.50492
G1 X94.301 Y113.808 E12.55109
G1 X94.581 Y114.168 E12.59730
G1 X94.798 Y114.569 E12.64349
G1 X94.946 Y115.000 E12.68968
G1 X95.021 Y115.450 E12.73588
G1 X95.021 Y115.905 E12.78207
G1 X94.946 Y116.355 E12.82828
G1 X94.798 Y116.787 E12.87447
G1 X94.581 Y117.187 E12.92065
G1 X94.301 Y117.547 E12.96684
G1 X93.966 Y117.856 E13.01306
G1 X93.584 Y118.105 E13.05922
G1 X93.166 Y118.288 E13.10544
G1 X92.724 Y118.400 E13.15165
G1 X92.270 Y118.438 E13.19784
G1 X91.816 Y118.400 E13.24401
G1 X91.374 Y118.289 E13.29019
G1 X90.956 Y118.105 E13.33641
G1 X90.574 Y117.856 E13.38262
G1 X90.239 Y117.547 E13.42878
G1 X89.959 Y117.187 E13.47500
G1 X89.742 Y116.786 E13.52119
G1 X89.627 Y116.451 E13.55717
G1 X89.229 Y116.473 E13.59753
G1 X89.079 Y117.126 E13.66542
G1 X88.927 Y117.578 E13.71369
G1 X88.700 Y118.072 E13.76875
G1 X88.421 Y118.538 E13.82382
G1 X88.048 Y119.020 E13.88561
G1 X87.720 Y119.366 E13.93392
G1 X87.306 Y119.719 E13.98898
G1 X86.857 Y120.024 E14.04402
G1 X86.377 Y120.280 E14.09912
G1 X85.872 Y120.481 E14.15416
G1 X85.349 Y120.627 E14.20922
G1 X85.114 Y120.666 E14.23333
G1 X85.075 Y120.980 E14.26544
G1 X90.511 Y116.827 F7800.000
G1 X90.346 Y116.522 E14.30059 F1800.000
G1 X90.233 Y116.193 E14.33575
G1 X90.176 Y115.851 E14.37091
G1 X90.176 Y115.504 E14.40608
G1 X90.227 Y115.198 E14.43750
G1 X90.346 Y114.833 E14.47636
G1 X90.511 Y114.528 E14.51152
G1 X90.724 Y114.254 E14.54667
G1 X90.980 Y114.019 E14.58184
G1 X91.270 Y113.830 E14.61699
G1 X91.588 Y113.690 E14.65216
G1 X91.924 Y113.605 E14.68733
G1 X92.233 Y113.579 E14.71874
G1 X92.616 Y113.605 E14.75759 F1800.000
G1 X92.952 Y113.690 E14.79275
G1 X93.270 Y113.830 E14.82792
G1 X93.561 Y114.019 E14.86309
G1 X93.816 Y114.254 E14.89824
G1 X94.029 Y114.528 E14.93341
G1 X94.194 Y114.833 E14.96857
G1 X94.307 Y115.162 E15.00373
G1 X94.364 Y115.504 E15.03889
G1 X94.364 Y115.851 E15.07405
G1 X94.313 Y116.157 E15.10547
G1 X94.194 Y116.522 E15.14433
G1 X94.029 Y116.827 E15.17949
G1 X93.816 Y117.101 E15.21465
G1 X93.561 Y117.336 E15.24982
G1 X93.270 Y117.525 E15.28497
G1 X92.986 Y117.650 E15.31639
G1 X92.616 Y117.750 E15.35526
G1 X92.270 Y117.779 E15.39042
G1 X91.924 Y117.750 E15.42557
G1 X91.588 Y117.665 E15.46073
G1 X91.270 Y117.525 E15.49590
G1 X90.980 Y117.336 E15.53107
G1 X90.724 Y117.101 E15.56622
G1 X90.557 Y116.886 E15.59379
G1 F1800.000 E10.59379
G92 E0
G1 X92.526 Y113.827 F7800.000
G1 X78.365 Y115.967 F7800.000
G1 E5.00000 F1800.000
G1 X78.307 Y116.310 E5.03516 F1800.000
G1 X78.195 Y116.638 E5.07032
G1 X78.030 Y116.943 E5.10548
G1 X77.816 Y117.217 E5.14065
G1 X77.561 Y117.452 E5.17582
G1 X77.271 Y117.642 E5.21097
G1 X76.953 Y117.781 E5.24613
G1 X76.616 Y117.866 E5.28130
G1 X76.271 Y117.895 E5.31646
G1 X75.925 Y117.866 E5.35161
G1 X75.588 Y117.781 E5.38677
G1 X75.270 Y117.642 E5.42194
G1 X74.980 Y117.452 E5.45710
G1 X74.725 Y117.217 E5.49225
G1 X74.512 Y116.943 E5.52742
G1 X74.346 Y116.638 E5.56258
G1 X74.234 Y116.310 E5.59775
G1 X74.177 Y115.967 E5.63290
G1 X74.177 Y115.620 E5.66807
G1 X74.234 Y115.278 E5.70323
G1 X74.346 Y114.950 E5.73838
G1 X74.511 Y114.645 E5.77355
G1 X74.725 Y114.371 E5.80871
G1 X74.980 Y114.136 E5.84388
G1 X75.270 Y113.946 E5.87903
G1 X75.588 Y113.807 E5.91420
G1 X75.925 Y113.721 E5.94937
G1 X76.234 Y113.696 E5.98078
G1 X76.616 Y113.721 E6.01963 F1800.000
G1 X76.953 Y113.806 E6.05479
G1 X77.271 Y113.946 E6.08996
G1 X77.561 Y114.136 E6.12512
G1 X77.816 Y114.371 E6.16027
G1 X78.030 Y114.645 E6.19544
G1 X78.195 Y114.950 E6.23061
G1 X78.307 Y115.278 E6.26577
G1 X78.365 Y115.620 E6.30093
G1 X78.365 Y115.892 E6.32849
G1 F1800.000 E1.32849
G92 E0
G1 X76.601 Y113.805 F7800.000
G1 X82.922 Y109.394 F7800.000
G1 E5.00000 F1800.000
G1 X82.666 Y109.159 E5.03515 F1800.000
G1 X82.453 Y108.885 E5.07032
G1 X82.288 Y108.580 E5.10548
G1 X82.187 Y108.287 E5.13690
G1 X82.118 Y107.909 E5.17576
G1 X82.118 Y107.562 E5.21092
G1 X82.175 Y107.220 E5.24609
G1 X82.288 Y106.892 E5.28124
G1 X82.453 Y106.587 E5.31641
G1 X82.666 Y106.313 E5.35157
G1 X82.922 Y106.078 E5.38674
G1 X83.212 Y105.888 E5.42189
G1 X83.530 Y105.749 E5.45705
G1 X83.866 Y105.663 E5.49222
G1 X84.175 Y105.638 E5.52363
G1 X84.558 Y105.663 E5.56249 F1800.000
G1 X84.894 Y105.749 E5.59764
G1 X85.212 Y105.888 E5.63281
G1 X85.503 Y106.078 E5.66798
G1 X85.758 Y106.313 E5.70313
G1 X85.971 Y106.587 E5.73829
G1 X86.119 Y106.859 E5.76972
G1 X86.249 Y107.220 E5.80858
G1 X86.306 Y107.562 E5.84374
G1 X86.306 Y107.909 E5.87890
G1 X86.249 Y108.252 E5.91406
G1 X86.136 Y108.580 E5.94921
G1 X85.971 Y108.885 E5.98438
G1 X85.758 Y109.159 E6.01955
G1 X85.503 Y109.394 E6.05472
G1 X85.212 Y109.584 E6.08986
G1 X84.894 Y109.723 E6.12503
G1 X84.558 Y109.808 E6.16020
G1 X84.249 Y109.834 E6.19161
G1 X83.866 Y109.808 E6.23046
G1 X83.530 Y109.723 E6.26562
G1 X83.212 Y109.584 E6.30079
G1 X82.984 Y109.435 E6.32835
G1 F1800.000 E1.32835
G92 E0
G1 X84.481 Y105.869 F7800.000
G1 X83.349 Y111.484 F7800.000
G1 E5.00000 F1800.000
G1 X83.815 Y111.410 E5.04778 F1800.000
G1 X84.255 Y111.386 E5.09241
G1 X84.726 Y111.410 E5.14018 F1800.000
G1 X85.191 Y111.484 E5.18796
G1 X85.676 Y111.619 E5.23888
G1 X86.085 Y111.782 E5.28351
G1 X86.502 Y112.002 E5.33129
G1 X86.893 Y112.265 E5.37907
G1 X87.253 Y112.569 E5.42684
G1 X87.579 Y112.911 E5.47463
G1 X87.865 Y113.286 E5.52241
G1 X88.123 Y113.717 E5.57332
G1 X88.308 Y114.117 E5.61796
G1 X88.460 Y114.563 E5.66573
G1 X88.562 Y115.024 E5.71352
G1 X88.614 Y115.492 E5.76129
G1 X88.615 Y115.964 E5.80907
G1 X88.564 Y116.433 E5.85685
G1 X88.454 Y116.923 E5.90779
G1 X88.314 Y117.340 E5.95240
G1 X88.116 Y117.769 E6.00018
G1 X87.874 Y118.173 E6.04797
G1 X87.589 Y118.549 E6.09575
G1 X87.265 Y118.892 E6.14353
G1 X86.906 Y119.197 E6.19132
G1 X86.488 Y119.477 E6.24223
G1 X86.099 Y119.683 E6.28687
G1 X85.661 Y119.858 E6.33465
G1 X85.206 Y119.984 E6.38243
G1 X84.741 Y120.061 E6.43021
G1 X84.270 Y120.086 E6.47798
G1 X83.800 Y120.061 E6.52575
G1 X83.334 Y119.984 E6.57353
G1 X82.910 Y119.866 E6.61816
G1 X82.442 Y119.683 E6.66907
G1 X82.025 Y119.462 E6.71687
G1 X81.635 Y119.197 E6.76464
G1 X81.276 Y118.892 E6.81243
G1 X80.952 Y118.549 E6.86021
G1 X80.667 Y118.173 E6.90799
G1 X80.440 Y117.796 E6.95262
G1 X80.227 Y117.341 E7.00354
G1 X80.077 Y116.894 E7.05131
G1 X79.976 Y116.433 E7.09910
G1 X79.926 Y115.964 E7.14689
G1 X79.927 Y115.492 E7.19467
G1 X79.979 Y115.024 E7.24244
G1 X80.074 Y114.593 E7.28708
G1 X80.233 Y114.117 E7.33799
G1 X80.432 Y113.689 E7.38578
G1 X80.676 Y113.286 E7.43355
G1 X80.962 Y112.911 E7.48133
G1 X81.265 Y112.591 E7.52596
G1 X81.648 Y112.265 E7.57688
G1 X82.039 Y112.002 E7.62467
G1 X82.456 Y111.782 E7.67244
G1 X82.895 Y111.609 E7.72022
G1 X83.277 Y111.503 E7.76040
G1 X84.499 Y111.789 F7800.000
G1 F1800.000 E2.76040
G92 E0
G1 X84.192 Y121.646 F7800.000
G1 E5.00000 F1800.000
G1 X84.292 Y121.637 E5.01018 F1800.000
G1 X84.674 Y121.663 E5.04903 F1800.000
G1 X85.011 Y121.748 E5.08420
G1 X85.329 Y121.888 E5.11936
G1 X85.619 Y122.077 E5.15452
G1 X85.874 Y122.312 E5.18968
G1 X86.088 Y122.586 E5.22485
G1 X86.253 Y122.891 E5.26001
G1 X86.353 Y123.185 E5.29143
G1 X86.423 Y123.562 E5.33028
G1 X86.423 Y123.909 E5.36545
G1 X86.365 Y124.251 E5.40061
G1 X86.253 Y124.580 E5.43577
G1 X86.088 Y124.885 E5.47093
G1 X85.874 Y125.159 E5.50610
G1 X85.619 Y125.394 E5.54126
G1 X85.359 Y125.563 E5.57267
G1 X85.011 Y125.723 E5.61153
G1 X84.674 Y125.808 E5.64669
G1 X84.328 Y125.837 E5.68186
G1 X83.983 Y125.808 E5.71701
G1 X83.646 Y125.723 E5.75218
G1 X83.328 Y125.583 E5.78734
G1 X83.038 Y125.394 E5.82249
G1 X82.783 Y125.159 E5.85766
