; generated by Slic3r 1.1.7 on 2014-11-01 at 23:00:31

; perimeters extrusion width = 0.50mm
; infill extrusion width = 1.02mm
; solid infill extrusion width = 0.85mm
; top infill extrusion width = 0.85mm

G21 ; set units to millimeters
M107
M190 S35 ; wait for bed temperature to be reached
M104 S210 ; set temperature
G28 ; home all axes
G1 Z5 F200; lift nozzle


M109 S210 ; wait for temperature to be reached
G90 ; use absolute coordinates
G92 E0
M82 ; use absolute distances for extrusion
G1 F1800.000 E-5.00000
G92 E0
G1 Z0.350 F7800.000
G1 X48.163 Y55.586 F7800.000
G1 E5.00000 F1800.000
G1 X49.198 Y54.718 E5.13693 F2700.000
G1 X49.692 Y54.367 E5.19829
G1 X50.353 Y53.950 E5.27749
G1 X50.883 Y53.657 E5.33886
G1 X51.587 Y53.316 E5.41808
G1 X52.884 Y52.824 E5.55859
G1 X53.466 Y52.656 E5.61999
G1 X54.227 Y52.480 E5.69915
G1 X55.601 Y52.289 E5.83968
G1 X56.614 Y52.243 E5.94244
G1 X143.759 Y52.253 E14.77206
G1 X144.364 Y52.287 E14.83346 F2700.000
G1 X145.141 Y52.373 E14.91263
G1 X145.738 Y52.474 E14.97403
G1 X146.501 Y52.646 E15.05319
G1 X147.821 Y53.070 E15.19370
G1 X148.381 Y53.302 E15.25510
G1 X149.086 Y53.640 E15.33429
G1 X149.616 Y53.933 E15.39567
G1 X150.279 Y54.347 E15.47486
G1 X151.385 Y55.183 E15.61533
G1 X152.390 Y56.137 E15.75582
G1 X153.283 Y57.199 E15.89641
G1 X153.634 Y57.693 E15.95777
G1 X154.051 Y58.354 E16.03698
G1 X154.344 Y58.884 E16.09836
G1 X154.685 Y59.588 E16.17755
G1 X155.177 Y60.884 E16.31806
G1 X155.521 Y62.228 E16.45859
G1 X155.622 Y62.825 E16.51996
G1 X155.712 Y63.602 E16.59916
G1 X155.758 Y64.615 E16.70191
G1 X155.748 Y135.758 E23.91020
G1 X155.714 Y136.363 E23.97156
G1 X155.628 Y137.140 E24.05077
G1 X155.355 Y138.500 E24.19129
G1 X155.187 Y139.082 E24.25268
G1 X154.931 Y139.820 E24.33185
G1 X154.361 Y141.085 E24.47238
G1 X154.068 Y141.615 E24.53376
G1 X153.654 Y142.278 E24.61295
G1 X152.818 Y143.384 E24.75346
G1 X151.863 Y144.390 E24.89397
G1 X150.802 Y145.282 E25.03450
G1 X150.307 Y145.633 E25.09588
G1 X149.647 Y146.050 E25.17507
G1 X148.413 Y146.684 E25.31559
G1 X147.853 Y146.916 E25.37700
G1 X147.117 Y147.176 E25.45616
G1 X146.535 Y147.344 E25.51751
G1 X145.773 Y147.520 E25.59673
G1 X145.175 Y147.621 E25.65812
G1 X144.399 Y147.711 E25.73730
G1 X143.794 Y147.745 E25.79867
G1 X56.241 Y147.747 E34.66967
G1 X54.859 Y147.627 E34.81018
G1 X54.262 Y147.526 E34.87154
G1 X53.499 Y147.354 E34.95076
G1 X52.917 Y147.186 E35.01213
G1 X52.179 Y146.930 E35.09132
G1 X50.914 Y146.360 E35.23185
G1 X49.721 Y145.653 E35.37236
G1 X48.615 Y144.817 E35.51288
G1 X47.609 Y143.862 E35.65341
G1 X46.717 Y142.801 E35.79392
G1 X46.366 Y142.307 E35.85529
G1 X45.949 Y141.646 E35.93449
G1 X45.315 Y140.412 E36.07502
G1 X44.823 Y139.116 E36.21552
G1 X44.655 Y138.533 E36.27693
G1 X44.479 Y137.772 E36.35610
G1 X44.288 Y136.398 E36.49661
G1 X44.242 Y135.385 E36.59938
G1 X44.252 Y64.242 E43.80766
G1 X44.286 Y63.637 E43.86906
G1 X44.372 Y62.860 E43.94823
G1 X44.473 Y62.262 E44.00965
G1 X44.645 Y61.500 E44.08881
G1 X45.069 Y60.180 E44.22931
G1 X45.301 Y59.620 E44.29074
G1 X45.639 Y58.915 E44.36989
G1 X46.346 Y57.722 E44.51041
G1 X47.182 Y56.616 E44.65092
G1 X48.110 Y55.639 E44.78743
G1 F1800.000 E39.78743
G92 E0
G1 X57.913 Y137.064 F7800.000
G1 E5.00000 F1800.000
G1 X57.465 Y137.411 E5.05736 F1350.000
G1 X56.957 Y137.660 E5.11472
G1 X56.409 Y137.802 E5.17209
G1 X55.843 Y137.831 E5.22946
G1 X55.284 Y137.745 E5.28682
G1 X54.753 Y137.548 E5.34419
G1 X54.272 Y137.249 E5.40156
G1 X53.862 Y136.859 E5.45893
G1 X53.608 Y136.494 E5.50390
G1 X53.538 Y136.394 E5.51629
G1 X53.315 Y135.874 E5.57365
G1 X53.201 Y135.319 E5.63102
G1 X53.201 Y134.753 E5.68839
G1 X53.315 Y134.198 E5.74575
G1 X53.490 Y133.790 E5.79072
G1 X53.538 Y133.678 E5.80312
G1 X53.862 Y133.213 E5.86048
G1 X54.272 Y132.823 E5.91785
G1 X54.753 Y132.524 E5.97521
G1 X55.283 Y132.327 E6.03257
G1 X55.843 Y132.241 E6.08994
G1 X56.286 Y132.264 E6.13492
G1 X56.409 Y132.270 E6.14731 F1350.000
G1 X56.957 Y132.412 E6.20468
G1 X57.465 Y132.661 E6.26204
G1 X57.913 Y133.008 E6.31941
G1 X58.282 Y133.437 E6.37677
G1 X58.556 Y133.933 E6.43415
G1 X58.726 Y134.473 E6.49152
G1 X58.783 Y135.036 E6.54887
G1 X58.726 Y135.599 E6.60624
G1 X58.556 Y136.139 E6.66360
G1 X58.282 Y136.634 E6.72096
G1 X57.962 Y137.007 E6.77074
G1 X57.458 Y136.585 F7800.000
G1 X57.116 Y136.850 E6.81456 F945.000
G1 X56.727 Y137.041 E6.85839
G1 X56.362 Y137.135 E6.89659
G1 X55.877 Y137.171 E6.94594
G1 X55.449 Y137.105 E6.98976
G1 X55.043 Y136.955 E7.03359
G1 X54.676 Y136.726 E7.07742
G1 X54.363 Y136.428 E7.12124
G1 X54.116 Y136.073 E7.16507
G1 X53.945 Y135.676 E7.20889
G1 X53.869 Y135.307 E7.24710
G1 X53.858 Y134.820 E7.29644
G1 X53.945 Y134.396 E7.34027
G1 X54.116 Y133.998 E7.38409
G1 X54.363 Y133.643 E7.42792
G1 X54.676 Y133.345 E7.47174
G1 X55.043 Y133.117 E7.51557
G1 X55.449 Y132.966 E7.55939
G1 X55.822 Y132.909 E7.59760
G1 X56.309 Y132.923 E7.64694 F945.000
G1 X56.727 Y133.031 E7.69077
G1 X57.116 Y133.222 E7.73459
G1 X57.458 Y133.487 E7.77842
G1 X57.739 Y133.815 E7.82225
G1 X57.949 Y134.193 E7.86608
G1 X58.079 Y134.606 E7.90990
G1 X58.123 Y135.036 E7.95372
G1 X58.079 Y135.466 E7.99755
G1 X57.949 Y135.879 E8.04138
G1 X57.739 Y136.257 E8.08520
G1 X57.507 Y136.528 E8.12143
G1 F1800.000 E3.12143
G92 E0
G1 X55.747 Y132.428 F7800.000
G1 X56.203 Y111.840 F7800.000
G1 E5.00000 F1800.000
G1 X55.843 Y111.859 E5.03647 F1350.000
G1 X55.284 Y111.773 E5.09383
G1 X54.753 Y111.576 E5.15120
G1 X54.272 Y111.277 E5.20856
G1 X53.862 Y110.887 E5.26593
G1 X53.538 Y110.422 E5.32329
G1 X53.315 Y109.902 E5.38066
G1 X53.201 Y109.347 E5.43803
G1 X53.201 Y108.781 E5.49539
G1 X53.315 Y108.226 E5.55275
G1 X53.538 Y107.706 E5.61013
G1 X53.862 Y107.241 E5.66749
G1 X54.272 Y106.851 E5.72485
G1 X54.753 Y106.552 E5.78222
G1 X55.283 Y106.355 E5.83958
G1 X55.843 Y106.269 E5.89695
G1 X56.286 Y106.292 E5.94192
G1 X56.409 Y106.298 E5.95432 F1350.000
G1 X56.957 Y106.440 E6.01169
G1 X57.465 Y106.689 E6.06905
G1 X57.913 Y107.036 E6.12642
G1 X58.282 Y107.465 E6.18377
G1 X58.556 Y107.961 E6.24115
G1 X58.726 Y108.501 E6.29852
G1 X58.783 Y109.064 E6.35588
G1 X58.726 Y109.627 E6.41325
G1 X58.556 Y110.168 E6.47061
G1 X58.282 Y110.663 E6.52797
G1 X57.913 Y111.092 E6.58535
G1 X57.465 Y111.439 E6.64271
G1 X56.957 Y111.688 E6.70008
G1 X56.409 Y111.830 E6.75744
G1 X56.278 Y111.837 E6.77074
G1 X56.169 Y111.184 F7800.000
G1 X55.877 Y111.199 E6.80044 F945.000
G1 X55.449 Y111.134 E6.84426
G1 X55.043 Y110.983 E6.88809
G1 X54.676 Y110.755 E6.93191
G1 X54.363 Y110.457 E6.97574
G1 X54.116 Y110.102 E7.01956
G1 X53.945 Y109.704 E7.06339
G1 X53.858 Y109.280 E7.10722
G1 X53.858 Y108.848 E7.15104
G1 X53.945 Y108.424 E7.19487
G1 X54.116 Y108.027 E7.23869
G1 X54.363 Y107.672 E7.28252
G1 X54.676 Y107.374 E7.32634
G1 X55.043 Y107.145 E7.37017
G1 X55.449 Y106.995 E7.41399
G1 X55.822 Y106.937 E7.45220
G1 X56.309 Y106.951 E7.50154 F945.000
G1 X56.727 Y107.059 E7.54537
G1 X57.116 Y107.250 E7.58919
G1 X57.458 Y107.515 E7.63302
G1 X57.739 Y107.843 E7.67684
G1 X57.949 Y108.221 E7.72067
G1 X58.079 Y108.634 E7.76450
G1 X58.123 Y109.064 E7.80832
G1 X58.079 Y109.494 E7.85215
G1 X57.949 Y109.907 E7.89597
G1 X57.739 Y110.285 E7.93980
G1 X57.458 Y110.614 E7.98363
G1 X57.116 Y110.878 E8.02745
G1 X56.727 Y111.069 E8.07128
G1 X56.244 Y111.180 E8.12152
G1 F1800.000 E3.12152
G92 E0
G1 X55.796 Y106.451 F7800.000
G1 X70.509 Y109.414 F7800.000
G1 E5.00000 F1800.000
G1 X70.509 Y108.714 E5.07090 F1350.000
G1 X70.649 Y108.029 E5.14179
G1 X70.925 Y107.386 E5.21271
G1 X71.325 Y106.811 E5.28362
G1 X71.832 Y106.329 E5.35452
G1 X72.426 Y105.959 E5.42543
G1 X73.082 Y105.716 E5.49633
G1 X73.774 Y105.610 E5.56724
G1 X74.284 Y105.636 E5.61898
G1 X74.473 Y105.645 E5.63815 F1350.000
G1 X75.151 Y105.821 E5.70905
G1 X75.779 Y106.129 E5.77995
G1 X76.332 Y106.557 E5.85087
G1 X76.788 Y107.088 E5.92176
G1 X77.128 Y107.700 E5.99268
G1 X77.337 Y108.368 E6.06360
G1 X77.408 Y109.064 E6.13449
G1 X77.337 Y109.760 E6.20540
G1 X77.128 Y110.428 E6.27629
G1 X76.788 Y111.040 E6.34720
G1 X76.332 Y111.571 E6.41812
G1 X75.779 Y111.999 E6.48902
G1 X75.151 Y112.307 E6.55994
G1 X74.473 Y112.483 E6.63083
G1 X73.774 Y112.518 E6.70174
G1 X73.083 Y112.412 E6.77264
G1 X72.426 Y112.169 E6.84356
G1 X71.832 Y111.799 E6.91446
G1 X71.325 Y111.317 E6.98536
G1 X70.925 Y110.743 E7.05627
G1 X70.649 Y110.100 E7.12717
G1 X70.524 Y109.487 E7.19049
G1 X71.166 Y109.347 F7800.000
G1 X71.166 Y108.781 E7.24785 F1350.000
G1 X71.280 Y108.226 E7.30521
G1 X71.503 Y107.706 E7.36258
G1 X71.826 Y107.241 E7.41995
G1 X72.237 Y106.851 E7.47731
G1 X72.717 Y106.552 E7.53468
G1 X73.248 Y106.355 E7.59204
G1 X73.687 Y106.288 E7.63701
G1 X73.808 Y106.269 E7.64941 F1350.000
G1 X74.373 Y106.298 E7.70677
G1 X74.921 Y106.440 E7.76414
G1 X75.430 Y106.689 E7.82150
G1 X75.877 Y107.036 E7.87887
G1 X76.246 Y107.465 E7.93623
G1 X76.521 Y107.961 E7.99361
G1 X76.654 Y108.384 E8.03858
G1 X76.690 Y108.501 E8.05098
G1 X76.748 Y109.064 E8.10834
G1 X76.690 Y109.627 E8.16570
G1 X76.521 Y110.168 E8.22306
G1 X76.246 Y110.663 E8.28043
G1 X75.877 Y111.092 E8.33780
G1 X75.526 Y111.364 E8.38277
G1 X75.430 Y111.439 E8.39517
G1 X74.921 Y111.688 E8.45254
G1 X74.373 Y111.830 E8.50990
G1 X73.808 Y111.859 E8.56726
G1 X73.248 Y111.773 E8.62462
G1 X72.717 Y111.576 E8.68200
G1 X72.237 Y111.277 E8.73936
G1 X71.826 Y110.887 E8.79673
G1 X71.503 Y110.422 E8.85409
G1 X71.280 Y109.902 E8.91145
G1 X71.181 Y109.421 E8.96123
G1 X71.823 Y109.280 F7800.000
G1 X71.823 Y108.848 E9.00505 F945.000
G1 X71.910 Y108.424 E9.04888
G1 X72.080 Y108.027 E9.09270
G1 X72.327 Y107.672 E9.13653
G1 X72.641 Y107.374 E9.18035
G1 X73.008 Y107.145 E9.22418
G1 X73.414 Y106.995 E9.26800
G1 X73.841 Y106.929 E9.31183
G1 X74.218 Y106.948 E9.35003
G1 X74.692 Y107.059 E9.39938 F945.000
G1 X75.080 Y107.250 E9.44321
G1 X75.422 Y107.515 E9.48703
G1 X75.704 Y107.843 E9.53086
G1 X75.914 Y108.221 E9.57468
G1 X76.043 Y108.634 E9.61851
G1 X76.087 Y109.064 E9.66233
G1 X76.043 Y109.494 E9.70616
G1 X75.914 Y109.907 E9.74998
G1 X75.704 Y110.285 E9.79381
G1 X75.422 Y110.614 E9.83764
G1 X75.080 Y110.878 E9.88146
G1 X74.692 Y111.069 E9.92529
G1 X74.273 Y111.177 E9.96911
G1 X73.841 Y111.199 E10.01294
G1 X73.414 Y111.134 E10.05676
G1 X73.008 Y110.983 E10.10059
G1 X72.641 Y110.755 E10.14442
G1 X72.327 Y110.457 E10.18824
G1 X72.080 Y110.102 E10.23207
G1 X71.910 Y109.704 E10.27589
G1 X71.838 Y109.354 E10.31212
G1 F1800.000 E5.31212
G92 E0
G1 X74.401 Y106.497 F7800.000
G1 X89.130 Y109.280 F7800.000
G1 E5.00000 F1800.000
G1 X89.130 Y108.781 E5.05059 F1350.000
G1 X89.244 Y108.226 E5.10795
G1 X89.467 Y107.706 E5.16533
G1 X89.791 Y107.241 E5.22270
G1 X90.201 Y106.851 E5.28006
G1 X90.682 Y106.552 E5.33742
G1 X91.213 Y106.355 E5.39478
G1 X91.772 Y106.269 E5.45215
G1 X92.216 Y106.292 E5.49712
G1 X92.338 Y106.298 E5.50952 F1350.000
G1 X92.886 Y106.440 E5.56689
G1 X93.394 Y106.689 E5.62425
G1 X93.842 Y107.036 E5.68162
G1 X94.131 Y107.373 E5.72659
G1 X94.211 Y107.466 E5.73899
G1 X94.486 Y107.961 E5.79636
G1 X94.655 Y108.501 E5.85372
G1 X94.712 Y109.064 E5.91108
G1 X94.655 Y109.627 E5.96845
G1 X94.486 Y110.168 E6.02582
G1 X94.211 Y110.663 E6.08317
G1 X93.842 Y111.092 E6.14054
G1 X93.394 Y111.439 E6.19791
G1 X92.886 Y111.688 E6.25528
G1 X92.338 Y111.830 E6.31265
G1 X91.895 Y111.853 E6.35762
G1 X91.772 Y111.859 E6.37001
G1 X91.213 Y111.773 E6.42737
G1 X90.682 Y111.576 E6.48475
G1 X90.201 Y111.277 E6.54211
G1 X89.791 Y110.887 E6.59947
G1 X89.468 Y110.422 E6.65683
G1 X89.244 Y109.902 E6.71420
G1 X89.132 Y109.355 E6.77074
G1 X89.787 Y109.280 F7800.000
G1 X89.787 Y108.848 E6.81457 F945.000
G1 X89.874 Y108.424 E6.85839
G1 X90.045 Y108.027 E6.90222
G1 X90.292 Y107.672 E6.94604
G1 X90.606 Y107.374 E6.98987
G1 X90.973 Y107.145 E7.03369
G1 X91.378 Y106.995 E7.07752
G1 X91.751 Y106.937 E7.11572
G1 X92.238 Y106.951 E7.16507 F945.000
G1 X92.657 Y107.059 E7.20890
G1 X93.045 Y107.250 E7.25272
G1 X93.387 Y107.515 E7.29655
G1 X93.669 Y107.843 E7.34037
G1 X93.879 Y108.221 E7.38420
G1 X94.008 Y108.634 E7.42802
G1 X94.052 Y109.064 E7.47185
G1 X94.008 Y109.494 E7.51567
G1 X93.895 Y109.854 E7.55388
G1 X93.669 Y110.285 E7.60322
G1 X93.387 Y110.613 E7.64705
G1 X93.089 Y110.844 E7.68525
G1 X92.657 Y111.069 E7.73460
G1 X92.238 Y111.177 E7.77842
G1 X91.861 Y111.196 E7.81663
G1 X91.378 Y111.134 E7.86597
G1 X90.973 Y110.983 E7.90980
G1 X90.606 Y110.755 E7.95362
G1 X90.292 Y110.457 E7.99745
G1 X90.045 Y110.102 E8.04127
G1 X89.874 Y109.704 E8.08510
G1 X89.802 Y109.354 E8.12133
G1 F1800.000 E3.12133
G92 E0
G1 X91.856 Y106.462 F7800.000
G1 X91.772 Y132.241 F7800.000
G1 E5.00000 F1800.000
G1 X92.216 Y132.264 E5.04497 F1350.000
G1 X92.338 Y132.270 E5.05736 F1350.000
G1 X92.886 Y132.412 E5.11473
G1 X93.394 Y132.661 E5.17209
G1 X93.842 Y133.008 E5.22946
G1 X94.211 Y133.437 E5.28683
G1 X94.486 Y133.933 E5.34420
G1 X94.655 Y134.473 E5.40156
G1 X94.712 Y135.036 E5.45893
G1 X94.655 Y135.599 E5.51630
G1 X94.486 Y136.139 E5.57366
G1 X94.211 Y136.634 E5.63102
G1 X93.842 Y137.064 E5.68839
G1 X93.394 Y137.411 E5.74576
G1 X92.886 Y137.660 E5.80312
G1 X92.338 Y137.802 E5.86049
G1 X91.772 Y137.831 E5.91785
G1 X91.213 Y137.745 E5.97522
G1 X90.682 Y137.548 E6.03258
G1 X90.201 Y137.249 E6.08995
G1 X89.880 Y136.943 E6.13493
G1 X89.791 Y136.859 E6.14732
G1 X89.468 Y136.394 E6.20468
G1 X89.244 Y135.874 E6.26205
G1 X89.130 Y135.319 E6.31942
G1 X89.130 Y134.753 E6.37678
G1 X89.244 Y134.198 E6.43414
G1 X89.467 Y133.678 E6.49151
G1 X89.791 Y133.213 E6.54888
G1 X90.201 Y132.823 E6.60625
G1 X90.682 Y132.524 E6.66361
G1 X91.213 Y132.327 E6.72097
G1 X91.698 Y132.253 E6.77074
G1 X91.806 Y132.901 F7800.000
G1 X92.238 Y132.923 E6.81457 F945.000
G1 X92.657 Y133.031 E6.85839
G1 X93.045 Y133.222 E6.90222
G1 X93.387 Y133.487 E6.94604
G1 X93.669 Y133.815 E6.98987
G1 X93.879 Y134.193 E7.03370
G1 X94.008 Y134.606 E7.07752
G1 X94.052 Y135.036 E7.12135
G1 X94.008 Y135.466 E7.16517
G1 X93.895 Y135.826 E7.20338
G1 X93.669 Y136.257 E7.25272
G1 X93.387 Y136.585 E7.29655
G1 X93.045 Y136.850 E7.34037
G1 X92.657 Y137.041 E7.38420
G1 X92.238 Y137.149 E7.42803
G1 X91.806 Y137.171 E7.47185
G1 X91.378 Y137.105 E7.51568
G1 X90.973 Y136.955 E7.55950
G1 X90.606 Y136.726 E7.60333
G1 X90.292 Y136.428 E7.64715
G1 X90.045 Y136.073 E7.69098
G1 X89.874 Y135.676 E7.73480
G1 X89.787 Y135.252 E7.77863
G1 X89.787 Y134.820 E7.82246
G1 X89.874 Y134.396 E7.86628
G1 X90.045 Y133.998 E7.91011
G1 X90.292 Y133.643 E7.95394
G1 X90.606 Y133.345 E7.99776
G1 X90.973 Y133.117 E8.04159
G1 X91.378 Y132.966 E8.08541
G1 X91.732 Y132.912 E8.12164
G1 X92.016 Y132.523 F7800.000
G1 X77.341 Y134.372 F7800.000
G1 X77.408 Y135.036 E8.18929 F1350.000
G1 X77.337 Y135.732 E8.26020
G1 X77.128 Y136.400 E8.33110
G1 X76.788 Y137.012 E8.40200
G1 X76.456 Y137.399 E8.45376
G1 X76.332 Y137.543 E8.47292
G1 X75.779 Y137.971 E8.54382
G1 X75.151 Y138.279 E8.61472
G1 X74.473 Y138.455 E8.68563
G1 X73.774 Y138.490 E8.75654
G1 X73.083 Y138.384 E8.82744
G1 X72.426 Y138.141 E8.89834
G1 X71.832 Y137.771 E8.96925
G1 X71.325 Y137.289 E9.04017
G1 X71.033 Y136.870 E9.09191
G1 X70.925 Y136.714 E9.11108
G1 X70.649 Y136.071 E9.18197
G1 X70.509 Y135.386 E9.25289
G1 X70.509 Y134.686 E9.32378
G1 X70.649 Y134.001 E9.39468
G1 X70.925 Y133.357 E9.46560
G1 X71.325 Y132.783 E9.53650
G1 X71.832 Y132.301 E9.60740
G1 X72.426 Y131.931 E9.67831
G1 X73.082 Y131.688 E9.74921
G1 X73.774 Y131.582 E9.82012
G1 X74.284 Y131.608 E9.87187
G1 X74.473 Y131.617 E9.89103 F1350.000
G1 X75.151 Y131.793 E9.96194
G1 X75.779 Y132.101 E10.03284
G1 X76.332 Y132.529 E10.10375
G1 X76.788 Y133.060 E10.17465
G1 X77.128 Y133.672 E10.24557
G1 X77.325 Y134.299 E10.31212
G1 X76.690 Y134.473 F7800.000
G1 X76.748 Y135.036 E10.36948 F1350.000
G1 X76.703 Y135.478 E10.41445
G1 X76.690 Y135.599 E10.42685
G1 X76.521 Y136.139 E10.48421
G1 X76.246 Y136.634 E10.54157
G1 X75.957 Y136.971 E10.58655
G1 X75.877 Y137.064 E10.59895
G1 X75.430 Y137.411 E10.65631
G1 X74.921 Y137.660 E10.71367
G1 X74.373 Y137.802 E10.77104
G1 X73.808 Y137.831 E10.82841
G1 X73.248 Y137.745 E10.88577
G1 X72.717 Y137.548 E10.94313
G1 X72.237 Y137.249 E11.00050
G1 X71.826 Y136.859 E11.05788
G1 X71.573 Y136.494 E11.10285
G1 X71.503 Y136.394 E11.11524
G1 X71.280 Y135.874 E11.17260
