; generated by Slic3r 1.1.7 on 2014-11-01 at 18:36:56

; perimeters extrusion width = 0.50mm
; infill extrusion width = 0.70mm
; solid infill extrusion width = 0.70mm
; top infill extrusion width = 0.70mm

G21 ; set units to millimeters
M107
M190 S35 ; wait for bed temperature to be reached
M104 S210 ; set temperature
G28 ; home all axes
G1 Z5 F200; lift nozzle


M109 S210 ; wait for temperature to be reached
G90 ; use absolute coordinates
G92 E0
M82 ; use absolute distances for extrusion
G1 F1800.000 E-5.00000
G92 E0
G1 Z0.350 F7800.000
G1 X86.400 Y86.406 F7800.000
G1 E5.00000 F1800.000
G1 X102.206 Y70.601 E7.26477 F2700.000
G1 X102.817 Y70.026 E7.34979
G1 X103.452 Y69.477 E7.43480
G1 X104.110 Y68.957 E7.51978
G1 X104.790 Y68.466 E7.60479
G1 X105.491 Y68.005 E7.68979
G1 X106.212 Y67.576 E7.77480
G1 X106.950 Y67.178 E7.85979
G1 X107.705 Y66.812 E7.94480
G1 X108.476 Y66.480 E8.02980
G1 X109.260 Y66.182 E8.11481
G1 X110.255 Y65.861 E8.22071
G1 X110.864 Y65.690 E8.28478
G1 X111.680 Y65.496 E8.36982
G1 X112.504 Y65.339 E8.45478
G1 X113.334 Y65.218 E8.53980
G1 X114.169 Y65.133 E8.62480
G1 X115.006 Y65.084 E8.70981
G1 X115.845 Y65.072 E8.79480
G1 X116.684 Y65.097 E8.87982
G1 X117.520 Y65.158 E8.96481 F2700.000
G1 X118.558 Y65.287 E9.07074
G1 X119.182 Y65.389 E9.13479
G1 X120.004 Y65.559 E9.21982
G1 X120.817 Y65.765 E9.30481
G1 X121.816 Y66.072 E9.41072
G1 X122.413 Y66.281 E9.47480
G1 X123.192 Y66.591 E9.55981
G1 X123.958 Y66.935 E9.64480
G1 X124.888 Y67.411 E9.75072
G1 X125.440 Y67.721 E9.81478
G1 X126.154 Y68.161 E9.89980
G1 X126.848 Y68.633 E9.98479
G1 X127.681 Y69.263 E10.09071
G1 X128.171 Y69.664 E10.15479
G1 X128.797 Y70.222 E10.23979
G1 X129.399 Y70.806 E10.32479
G1 X130.111 Y71.572 E10.43071
G1 X130.523 Y72.052 E10.49479
G1 X131.043 Y72.710 E10.57979
G1 X131.534 Y73.390 E10.66479
G1 X131.995 Y74.091 E10.74979
G1 X132.524 Y74.993 E10.85570
G1 X132.822 Y75.550 E10.91979
G1 X133.188 Y76.306 E11.00479
G1 X133.520 Y77.076 E11.08978
G1 X133.818 Y77.860 E11.17479
G1 X134.082 Y78.657 E11.25980
G1 X134.359 Y79.664 E11.36570
G1 X134.504 Y80.280 E11.42979
G1 X134.661 Y81.104 E11.51479
G1 X134.782 Y81.934 E11.59979
G1 X134.881 Y82.975 E11.70570
G1 X134.916 Y83.606 E11.76978
G1 X134.928 Y84.445 E11.85478
G1 X134.903 Y85.284 E11.93979
G1 X134.842 Y86.121 E12.02479
G1 X134.745 Y86.954 E12.10979
G1 X134.611 Y87.782 E12.19479
G1 X134.392 Y88.804 E12.30070
G1 X134.235 Y89.417 E12.36478
G1 X133.994 Y90.220 E12.44978
G1 X133.719 Y91.013 E12.53479
G1 X133.326 Y91.981 E12.64070
G1 X133.065 Y92.558 E12.70477
G1 X132.688 Y93.307 E12.78979
G1 X132.279 Y94.040 E12.87478
G1 X131.839 Y94.754 E12.95978
G1 X131.245 Y95.614 E13.06569
G1 X130.866 Y96.120 E13.12978
G1 X130.336 Y96.771 E13.21477
G1 X129.778 Y97.397 E13.29978
G1 X129.297 Y97.897 E13.37007
G1 X97.794 Y129.399 E17.88407
G1 X97.183 Y129.974 E17.96907
G1 X96.548 Y130.523 E18.05406
G1 X95.890 Y131.043 E18.13906
G1 X95.210 Y131.534 E18.22408
G1 X94.509 Y131.995 E18.30907
G1 X93.788 Y132.424 E18.39407
G1 X93.050 Y132.822 E18.47908
G1 X92.294 Y133.188 E18.56408
G1 X91.332 Y133.595 E18.66999
G1 X90.740 Y133.818 E18.73407
G1 X89.943 Y134.082 E18.81908
G1 X89.136 Y134.310 E18.90407
G1 X88.117 Y134.544 E19.00999
G1 X87.496 Y134.661 E19.07407
G1 X86.666 Y134.782 E19.15907
G1 X85.625 Y134.881 E19.26497
G1 X84.994 Y134.916 E19.32906
G1 X84.155 Y134.928 E19.41406
G1 X83.316 Y134.903 E19.49907
G1 X82.479 Y134.842 E19.58407
G1 X81.646 Y134.745 E19.66907
G1 X80.818 Y134.611 E19.75407
G1 X79.997 Y134.441 E19.83907
G1 X79.183 Y134.235 E19.92407
G1 X78.184 Y133.928 E20.02998
G1 X77.587 Y133.719 E20.09407
G1 X76.808 Y133.409 E20.17904
G1 X76.042 Y133.065 E20.26406
G1 X75.293 Y132.688 E20.34908
G1 X74.560 Y132.279 E20.43408
G1 X73.846 Y131.839 E20.51907
G1 X73.152 Y131.367 E20.60408
G1 X72.319 Y130.737 E20.70998
G1 X71.829 Y130.336 E20.77406
G1 X71.203 Y129.778 E20.85908
G1 X70.458 Y129.044 E20.96498
G1 X70.026 Y128.583 E21.02906
G1 X69.477 Y127.948 E21.11407
G1 X68.835 Y127.123 E21.21998
G1 X68.466 Y126.610 E21.28406
G1 X68.005 Y125.909 E21.36906
G1 X67.476 Y125.007 E21.47496
G1 X67.178 Y124.450 E21.53905
G1 X66.812 Y123.695 E21.62405
G1 X66.480 Y122.924 E21.70906
G1 X66.182 Y122.140 E21.79406
G1 X65.918 Y121.343 E21.87906
G1 X65.690 Y120.536 E21.96404
G1 X65.456 Y119.517 E22.06999
G1 X65.339 Y118.896 E22.13403
G1 X65.218 Y118.066 E22.21906
G1 X65.133 Y117.231 E22.30405
G1 X65.084 Y116.394 E22.38905
G1 X65.072 Y115.555 E22.47405
G1 X65.097 Y114.716 E22.55907
G1 X65.158 Y113.880 E22.64406
G1 X65.255 Y113.046 E22.72907
G1 X65.389 Y112.218 E22.81405
G1 X65.559 Y111.396 E22.89907
G1 X65.765 Y110.583 E22.98407
G1 X66.006 Y109.780 E23.06906
G1 X66.356 Y108.795 E23.17498
G1 X66.591 Y108.208 E23.23907
G1 X66.935 Y107.442 E23.32406
G1 X67.312 Y106.693 E23.40905
G1 X67.721 Y105.960 E23.49406
G1 X68.161 Y105.246 E23.57906
G1 X68.633 Y104.552 E23.66407
G1 X69.263 Y103.719 E23.76998
G1 X69.664 Y103.229 E23.83407
G1 X70.222 Y102.603 E23.91907
G1 X70.703 Y102.103 E23.98936
G1 X86.347 Y86.459 E26.23096
G1 F1800.000 E21.23096
G92 E0
G1 X88.359 Y119.546 F7800.000
G1 E5.00000 F1800.000
G1 X87.920 Y119.962 E5.06132 F1350.000
G1 X87.438 Y120.328 E5.12267
G1 X87.006 Y120.588 E5.17377
G1 X86.370 Y120.894 E5.24531
G1 X85.796 Y121.088 E5.30664
G1 X85.205 Y121.218 E5.36799
G1 X84.703 Y121.272 E5.41909
G1 X83.997 Y121.283 E5.49062
G1 X83.396 Y121.218 E5.55193
G1 X82.804 Y121.088 E5.61332
G1 X82.230 Y120.894 E5.67466
G1 X81.681 Y120.640 E5.73600
G1 X81.162 Y120.328 E5.79733
G1 X80.680 Y119.962 E5.85868
G1 X80.241 Y119.545 E5.92003
G1 X79.849 Y119.084 E5.98135
G1 X79.509 Y118.583 E6.04275
G1 X79.225 Y118.048 E6.10408
G1 X79.001 Y117.485 E6.16544
G1 X78.839 Y116.902 E6.22673
G1 X78.741 Y116.305 E6.28807
G1 X78.708 Y115.700 E6.34944
G1 X78.741 Y115.095 E6.41079
G1 X78.839 Y114.498 E6.47216
G1 X79.001 Y113.914 E6.53350
G1 X79.225 Y113.352 E6.59478
G1 X79.509 Y112.817 E6.65615
G1 X79.848 Y112.316 E6.71748
G1 X80.241 Y111.854 E6.77888
G1 X80.680 Y111.438 E6.84020
G1 X81.162 Y111.072 E6.90155
G1 X81.594 Y110.812 E6.95264
G1 X82.230 Y110.506 E7.02418
G1 X82.804 Y110.312 E7.08553
G1 X83.395 Y110.182 E7.14686
G1 X83.997 Y110.117 E7.20823
G1 X84.603 Y110.117 E7.26956
G1 X85.104 Y110.171 E7.32061
G1 X85.796 Y110.312 E7.39220 F1350.000
G1 X86.370 Y110.506 E7.45354
G1 X86.919 Y110.760 E7.51488
G1 X87.438 Y111.072 E7.57621
G1 X87.920 Y111.438 E7.63756
G1 X88.359 Y111.855 E7.69891
G1 X88.751 Y112.316 E7.76023
G1 X89.035 Y112.734 E7.81137
G1 X89.375 Y113.352 E7.88292
G1 X89.599 Y113.915 E7.94427
G1 X89.761 Y114.498 E8.00556
G1 X89.859 Y115.095 E8.06691
G1 X89.892 Y115.700 E8.12827
G1 X89.859 Y116.305 E8.18962
G1 X89.761 Y116.902 E8.25099
G1 X89.599 Y117.486 E8.31232
G1 X89.375 Y118.048 E8.37362
G1 X89.091 Y118.583 E8.43499
G1 X88.752 Y119.084 E8.49630
G1 X88.408 Y119.488 E8.55011
G1 X87.882 Y119.093 F7800.000
G1 X87.494 Y119.460 E8.60422 F1350.000
G1 X87.069 Y119.783 E8.65835
G1 X86.611 Y120.059 E8.71249
G1 X86.126 Y120.283 E8.76660
G1 X85.682 Y120.433 E8.81407
G1 X85.098 Y120.569 E8.87481
G1 X84.567 Y120.626 E8.92895
G1 X84.033 Y120.626 E8.98306
G1 X83.502 Y120.569 E9.03717
G1 X82.980 Y120.454 E9.09131
G1 X82.474 Y120.283 E9.14544
G1 X81.989 Y120.059 E9.19956
G1 X81.531 Y119.784 E9.25367
G1 X81.106 Y119.460 E9.30781
G1 X80.718 Y119.093 E9.36193
G1 X80.373 Y118.686 E9.41604
G1 X80.073 Y118.243 E9.47020
G1 X79.822 Y117.771 E9.52432
G1 X79.625 Y117.275 E9.57845
G1 X79.482 Y116.761 E9.63255
G1 X79.395 Y116.234 E9.68667
G1 X79.366 Y115.700 E9.74081
G1 X79.395 Y115.167 E9.79494
G1 X79.482 Y114.639 E9.84908
G1 X79.625 Y114.125 E9.90320
G1 X79.822 Y113.629 E9.95729
G1 X80.073 Y113.157 E10.01142
G1 X80.372 Y112.714 E10.06554
G1 X80.718 Y112.307 E10.11970
G1 X81.106 Y111.940 E10.17381
G1 X81.531 Y111.617 E10.22794
G1 X81.933 Y111.375 E10.27542
G1 X82.474 Y111.117 E10.33615
G1 X82.980 Y110.946 E10.39028
G1 X83.502 Y110.831 E10.44440
G1 X84.033 Y110.774 E10.49854
G1 X84.567 Y110.774 E10.55265 F1350.000
G1 X85.098 Y110.831 E10.60676
G1 X85.620 Y110.946 E10.66091
G1 X86.126 Y111.117 E10.71503
G1 X86.611 Y111.341 E10.76915
G1 X87.069 Y111.616 E10.82326
G1 X87.494 Y111.940 E10.87740
G1 X87.882 Y112.307 E10.93153
G1 X88.227 Y112.714 E10.98563
G1 X88.527 Y113.157 E11.03980
G1 X88.778 Y113.629 E11.09391
G1 X88.975 Y114.125 E11.14805
G1 X89.118 Y114.639 E11.20214
G1 X89.205 Y115.166 E11.25627
G1 X89.234 Y115.700 E11.31040
G1 X89.205 Y116.233 E11.36453
G1 X89.118 Y116.761 E11.41867
G1 X88.975 Y117.275 E11.47279
G1 X88.778 Y117.771 E11.52688
G1 X88.527 Y118.243 E11.58102
G1 X88.228 Y118.685 E11.63513
G1 X87.930 Y119.036 E11.68169
G1 X87.404 Y118.640 F7800.000
G1 X87.068 Y118.959 E11.72860 F945.000
G1 X86.699 Y119.239 E11.77550
G1 X86.328 Y119.462 E11.81937
G1 X85.883 Y119.672 E11.86930
G1 X85.444 Y119.820 E11.91620
G1 X84.992 Y119.919 E11.96311
G1 X84.531 Y119.969 E12.01002
G1 X84.069 Y119.969 E12.05692
G1 X83.608 Y119.919 E12.10382
G1 X83.185 Y119.826 E12.14769
G1 X82.717 Y119.672 E12.19762
G1 X82.297 Y119.477 E12.24452
G1 X81.901 Y119.239 E12.29143
G1 X81.532 Y118.959 E12.33833
G1 X81.196 Y118.640 E12.38524
G1 X80.896 Y118.287 E12.43214
G1 X80.653 Y117.929 E12.47602
G1 X80.420 Y117.495 E12.52595
G1 X80.248 Y117.065 E12.57285
G1 X80.124 Y116.619 E12.61975
G1 X80.050 Y116.162 E12.66665
G1 X80.024 Y115.700 E12.71356
G1 X80.050 Y115.238 E12.76047
G1 X80.124 Y114.781 E12.80738
G1 X80.240 Y114.364 E12.85124
G1 X80.420 Y113.905 E12.90116
G1 X80.636 Y113.496 E12.94807
G1 X80.896 Y113.113 E12.99498
G1 X81.196 Y112.760 E13.04189
G1 X81.532 Y112.441 E13.08879
G1 X81.877 Y112.179 E13.13266
G1 X82.297 Y111.923 E13.18259
G1 X82.717 Y111.728 E13.22950
G1 X83.156 Y111.580 E13.27640
G1 X83.608 Y111.481 E13.32330
G1 X84.069 Y111.431 E13.37022
G1 X84.531 Y111.431 E13.41712
G1 X84.962 Y111.478 E13.46097
G1 X85.444 Y111.580 E13.51091 F945.000
G1 X85.883 Y111.728 E13.55782
G1 X86.303 Y111.923 E13.60472
G1 X86.699 Y112.161 E13.65163
G1 X87.068 Y112.441 E13.69853
G1 X87.404 Y112.760 E13.74544
G1 X87.704 Y113.113 E13.79234
G1 X87.947 Y113.471 E13.83622
G1 X88.180 Y113.905 E13.88615
G1 X88.352 Y114.335 E13.93305
G1 X88.476 Y114.781 E13.97995
G1 X88.550 Y115.238 E14.02686
G1 X88.576 Y115.700 E14.07376
G1 X88.550 Y116.162 E14.12067
G1 X88.476 Y116.619 E14.16758
G1 X88.352 Y117.065 E14.21449
G1 X88.180 Y117.495 E14.26138
G1 X87.964 Y117.904 E14.30829
G1 X87.704 Y118.287 E14.35519
G1 X87.453 Y118.583 E14.39451
G1 F1800.000 E9.39451
G92 E0
G1 X84.968 Y110.985 F7800.000
G1 X92.193 Y123.225 F7800.000
G1 E5.00000 F1800.000
G1 X91.669 Y123.742 E5.07460 F1350.000
G1 X91.311 Y124.056 E5.12282
G1 X90.803 Y124.454 E5.18826
G1 X90.161 Y124.900 E5.26744
G1 X89.337 Y125.375 E5.36386
G1 X88.910 Y125.586 E5.41208
G1 X88.316 Y125.839 E5.47752
G1 X87.580 Y126.103 E5.55671
G1 X86.661 Y126.349 E5.65313
G1 X86.194 Y126.442 E5.70134
G1 X85.251 Y126.566 E5.79776
G1 X84.776 Y126.598 E5.84598
G1 X83.824 Y126.598 E5.94240
G1 X83.349 Y126.566 E5.99062
G1 X82.406 Y126.442 E6.08704
G1 X81.774 Y126.309 E6.15247
G1 X81.020 Y126.103 E6.23166
G1 X80.569 Y125.950 E6.27988
G1 X79.690 Y125.586 E6.37630
G1 X79.263 Y125.375 E6.42451
G1 X78.439 Y124.900 E6.52093
G1 X78.043 Y124.635 E6.56915
G1 X77.289 Y124.056 E6.66557
G1 X76.931 Y123.742 E6.71379
G1 X76.258 Y123.069 E6.81020
G1 X75.944 Y122.711 E6.85842
G1 X75.546 Y122.203 E6.92387
G1 X75.100 Y121.561 E7.00305
G1 X74.853 Y121.154 E7.05127
G1 X74.549 Y120.584 E7.11671
G1 X74.222 Y119.874 E7.19590
G1 X73.897 Y118.980 E7.29232
G1 X73.764 Y118.523 E7.34054
G1 X73.651 Y118.061 E7.38875
G1 X73.485 Y117.124 E7.48517
G1 X73.402 Y116.176 E7.58159
G1 X73.392 Y115.700 E7.62980
G1 X73.402 Y115.224 E7.67803
G1 X73.485 Y114.276 E7.77444
G1 X73.651 Y113.339 E7.87086
G1 X73.764 Y112.877 E7.91908
G1 X73.897 Y112.420 E7.96730
G1 X74.112 Y111.811 E8.03274
G1 X74.414 Y111.090 E8.11193
G1 X74.625 Y110.663 E8.16015
G1 X74.942 Y110.101 E8.22559
G1 X75.365 Y109.443 E8.30478
G1 X75.753 Y108.927 E8.37022
G1 X76.258 Y108.331 E8.44940
G1 X76.587 Y107.987 E8.49762
G1 X77.059 Y107.546 E8.56306
G1 X77.660 Y107.046 E8.64225
G1 X78.043 Y106.765 E8.69047
G1 X78.585 Y106.412 E8.75591
G1 X79.263 Y106.025 E8.83510
G1 X80.126 Y105.622 E8.93152
G1 X80.569 Y105.450 E8.97973
G1 X81.020 Y105.297 E9.02796
G1 X81.939 Y105.051 E9.12437
G1 X82.876 Y104.885 E9.22079
G1 X83.349 Y104.834 E9.26900
G1 X83.824 Y104.802 E9.31723
G1 X84.470 Y104.796 E9.38267
G1 X85.251 Y104.834 E9.46185 F1350.000
G1 X86.194 Y104.958 E9.55827
G1 X86.661 Y105.051 E9.60649
G1 X87.580 Y105.297 E9.70291
G1 X88.474 Y105.622 E9.79932
G1 X89.337 Y106.025 E9.89574
G1 X89.899 Y106.342 E9.96118
G1 X90.557 Y106.765 E10.04037
G1 X91.311 Y107.344 E10.13678
G1 X91.792 Y107.775 E10.20222
G1 X92.342 Y108.331 E10.28141
G1 X92.954 Y109.060 E10.37783
G1 X93.330 Y109.585 E10.44327
G1 X93.747 Y110.246 E10.52246
G1 X94.238 Y111.195 E10.63071
G1 X94.378 Y111.526 E10.66711
G1 X94.605 Y112.130 E10.73255
G1 X94.836 Y112.877 E10.81173
G1 X95.042 Y113.806 E10.90815
G1 X95.166 Y114.749 E11.00457
G1 X95.201 Y115.394 E11.07001
G1 X95.198 Y116.176 E11.14919
G1 X95.166 Y116.651 E11.19741
G1 X95.042 Y117.594 E11.29384
G1 X94.836 Y118.523 E11.39024
G1 X94.648 Y119.141 E11.45569
G1 X94.378 Y119.874 E11.53488
G1 X93.975 Y120.737 E11.63129
G1 X93.747 Y121.154 E11.67951
G1 X93.235 Y121.957 E11.77593
G1 X92.656 Y122.711 E11.87234
G1 X92.245 Y123.171 E11.93478
G1 X92.668 Y123.679 F7800.000
G1 X92.113 Y124.227 E12.01373 F1350.000
G1 X91.734 Y124.559 E12.06486
G1 X91.192 Y124.984 E12.13466
G1 X90.514 Y125.454 E12.21820
G1 X89.640 Y125.958 E12.32043
G1 X89.188 Y126.182 E12.37155
G1 X88.554 Y126.452 E12.44135
G1 X87.778 Y126.730 E12.52489
G1 X86.803 Y126.991 E12.62712
G1 X86.308 Y127.089 E12.67824
G1 X85.308 Y127.221 E12.78047
G1 X84.804 Y127.254 E12.83159
G1 X83.796 Y127.254 E12.93382
G1 X83.292 Y127.221 E12.98494
G1 X82.292 Y127.089 E13.08718
G1 X81.618 Y126.947 E13.15697
G1 X80.822 Y126.730 E13.24051
G1 X80.344 Y126.568 E13.29164
G1 X79.705 Y126.311 E13.36144
G1 X78.960 Y125.958 E13.44498
G1 X78.517 Y125.716 E13.49611
G1 X77.666 Y125.174 E13.59833
G1 X77.260 Y124.875 E13.64946
G1 X76.487 Y124.227 E13.75169
G1 X75.995 Y123.745 E13.82148
G1 X75.441 Y123.134 E13.90503
G1 X75.016 Y122.592 E13.97482
G1 X74.546 Y121.914 E14.05837
G1 X74.042 Y121.040 E14.16059
G1 X73.818 Y120.588 E14.21172
G1 X73.432 Y119.656 E14.31394
G1 X73.219 Y119.001 E14.38374
G1 X73.009 Y118.203 E14.46729
G1 X72.834 Y117.210 E14.56951
G1 X72.779 Y116.708 E14.62063
G1 X72.742 Y116.020 E14.69043
G1 X72.746 Y115.196 E14.77398
G1 X72.834 Y114.190 E14.87621
G1 X72.911 Y113.692 E14.92733
G1 X73.009 Y113.197 E14.97846
G1 X73.270 Y112.222 E15.08068
G1 X73.615 Y111.274 E15.18290
G1 X73.818 Y110.812 E15.23403
G1 X74.130 Y110.198 E15.30383
G1 X74.546 Y109.486 E15.38737
G1 X74.935 Y108.918 E15.45717
G1 X75.441 Y108.266 E15.54072
G1 X75.773 Y107.887 E15.59184
G1 X76.487 Y107.173 E15.69407
G1 X76.866 Y106.841 E15.74519
G1 X77.408 Y106.416 E15.81499
G1 X78.086 Y105.946 E15.89854
G1 X78.517 Y105.684 E15.94966
G1 X79.125 Y105.360 E16.01946
G1 X79.874 Y105.015 E16.10300
G1 X80.344 Y104.832 E16.15413
G1 X81.307 Y104.529 E16.25635
G1 X81.797 Y104.409 E16.30748
G1 X82.790 Y104.234 E16.40970
G1 X83.292 Y104.179 E16.46083
G1 X83.980 Y104.142 E16.53063
G1 X84.804 Y104.146 E16.61417 F1350.000
G1 X85.810 Y104.234 E16.71640
G1 X86.803 Y104.409 E16.81862
G1 X87.293 Y104.529 E16.86975
G1 X87.952 Y104.729 E16.93955
G1 X88.726 Y105.015 E17.02309
G1 X89.640 Y105.442 E17.12532
G1 X90.514 Y105.946 E17.22754
G1 X91.082 Y106.335 E17.29734
G1 X91.734 Y106.841 E17.38088
G1 X92.247 Y107.301 E17.45068
G1 X92.827 Y107.887 E17.53423
G1 X93.475 Y108.660 E17.63645
G1 X93.876 Y109.220 E17.70625
G1 X94.316 Y109.917 E17.78980
G1 X94.782 Y110.812 E17.89202
G1 X95.052 Y111.446 E17.96182
G1 X95.330 Y112.222 E18.04536
G1 X95.591 Y113.197 E18.14759
G1 X95.766 Y114.190 E18.24981
G1 X95.854 Y115.196 E18.35204
G1 X95.854 Y116.204 E18.45427
G1 X95.821 Y116.708 E18.50539
G1 X95.689 Y117.708 E18.60762
G1 X95.471 Y118.693 E18.70984
G1 X95.271 Y119.352 E18.77964
G1 X94.985 Y120.126 E18.86319
G1 X94.558 Y121.040 E18.96541
G1 X94.316 Y121.483 E19.01653
