; generated by Slic3r 1.1.7 on 2014-11-06 at 19:40:16

; perimeters extrusion width = 0.50mm
; infill extrusion width = 1.02mm
; solid infill extrusion width = 0.85mm
; top infill extrusion width = 0.85mm

G21 ; set units to millimeters
M107
M190 S35 ; wait for bed temperature to be reached
M104 S210 ; set temperature
G28 ; home all axes
G1 Z5 F200; lift nozzle


M109 S210 ; wait for temperature to be reached
G90 ; use absolute coordinates
G92 E0
M82 ; use absolute distances for extrusion
G1 F1800.000 E-5.00000
G92 E0
G1 Z0.350 F7800.000
G1 X69.371 Y78.841 F7800.000
G1 E5.00000 F1800.000
G1 X70.216 Y78.145 E5.12842 F2700.000
G1 X71.112 Y77.517 E5.25680
G1 X71.578 Y77.229 E5.32101
G1 X72.153 Y76.908 E5.39831
G1 X73.037 Y76.478 E5.51360
G1 X73.542 Y76.265 E5.57783
G1 X74.573 Y75.900 E5.70617
G1 X75.631 Y75.616 E5.83461
G1 X76.707 Y75.415 E5.96301
G1 X77.795 Y75.298 E6.09141
G1 X78.760 Y75.264 E6.20467
G1 X121.369 Y75.266 E11.20253
G1 X122.028 Y75.288 E11.27984 F2700.000
G1 X123.007 Y75.376 E11.39513
G1 X124.087 Y75.555 E11.52352
G1 X124.621 Y75.676 E11.58773
G1 X125.150 Y75.817 E11.65198
G1 X126.189 Y76.161 E11.78034
G1 X127.198 Y76.584 E11.90871
G1 X127.789 Y76.877 E11.98606
G1 X128.643 Y77.362 E12.10132
G1 X129.552 Y77.972 E12.22971
G1 X129.988 Y78.303 E12.29394
G1 X130.820 Y79.014 E12.42232
G1 X131.294 Y79.474 E12.49965
G1 X131.959 Y80.197 E12.61496
G1 X132.376 Y80.708 E12.69225
G1 X132.953 Y81.503 E12.80755
G1 X133.528 Y82.435 E12.93595
G1 X133.788 Y82.916 E13.00014
G1 X134.251 Y83.908 E13.12853
G1 X134.492 Y84.522 E13.20584
G1 X134.798 Y85.456 E13.32116
G1 X135.062 Y86.518 E13.44957
G1 X135.242 Y87.598 E13.57794
G1 X135.300 Y88.142 E13.64214
G1 X135.338 Y88.688 E13.70635
G1 X135.349 Y89.783 E13.83474
G1 X135.275 Y90.875 E13.96314
G1 X135.207 Y91.418 E14.02736
G1 X135.007 Y92.494 E14.15574
G1 X134.876 Y93.026 E14.21996
G1 X134.552 Y94.071 E14.34834
G1 X134.318 Y94.688 E14.42566
G1 X133.918 Y95.585 E14.54094
G1 X133.668 Y96.072 E14.60516
G1 X133.112 Y97.015 E14.73356
G1 X132.807 Y97.470 E14.79777
G1 X132.416 Y98.000 E14.87508
G1 X131.790 Y98.757 E14.99034
G1 X131.418 Y99.160 E15.05455
G1 X109.791 Y120.787 E18.64210
G1 X109.389 Y121.159 E18.70630
G1 X108.544 Y121.855 E18.83470
G1 X107.648 Y122.483 E18.96310
G1 X106.706 Y123.040 E19.09146
G1 X106.219 Y123.291 E19.15573
G1 X105.620 Y123.567 E19.23302
G1 X104.706 Y123.927 E19.34832
G1 X104.187 Y124.100 E19.41247
G1 X103.129 Y124.384 E19.54090
G1 X102.054 Y124.585 E19.66926
G1 X100.965 Y124.702 E19.79769
G1 X100.418 Y124.729 E19.86193
G1 X99.759 Y124.732 E19.93919
G1 X98.778 Y124.682 E20.05450
G1 X98.233 Y124.624 E20.11874
G1 X97.153 Y124.445 E20.24712
G1 X96.511 Y124.296 E20.32442
G1 X95.568 Y124.021 E20.43968
G1 X94.542 Y123.637 E20.56811
G1 X94.042 Y123.416 E20.63230
G1 X93.068 Y122.916 E20.76069
G1 X92.136 Y122.341 E20.88911
G1 X91.688 Y122.028 E20.95332
G1 X91.165 Y121.627 E21.03062
G1 X90.744 Y121.276 E21.09483
G1 X90.070 Y120.652 E21.20257
G1 X68.785 Y99.366 E24.73344
G1 X68.405 Y98.972 E24.79763
G1 X67.969 Y98.477 E24.87499
G1 X67.362 Y97.705 E24.99025
G1 X67.047 Y97.257 E25.05444
G1 X66.472 Y96.325 E25.18286
G1 X66.212 Y95.844 E25.24706
G1 X65.925 Y95.251 E25.32439
G1 X65.547 Y94.344 E25.43964
G1 X65.364 Y93.827 E25.50388
G1 X65.060 Y92.776 E25.63223
G1 X64.838 Y91.704 E25.76067
G1 X64.699 Y90.618 E25.88910
G1 X64.646 Y89.525 E26.01747
G1 X64.651 Y88.977 E26.08167
G1 X64.725 Y87.885 E26.21008
G1 X64.793 Y87.342 E26.27428
G1 X64.904 Y86.692 E26.35161
G1 X65.124 Y85.734 E26.46690
G1 X65.276 Y85.208 E26.53110
G1 X65.639 Y84.176 E26.65948
G1 X65.851 Y83.671 E26.72370
G1 X66.132 Y83.075 E26.80101
G1 X66.601 Y82.211 E26.91628
G1 X66.888 Y81.745 E26.98050
G1 X67.516 Y80.848 E27.10890
G1 X67.855 Y80.419 E27.17309
G1 X68.286 Y79.920 E27.25043
G1 X68.969 Y79.213 E27.36571
G1 X69.315 Y78.892 E27.42112
G1 F1800.000 E22.42112
G92 E0
G1 X103.171 Y93.159 F7800.000
G1 E5.00000 F1800.000
G1 X102.829 Y93.421 E5.05048 F1350.000
G1 X102.467 Y93.652 E5.10093
G1 X102.085 Y93.851 E5.15142
G1 X101.687 Y94.016 E5.20191
G1 X101.277 Y94.145 E5.25239
G1 X100.913 Y94.226 E5.29610
G1 X100.430 Y94.294 E5.35332
G1 X100.000 Y94.313 E5.40378
G1 X99.570 Y94.294 E5.45428
G1 X99.143 Y94.238 E5.50474
G1 X98.723 Y94.145 E5.55522
G1 X98.313 Y94.016 E5.60570
G1 X97.915 Y93.851 E5.65617
G1 X97.533 Y93.652 E5.70667
G1 X97.170 Y93.421 E5.75715
G1 X96.829 Y93.159 E5.80761
G1 X96.512 Y92.868 E5.85808
G1 X96.221 Y92.551 E5.90859
G1 X95.959 Y92.209 E5.95906
G1 X95.728 Y91.847 E6.00952
G1 X95.529 Y91.465 E6.06000
G1 X95.364 Y91.067 E6.11050
G1 X95.235 Y90.657 E6.16097
G1 X95.154 Y90.293 E6.20469
G1 X95.086 Y89.810 E6.26190
G1 X95.067 Y89.380 E6.31237
G1 X95.083 Y89.008 E6.35611
G1 X95.142 Y88.523 E6.41331
G1 X95.235 Y88.103 E6.46379
G1 X95.364 Y87.693 E6.51427
G1 X95.529 Y87.295 E6.56473
G1 X95.728 Y86.913 E6.61524
G1 X95.959 Y86.550 E6.66572
G1 X96.221 Y86.209 E6.71618
G1 X96.512 Y85.892 E6.76665
G1 X96.829 Y85.601 E6.81716
G1 X97.171 Y85.339 E6.86763
G1 X97.533 Y85.108 E6.91809
G1 X97.915 Y84.909 E6.96857
G1 X98.313 Y84.744 E7.01907
G1 X98.668 Y84.632 E7.06278
G1 X99.143 Y84.522 E7.11999
G1 X99.570 Y84.466 E7.17047
G1 X100.000 Y84.447 E7.22093
G1 X100.372 Y84.463 E7.26468
G1 X100.857 Y84.522 E7.32188 F1350.000
G1 X101.277 Y84.615 E7.37237
G1 X101.687 Y84.744 E7.42283
G1 X102.085 Y84.909 E7.47330
G1 X102.415 Y85.081 E7.51704
G1 X102.830 Y85.339 E7.57426
G1 X103.171 Y85.601 E7.62472
G1 X103.488 Y85.892 E7.67520
G1 X103.779 Y86.209 E7.72570
G1 X104.006 Y86.505 E7.76941
G1 X104.272 Y86.913 E7.82661
G1 X104.471 Y87.295 E7.87709
G1 X104.636 Y87.693 E7.92759
G1 X104.765 Y88.103 E7.97806
G1 X104.858 Y88.523 E8.02853
G1 X104.914 Y88.950 E8.07902
G1 X104.933 Y89.380 E8.12948
G1 X104.914 Y89.810 E8.17999
G1 X104.858 Y90.237 E8.23045
G1 X104.765 Y90.657 E8.28093
G1 X104.636 Y91.067 E8.33140
G1 X104.471 Y91.465 E8.38187
G1 X104.272 Y91.847 E8.43237
G1 X104.041 Y92.210 E8.48285
G1 X103.779 Y92.551 E8.53332
G1 X103.488 Y92.868 E8.58378
G1 X103.226 Y93.108 E8.62549
G1 X102.748 Y92.655 F7800.000
G1 X102.452 Y92.882 E8.66924 F945.000
G1 X102.138 Y93.083 E8.71298
G1 X101.807 Y93.255 E8.75673
G1 X101.462 Y93.398 E8.80049
G1 X101.107 Y93.510 E8.84423
G1 X100.771 Y93.584 E8.88458
G1 X100.373 Y93.639 E8.93172
G1 X100.000 Y93.655 E8.97546
G1 X99.627 Y93.639 E9.01922
G1 X99.258 Y93.590 E9.06296
G1 X98.893 Y93.510 E9.10670
G1 X98.538 Y93.397 E9.15045
G1 X98.193 Y93.255 E9.19420
G1 X97.862 Y93.083 E9.23796
G1 X97.548 Y92.882 E9.28170
G1 X97.252 Y92.655 E9.32545
G1 X96.977 Y92.403 E9.36919
G1 X96.744 Y92.149 E9.40955
G1 X96.498 Y91.832 E9.45669
G1 X96.297 Y91.518 E9.50043
G1 X96.125 Y91.187 E9.54417
G1 X95.982 Y90.842 E9.58793
G1 X95.870 Y90.487 E9.63168
G1 X95.796 Y90.151 E9.67203
G1 X95.741 Y89.753 E9.71916
G1 X95.725 Y89.380 E9.76290
G1 X95.740 Y89.036 E9.80326
G1 X95.790 Y88.638 E9.85039
G1 X95.870 Y88.273 E9.89414
G1 X95.982 Y87.918 E9.93789
G1 X96.125 Y87.573 E9.98163
G1 X96.297 Y87.242 E10.02539
G1 X96.498 Y86.928 E10.06914
G1 X96.725 Y86.632 E10.11288
G1 X96.977 Y86.357 E10.15663
G1 X97.231 Y86.124 E10.19699
G1 X97.548 Y85.878 E10.24412
G1 X97.862 Y85.677 E10.28786
G1 X98.193 Y85.505 E10.33161
G1 X98.511 Y85.374 E10.37197
G1 X98.893 Y85.250 E10.41910
G1 X99.258 Y85.170 E10.46285
G1 X99.627 Y85.121 E10.50660
G1 X99.971 Y85.106 E10.54694
G1 X100.373 Y85.121 E10.59408 F945.000
G1 X100.742 Y85.170 E10.63783
G1 X101.107 Y85.250 E10.68158
G1 X101.462 Y85.362 E10.72532
G1 X101.807 Y85.505 E10.76907
G1 X102.138 Y85.677 E10.81282
G1 X102.452 Y85.878 E10.85657
G1 X102.748 Y86.105 E10.90032
G1 X103.023 Y86.357 E10.94406
G1 X103.275 Y86.632 E10.98782
G1 X103.485 Y86.905 E11.02817
G1 X103.703 Y87.242 E11.07529
G1 X103.875 Y87.573 E11.11904
G1 X104.018 Y87.918 E11.16280
G1 X104.130 Y88.273 E11.20655
G1 X104.210 Y88.638 E11.25029
G1 X104.259 Y89.007 E11.29404
G1 X104.275 Y89.380 E11.33779
G1 X104.259 Y89.753 E11.38154
G1 X104.210 Y90.122 E11.42528
G1 X104.130 Y90.487 E11.46903
G1 X104.018 Y90.842 E11.51278
G1 X103.875 Y91.187 E11.55653
G1 X103.703 Y91.518 E11.60028
G1 X103.502 Y91.832 E11.64403
G1 X103.275 Y92.128 E11.68777
G1 X103.023 Y92.403 E11.73152
G1 X102.803 Y92.604 E11.76648
G1 F1800.000 E6.76648
G92 E0
G1 X99.928 Y84.706 F7800.000
G1 X104.114 Y94.348 F7800.000
G1 E5.00000 F1800.000
G1 X103.751 Y94.628 E5.05372 F1350.000
G1 X103.333 Y94.903 E5.11241
G1 X102.670 Y95.253 E5.20040
G1 X101.970 Y95.523 E5.28840
G1 X101.243 Y95.710 E5.37640
G1 X100.500 Y95.812 E5.46439
G1 X99.750 Y95.826 E5.55239
G1 X99.003 Y95.754 E5.64039
G1 X98.270 Y95.595 E5.72838
G1 X97.560 Y95.352 E5.81637
G1 X96.883 Y95.028 E5.90437
G1 X96.249 Y94.628 E5.99237
G1 X95.665 Y94.157 E6.08036
G1 X95.139 Y93.622 E6.16836
G1 X94.680 Y93.029 E6.25636
G1 X94.292 Y92.386 E6.34435
G1 X93.982 Y91.704 E6.43235
G1 X93.753 Y90.989 E6.52034
G1 X93.608 Y90.253 E6.60834
G1 X93.550 Y89.505 E6.69633
G1 X93.579 Y88.755 E6.78433
G1 X93.647 Y88.260 E6.84301
G1 X93.753 Y87.771 E6.90169
G1 X93.982 Y87.056 E6.98969
G1 X94.292 Y86.373 E7.07769
G1 X94.680 Y85.731 E7.16568
G1 X95.139 Y85.138 E7.25368
G1 X95.665 Y84.603 E7.34167
G1 X96.249 Y84.132 E7.42967
G1 X96.883 Y83.732 E7.51767
G1 X97.560 Y83.408 E7.60566
G1 X98.270 Y83.165 E7.69365
G1 X99.003 Y83.006 E7.78165
G1 X99.500 Y82.948 E7.84033
G1 X99.842 Y82.932 E7.88048
G1 X100.250 Y82.934 E7.92836 F1350.000
G1 X100.749 Y82.972 E7.98704
G1 X101.243 Y83.050 E8.04573
G1 X101.730 Y83.165 E8.10441
G1 X102.206 Y83.318 E8.16309
G1 X102.670 Y83.507 E8.22177
G1 X103.117 Y83.732 E8.28046
G1 X103.545 Y83.990 E8.33914
G1 X103.952 Y84.281 E8.39782
G1 X104.335 Y84.603 E8.45650
G1 X104.692 Y84.953 E8.51518
G1 X105.021 Y85.330 E8.57387
G1 X105.320 Y85.731 E8.63255
G1 X105.587 Y86.154 E8.69123
G1 X105.846 Y86.625 E8.75426
G1 X105.833 Y86.625 E8.75587
G1 X106.018 Y87.056 E8.81097
G1 X106.180 Y87.530 E8.86965
G1 X106.305 Y88.014 E8.92834
G1 X106.392 Y88.507 E8.98702
G1 X106.440 Y89.005 E9.04570
G1 X106.450 Y89.505 E9.10438
G1 X106.421 Y90.005 E9.16307
G1 X106.353 Y90.500 E9.22175
G1 X106.247 Y90.989 E9.28043
G1 X106.104 Y91.468 E9.33911
G1 X105.924 Y91.935 E9.39780
G1 X105.708 Y92.387 E9.45648
G1 X105.458 Y92.820 E9.51516
G1 X105.175 Y93.232 E9.57384
G1 X104.861 Y93.622 E9.63253
G1 X104.517 Y93.986 E9.69121
G1 X104.171 Y94.300 E9.74605
G1 X104.526 Y94.860 F7800.000
G1 X104.133 Y95.163 E9.80426 F945.000
G1 X103.673 Y95.466 E9.86892
G1 X102.942 Y95.851 E9.96588
G1 X102.170 Y96.149 E10.06284
G1 X101.370 Y96.355 E10.15980
G1 X100.551 Y96.467 E10.25676
G1 X99.724 Y96.483 E10.35372
G1 X98.902 Y96.403 E10.45068
G1 X98.094 Y96.228 E10.54764
G1 X97.312 Y95.960 E10.64460
G1 X96.566 Y95.604 E10.74156
G1 X95.867 Y95.163 E10.83852
G1 X95.223 Y94.644 E10.93548
G1 X94.830 Y94.258 E11.00014
G1 X94.577 Y93.974 E11.04477
G1 X94.298 Y93.625 E11.09713
G1 X93.986 Y93.170 E11.16179
G1 X93.587 Y92.446 E11.25876
G1 X93.274 Y91.681 E11.35572
G1 X93.053 Y90.885 E11.45268
G1 X92.925 Y90.068 E11.54964
G1 X92.893 Y89.242 E11.64660
G1 X92.957 Y88.418 E11.74356
G1 X93.116 Y87.607 E11.84052
G1 X93.274 Y87.079 E11.90518
G1 X93.408 Y86.723 E11.94981
G1 X93.587 Y86.314 E12.00217
G1 X93.844 Y85.826 E12.06683
G1 X94.298 Y85.135 E12.16379
G1 X94.830 Y84.502 E12.26075
G1 X95.431 Y83.935 E12.35771
G1 X96.094 Y83.441 E12.45467
G1 X96.810 Y83.028 E12.55163
G1 X97.569 Y82.700 E12.64860
G1 X98.361 Y82.463 E12.74556
G1 X99.175 Y82.320 E12.84252
G1 X99.724 Y82.277 E12.90718
G1 X100.105 Y82.274 E12.95181
G1 X100.551 Y82.293 E13.00417 F945.000
G1 X101.098 Y82.357 E13.06883
G1 X101.639 Y82.463 E13.13349
G1 X102.170 Y82.611 E13.19815
G1 X102.688 Y82.800 E13.26281
G1 X103.190 Y83.028 E13.32747
G1 X103.673 Y83.294 E13.39213
G1 X104.133 Y83.597 E13.45679
G1 X104.569 Y83.935 E13.52145
G1 X104.977 Y84.305 E13.58611
G1 X105.356 Y84.706 E13.65077
G1 X105.702 Y85.135 E13.71543
G1 X106.014 Y85.590 E13.78010
G1 X106.289 Y86.067 E13.84476
G1 X106.527 Y86.565 E13.90942
G1 X106.726 Y87.079 E13.97408
G1 X106.884 Y87.607 E14.03874
G1 X107.028 Y88.290 E14.12062
G1 X107.075 Y88.692 E14.16809
G1 X107.107 Y89.242 E14.23275
G1 X107.096 Y89.793 E14.29741
G1 X107.063 Y90.172 E14.34204
G1 X107.000 Y90.614 E14.39440
G1 X106.884 Y91.153 E14.45906
G1 X106.726 Y91.681 E14.52372
G1 X106.527 Y92.195 E14.58838
G1 X106.289 Y92.693 E14.65304
G1 X106.014 Y93.170 E14.71771
G1 X105.702 Y93.625 E14.78237
G1 X105.356 Y94.054 E14.84703
G1 X104.977 Y94.455 E14.91169
G1 X104.584 Y94.812 E14.97401
G1 F1800.000 E9.97401
G92 E0
G1 X100.511 Y82.458 F7800.000
G1 X103.644 Y93.752 F7800.000
G1 E5.00000 F1800.000
G1 X103.280 Y94.032 E5.07990 F900.000
G1 X102.940 Y94.252 E5.15034
G1 X102.355 Y94.561 E5.26551
G1 X101.947 Y94.729 E5.34232
G1 X101.491 Y94.873 E5.42550
G1 X101.007 Y94.982 E5.51191
G1 X100.661 Y95.032 E5.57275
G1 X99.981 Y95.072 E5.69116
G1 X99.522 Y95.052 E5.77111
G1 X99.030 Y94.988 E5.85747
G1 X98.545 Y94.882 E5.94386
G1 X98.263 Y94.798 E5.99517
G1 X97.612 Y94.546 E6.11661
G1 X97.170 Y94.318 E6.20310
G1 X96.873 Y94.134 E6.26393
G1 X96.327 Y93.728 E6.38236
G1 X95.989 Y93.418 E6.46221
G1 X95.652 Y93.053 E6.54871
G1 X95.348 Y92.660 E6.63510
G1 X95.187 Y92.414 E6.68634
G1 X94.834 Y91.768 E6.81433
G1 X94.658 Y91.344 E6.89428
G1 X94.507 Y90.871 E6.98067
G1 X94.363 Y90.150 E7.10866
G1 X94.329 Y89.857 E7.15993
G1 X94.309 Y89.361 E7.24630
G1 X94.329 Y88.902 E7.32626 F900.000
G1 X94.363 Y88.610 E7.37749
G1 X94.497 Y87.925 E7.49896
G1 X94.691 Y87.330 E7.60784
G1 X94.849 Y86.958 E7.67827
G1 X95.061 Y86.550 E7.75821
G1 X95.436 Y85.982 E7.87662
G1 X95.861 Y85.475 E7.99177
G1 X96.341 Y85.020 E8.10695
G1 X96.873 Y84.626 E8.22212
G1 X97.446 Y84.295 E8.33728
G1 X98.053 Y84.031 E8.45246
G1 X98.688 Y83.843 E8.56763
G1 X99.030 Y83.772 E8.62850
G1 X99.523 Y83.708 E8.71492
G1 X100.221 Y83.695 E8.83641
G1 X100.515 Y83.712 E8.88769
G1 X101.007 Y83.778 E8.97408
G1 X101.455 Y83.878 E9.05398
G1 X101.737 Y83.962 E9.10525
G1 X102.388 Y84.214 E9.22669
G1 X102.830 Y84.442 E9.31317
G1 X103.127 Y84.626 E9.37402
G1 X103.659 Y85.020 E9.48920
G1 X104.139 Y85.475 E9.60436
G1 X104.372 Y85.736 E9.66525
G1 X104.652 Y86.100 E9.74514
G1 X104.930 Y86.534 E9.83480
G1 X105.086 Y86.826 E9.89242
G1 X105.309 Y87.330 E9.98842
G1 X105.503 Y87.925 E10.09728
G1 X105.637 Y88.610 E10.21875
G1 X105.671 Y88.903 E10.27004
G1 X105.691 Y89.361 E10.34988
G1 X105.665 Y89.931 E10.44917
G1 X105.606 Y90.368 E10.52598
G1 X105.526 Y90.761 E10.59564
G1 X105.342 Y91.344 E10.70212
G1 X105.166 Y91.768 E10.78199
G1 X105.034 Y92.032 E10.83330
G1 X104.673 Y92.629 E10.95482
G1 X104.287 Y93.122 E11.06365
G1 X104.011 Y93.418 E11.13408
G1 X103.701 Y93.703 E11.20751
G1 F1800.000 E6.20751
G92 E0
G1 X124.411 Y93.159 F7800.000
G1 E5.00000 F1800.000
G1 X124.069 Y93.421 E5.05048 F1350.000
G1 X123.707 Y93.652 E5.10093
G1 X123.325 Y93.851 E5.15142
G1 X122.927 Y94.016 E5.20191
G1 X122.517 Y94.145 E5.25239
G1 X122.153 Y94.226 E5.29610
G1 X121.670 Y94.294 E5.35332
G1 X121.240 Y94.313 E5.40378
G1 X120.810 Y94.294 E5.45428
G1 X120.383 Y94.238 E5.50474
G1 X119.963 Y94.145 E5.55522
G1 X119.553 Y94.016 E5.60570
G1 X119.155 Y93.851 E5.65617
G1 X118.773 Y93.652 E5.70667
G1 X118.410 Y93.421 E5.75715
G1 X118.069 Y93.159 E5.80761
G1 X117.752 Y92.868 E5.85808
G1 X117.461 Y92.551 E5.90859
G1 X117.199 Y92.209 E5.95906
G1 X116.968 Y91.847 E6.00952
G1 X116.769 Y91.465 E6.06000
G1 X116.604 Y91.067 E6.11050
G1 X116.475 Y90.657 E6.16097
G1 X116.394 Y90.293 E6.20469
G1 X116.326 Y89.810 E6.26190
G1 X116.307 Y89.380 E6.31237
G1 X116.323 Y89.008 E6.35611
G1 X116.382 Y88.523 E6.41331
G1 X116.475 Y88.103 E6.46379
G1 X116.604 Y87.693 E6.51427
G1 X116.769 Y87.295 E6.56473
G1 X116.968 Y86.913 E6.61524
G1 X117.199 Y86.550 E6.66572
G1 X117.461 Y86.209 E6.71618
G1 X117.752 Y85.892 E6.76665
G1 X118.069 Y85.601 E6.81716
G1 X118.411 Y85.339 E6.86763
G1 X118.773 Y85.108 E6.91809
G1 X119.155 Y84.909 E6.96857
G1 X119.553 Y84.744 E7.01907
G1 X119.908 Y84.632 E7.06278
G1 X120.383 Y84.522 E7.11999
G1 X120.810 Y84.466 E7.17047
G1 X121.240 Y84.447 E7.22093
G1 X121.612 Y84.463 E7.26468
G1 X122.097 Y84.522 E7.32188 F1350.000
G1 X122.517 Y84.615 E7.37237
G1 X122.927 Y84.744 E7.42283
G1 X123.325 Y84.909 E7.47330
G1 X123.655 Y85.081 E7.51704
