; generated by Slic3r 1.1.7 on 2014-10-25 at 17:36:22

; perimeters extrusion width = 0.50mm
; infill extrusion width = 0.70mm
; solid infill extrusion width = 0.70mm
; top infill extrusion width = 0.70mm

G21 ; set units to millimeters
M107
M190 S35 ; wait for bed temperature to be reached
M104 S210 ; set temperature
G28 ; home all axes
G1 Z5 F200; lift nozzle


M109 S210 ; wait for temperature to be reached
G90 ; use absolute coordinates
G92 E0
M82 ; use absolute distances for extrusion
G1 F1800.000 E-5.00000
G92 E0
G1 Z0.350 F7800.000
G1 X75.833 Y83.016 F7800.000
G1 E5.00000 F1800.000
G1 X77.587 Y81.530 E5.21488 F2700.000
G1 X79.742 Y80.729 E5.42976
G1 X80.950 Y80.618 E5.54311
G1 X119.050 Y80.618 E9.10413
G1 X121.314 Y81.015 E9.31901
G1 X123.309 Y82.159 E9.53389 F2700.000
G1 X124.795 Y83.913 E9.74877
G1 X125.596 Y86.068 E9.96366
G1 X125.707 Y87.275 E10.07700
G1 X125.690 Y109.975 E12.19865
G1 X125.659 Y110.408 E12.23918
G1 X125.522 Y111.367 E12.32976
G1 X125.158 Y112.721 E12.46079
G1 X125.007 Y113.128 E12.50134
G1 X124.605 Y114.010 E12.59191
G1 X123.875 Y115.206 E12.72294
G1 X122.981 Y116.287 E12.85400
G1 X122.675 Y116.593 E12.89452
G1 X121.943 Y117.229 E12.98510
G1 X120.781 Y118.014 E13.11616
G1 X119.520 Y118.626 E13.24720
G1 X118.184 Y119.052 E13.37824
G1 X116.801 Y119.283 E13.50927
G1 X116.369 Y119.314 E13.54980
G1 X115.875 Y119.332 E13.59603
G1 X83.650 Y119.315 E16.60794
G1 X82.258 Y119.148 E16.73897
G1 X81.835 Y119.056 E16.77941
G1 X80.904 Y118.784 E16.87008
G1 X80.497 Y118.632 E16.91062
G1 X79.615 Y118.231 E17.00119
G1 X79.235 Y118.023 E17.04171
G1 X78.419 Y117.500 E17.13231
G1 X78.072 Y117.241 E17.17283
G1 X77.338 Y116.607 E17.26342
G1 X76.396 Y115.569 E17.39447
G1 X75.611 Y114.407 E17.52550
G1 X74.999 Y113.146 E17.65654
G1 X74.573 Y111.810 E17.78759
G1 X74.481 Y111.386 E17.82809
G1 X74.342 Y110.427 E17.91869
G1 X74.311 Y109.995 E17.95920
G1 X74.293 Y109.500 E18.00546
G1 X74.293 Y87.275 E20.08272
G1 X74.690 Y85.011 E20.29760
G1 X75.796 Y83.081 E20.50547
G1 F1800.000 E15.50547
G92 E0
G1 X111.098 Y93.181 F7800.000
G1 E5.00000 F1800.000
G1 X110.648 Y93.490 E5.05105 F1350.000
G1 X110.135 Y93.690 E5.10246
G1 X109.599 Y93.767 E5.15308
G1 X109.070 Y93.724 E5.20274
G1 X108.559 Y93.563 E5.25273
G1 X108.167 Y93.348 E5.29457
G1 X107.835 Y93.070 E5.33497
G1 X107.487 Y92.637 E5.38688
G1 X107.262 Y92.169 E5.43540
G1 X107.144 Y91.664 E5.48392
G1 X107.136 Y91.145 E5.53243
G1 X107.156 Y91.022 E5.54405
G1 X107.241 Y90.637 E5.58098
G1 X107.452 Y90.162 E5.62950
G1 X107.761 Y89.745 E5.67803
G1 X108.152 Y89.404 E5.72652
G1 X108.607 Y89.154 E5.77504
G1 X109.106 Y89.009 E5.82359
G1 X109.624 Y88.974 E5.87212
G1 X109.747 Y88.987 E5.88374
G1 X110.137 Y89.051 E5.92063 F1350.000
G1 X110.622 Y89.237 E5.96917
G1 X111.055 Y89.523 E6.01768
G1 X111.417 Y89.896 E6.06620
G1 X111.690 Y90.337 E6.11475
G1 X111.735 Y90.453 E6.12638
G1 X111.862 Y90.827 E6.16326
G1 X111.924 Y91.343 E6.21181
G1 X111.874 Y91.859 E6.26033
G1 X111.714 Y92.353 E6.30886
G1 X111.655 Y92.463 E6.32049
G1 X111.464 Y92.781 E6.35514
G1 X111.151 Y93.127 E6.39881
G1 X110.659 Y92.690 F7800.000
G1 X110.339 Y92.908 E6.43498 F945.000
G1 X109.978 Y93.051 E6.47129
G1 X109.597 Y93.109 E6.50730
G1 X109.216 Y93.082 E6.54297
G1 X108.849 Y92.973 E6.57878
G1 X108.544 Y92.808 E6.61124
G1 X108.282 Y92.587 E6.64319
G1 X108.041 Y92.281 E6.67964
G1 X107.880 Y91.941 E6.71482
G1 X107.797 Y91.574 E6.75000
G1 X107.793 Y91.197 E6.78517
G1 X107.871 Y90.829 E6.82036
G1 X108.027 Y90.486 E6.85554
G1 X108.252 Y90.185 E6.89072
G1 X108.537 Y89.939 E6.92589
G1 X108.868 Y89.760 E6.96108
G1 X109.283 Y89.651 E7.00116
G1 X109.606 Y89.633 E7.03139 F945.000
G1 X109.978 Y89.691 E7.06657
G1 X110.328 Y89.828 E7.10175
G1 X110.680 Y90.073 E7.14183
G1 X110.902 Y90.308 E7.17205
G1 X111.099 Y90.629 E7.20725
G1 X111.230 Y91.037 E7.24731
G1 X111.265 Y91.359 E7.27755
G1 X111.227 Y91.734 E7.31273
G1 X111.084 Y92.138 E7.35281
G1 X110.921 Y92.408 E7.38225
G1 X110.711 Y92.636 E7.41126
G1 F1800.000 E2.41126
G92 E0
G1 X109.214 Y89.334 F7800.000
G1 X92.867 Y91.467 F7800.000
G1 E5.00000 F1800.000
G1 X92.824 Y91.859 E5.03690 F1350.000
G1 X92.664 Y92.353 E5.08544
G1 X92.414 Y92.781 E5.13170
G1 X92.104 Y93.124 E5.17493
G1 X91.965 Y93.246 E5.19223
G1 X91.598 Y93.490 E5.23344
G1 X91.189 Y93.658 E5.27474
G1 X91.008 Y93.704 E5.29218
G1 X90.549 Y93.767 E5.33547
G1 X90.020 Y93.724 E5.38513
G1 X89.602 Y93.605 E5.42567
G1 X89.202 Y93.400 E5.46767
G1 X89.049 Y93.294 E5.48512
G1 X88.707 Y92.991 E5.52776
G1 X88.437 Y92.637 E5.56938
G1 X88.212 Y92.169 E5.61790
G1 X88.094 Y91.664 E5.66641
G1 X88.086 Y91.145 E5.71492
G1 X88.106 Y91.022 E5.72654
G1 X88.191 Y90.637 E5.76347
G1 X88.402 Y90.163 E5.81198
G1 X88.711 Y89.745 E5.86052
G1 X88.801 Y89.659 E5.87214
G1 X89.102 Y89.404 E5.90902
G1 X89.557 Y89.154 E5.95755
G1 X90.056 Y89.009 E6.00609
G1 X90.574 Y88.974 E6.05462
G1 X90.697 Y88.987 E6.06625
G1 X91.087 Y89.051 E6.10314 F1350.000
G1 X91.572 Y89.237 E6.15168
G1 X92.005 Y89.523 E6.20018
G1 X92.367 Y89.896 E6.24871
G1 X92.640 Y90.337 E6.29726
G1 X92.685 Y90.453 E6.30888
G1 X92.812 Y90.827 E6.34579
G1 X92.871 Y91.392 E6.39886
G1 X92.212 Y91.412 F7800.000
G1 X92.177 Y91.734 E6.42909 F945.000
G1 X92.059 Y92.091 E6.46428
G1 X91.871 Y92.408 E6.49867
G1 X91.576 Y92.716 E6.53859
G1 X91.289 Y92.908 E6.57083
G1 X90.969 Y93.038 E6.60312
G1 X90.547 Y93.109 E6.64312
G1 X90.166 Y93.082 E6.67879
G1 X89.799 Y92.973 E6.71460
G1 X89.494 Y92.808 E6.74707
G1 X89.232 Y92.587 E6.77902
G1 X88.991 Y92.281 E6.81546
G1 X88.816 Y91.889 E6.85554
G1 X88.746 Y91.574 E6.88577
G1 X88.743 Y91.197 E6.92094
G1 X88.821 Y90.829 E6.95613
G1 X89.006 Y90.442 E6.99620
G1 X89.202 Y90.185 E7.02644
G1 X89.487 Y89.939 E7.06161
G1 X89.818 Y89.760 E7.09679
G1 X90.233 Y89.651 E7.13688
G1 X90.556 Y89.633 E7.16711 F945.000
G1 X90.928 Y89.691 E7.20228
G1 X91.278 Y89.828 E7.23747
G1 X91.591 Y90.037 E7.27265
G1 X91.852 Y90.308 E7.30783
G1 X92.049 Y90.629 E7.34302
G1 X92.171 Y90.985 E7.37820
G1 X92.212 Y91.337 E7.41134
G1 F1800.000 E2.41134
G92 E0
G1 X90.119 Y89.348 F7800.000
G1 X92.366 Y88.939 F7800.000
G1 E5.00000 F1800.000
G1 X107.548 Y88.939 E6.41897 F1350.000
G1 X106.878 Y89.839 E6.52377
G1 X106.610 Y90.444 E6.58564
G1 X106.479 Y91.093 E6.64752
G1 X106.479 Y91.559 E6.69111
G1 X106.491 Y91.755 E6.70939
G1 X106.644 Y92.398 E6.77124
G1 X106.933 Y92.994 E6.83310
G1 X107.191 Y93.334 E6.87296
G1 X107.389 Y93.553 E6.90055
G1 X107.790 Y93.887 E6.94939
G1 X108.270 Y94.153 E7.00062
G1 X108.549 Y94.261 E7.02865
G1 X109.104 Y94.398 E7.08200
G1 X109.601 Y94.425 E7.12857
G1 X109.789 Y94.414 E7.14620
G1 X110.170 Y94.351 E7.18228
G1 X110.458 Y94.278 E7.21006
G1 X110.956 Y94.072 E7.26039
G1 X111.404 Y93.776 E7.31056
G1 X111.626 Y93.582 E7.33815
G1 X112.006 Y93.154 E7.39167
G1 X112.319 Y92.616 E7.44981
G1 X112.468 Y92.174 E7.49341
G1 X112.521 Y91.985 E7.51170
G1 X112.583 Y91.326 E7.57357
G1 X112.502 Y90.669 E7.63547
G1 X112.281 Y90.046 E7.69729
G1 X112.040 Y89.645 E7.74094
G1 X111.931 Y89.483 E7.75922
G1 X111.416 Y88.939 E7.82923
G1 X117.385 Y88.939 E8.38717
G1 X117.385 Y109.441 E10.30334
G1 X117.366 Y109.715 E10.32900
G1 X117.320 Y109.925 E10.34909
G1 X117.245 Y110.126 E10.36918
G1 X117.142 Y110.315 E10.38928
G1 X117.013 Y110.487 E10.40937
G1 X116.861 Y110.639 E10.42946
G1 X116.689 Y110.768 E10.44955
G1 X116.500 Y110.871 E10.46964
G1 X116.299 Y110.946 E10.48973
G1 X116.089 Y110.992 E10.50982
G1 X115.815 Y111.011 E10.53548
G1 X84.184 Y111.011 E13.49189
G1 X83.910 Y110.992 E13.51755
G1 X83.700 Y110.946 E13.53764
G1 X83.499 Y110.871 E13.55773
G1 X83.310 Y110.768 E13.57782
G1 X83.138 Y110.639 E13.59791
G1 X82.986 Y110.487 E13.61800
G1 X82.857 Y110.315 E13.63810
G1 X82.754 Y110.126 E13.65819
G1 X82.679 Y109.925 E13.67828
G1 X82.633 Y109.715 E13.69837
G1 X82.614 Y109.441 E13.72403
G1 X82.614 Y88.939 E15.64020
G1 X88.498 Y88.939 E16.19014
G1 X87.828 Y89.839 E16.29497
G1 X87.560 Y90.444 E16.35681
G1 X87.429 Y91.093 E16.41870
G1 X87.429 Y91.559 E16.46228
G1 X87.441 Y91.755 E16.48057
G1 X87.594 Y92.398 E16.54241
G1 X87.883 Y92.994 E16.60428
G1 X88.141 Y93.334 E16.64414
G1 X88.339 Y93.553 E16.67172
G1 X88.740 Y93.887 E16.72057
G1 X89.220 Y94.153 E16.77180
G1 X89.499 Y94.261 E16.79982
G1 X90.054 Y94.398 E16.85318
G1 X90.551 Y94.425 E16.89975
G1 X90.739 Y94.414 E16.91737
G1 X91.242 Y94.329 E16.96505
G1 X91.770 Y94.133 E17.01764
G1 X92.034 Y93.994 E17.04554
G1 X92.487 Y93.671 E17.09750
G1 X92.840 Y93.302 E17.14526
G1 X92.956 Y93.154 E17.16291
G1 X93.269 Y92.616 E17.22103
G1 X93.471 Y91.985 E17.28292
G1 X93.522 Y91.522 E17.32650
G1 X93.533 Y91.327 E17.34479
G1 X93.452 Y90.669 E17.40667
G1 X93.231 Y90.046 E17.46852
G1 X92.990 Y89.645 E17.51216
G1 X92.881 Y89.483 E17.53045
G1 X92.418 Y88.994 E17.59345
G1 X81.957 Y88.282 F7800.000
G1 X118.043 Y88.282 E20.96622 F1350.000
G1 X118.043 Y109.464 E22.94599
G1 X118.018 Y109.808 E22.97824
G1 X117.952 Y110.110 E23.00711
G1 X117.844 Y110.400 E23.03599
G1 X117.696 Y110.671 E23.06487
G1 X117.511 Y110.918 E23.09374
G1 X117.293 Y111.137 E23.12262
G1 X117.045 Y111.322 E23.15149
G1 X116.774 Y111.470 E23.18037
G1 X116.485 Y111.578 E23.20924
G1 X116.183 Y111.644 E23.23812
G1 X115.839 Y111.668 E23.27036
G1 X84.161 Y111.668 E26.23116
G1 X83.816 Y111.644 E26.26341
G1 X83.515 Y111.578 E26.29228
G1 X83.225 Y111.470 E26.32116
G1 X82.954 Y111.322 E26.35003
G1 X82.707 Y111.137 E26.37891
G1 X82.488 Y110.918 E26.40779
G1 X82.303 Y110.671 E26.43666
G1 X82.155 Y110.400 E26.46554
G1 X82.047 Y110.110 E26.49442
G1 X81.981 Y109.808 E26.52329
G1 X81.957 Y109.464 E26.55553
G1 X81.957 Y88.357 E28.52830
G1 X81.300 Y87.625 F7800.000
G1 X118.700 Y87.625 E32.02390 F945.000
G1 X118.700 Y109.488 E34.06728
G1 X118.670 Y109.902 E34.10611
G1 X118.584 Y110.296 E34.14377
G1 X118.444 Y110.673 E34.18143
G1 X118.250 Y111.027 E34.21909
G1 X118.009 Y111.350 E34.25675
G1 X117.724 Y111.635 E34.29441
G1 X117.401 Y111.876 E34.33208
G1 X117.048 Y112.069 E34.36974
G1 X116.670 Y112.210 E34.40740
G1 X116.277 Y112.296 E34.44506
G1 X115.862 Y112.325 E34.48389
G1 X84.137 Y112.325 E37.44907
G1 X83.723 Y112.296 E37.48790
G1 X83.329 Y112.210 E37.52556
G1 X82.951 Y112.069 E37.56322
G1 X82.598 Y111.876 E37.60088
G1 X82.275 Y111.635 E37.63854
G1 X81.990 Y111.350 E37.67621
G1 X81.749 Y111.027 E37.71387
G1 X81.556 Y110.673 E37.75153
G1 X81.415 Y110.296 E37.78919
G1 X81.329 Y109.902 E37.82685
G1 X81.300 Y109.488 E37.86568
G1 X81.300 Y87.700 E39.90205
G1 X81.733 Y87.875 F7800.000
G1 X83.173 Y89.396 F7800.000
G1 X104.332 Y110.555 E42.69884 F2700.000
G1 X103.395 Y110.555 E42.78637
G1 X83.070 Y90.230 E45.47295
G1 X83.070 Y91.166 E45.56048
G1 X102.459 Y110.555 E48.12326
G1 X101.522 Y110.555 E48.21080
G1 X83.070 Y92.103 E50.64979
G1 X83.070 Y93.039 E50.73732
G1 X100.586 Y110.555 E53.05251
G1 X99.649 Y110.555 E53.14005
G1 X83.070 Y93.976 E55.33145
G1 X83.070 Y94.912 E55.41898
G1 X98.713 Y110.555 E57.48659
G1 X97.776 Y110.555 E57.57412
G1 X83.070 Y95.849 E59.51793
G1 X83.070 Y96.785 E59.60547
G1 X96.839 Y110.555 E61.42549
G1 X95.903 Y110.555 E61.51302
G1 X83.070 Y97.722 E63.20924
G1 X83.070 Y98.659 E63.29678
G1 X94.966 Y110.555 E64.86921
G1 X94.030 Y110.555 E64.95674
G1 X83.070 Y99.595 E66.40538
G1 X83.070 Y100.532 E66.49291
G1 X93.093 Y110.555 E67.81775
G1 X92.157 Y110.555 E67.90529
G1 X83.070 Y101.468 E69.10633
G1 X83.070 Y102.405 E69.19387
G1 X91.220 Y110.555 E70.27112
G1 X90.283 Y110.555 E70.35865
G1 X83.070 Y103.341 E71.31211
G1 X83.070 Y104.278 E71.39965
G1 X89.347 Y110.555 E72.22931
G1 X88.410 Y110.555 E72.31684
G1 X83.070 Y105.215 E73.02271
G1 X83.070 Y106.151 E73.11025
G1 X87.474 Y110.555 E73.69232
G1 X86.537 Y110.555 E73.77986
G1 X83.070 Y107.088 E74.23814
G1 X83.070 Y108.024 E74.32567
G1 X85.601 Y110.555 E74.66016
G1 X84.664 Y110.555 E74.74769
G1 X83.070 Y108.961 E74.95838
G1 X83.248 Y110.075 E75.06382
G1 X83.550 Y110.377 E75.10381
G1 X89.425 Y94.711 F7800.000
G1 X105.268 Y110.555 E77.19802 F2700.000
G1 X106.205 Y110.555 E77.28555
G1 X90.531 Y94.881 E79.35728
G1 X91.350 Y94.763 E79.43461
G1 X107.142 Y110.555 E81.52189
G1 X108.078 Y110.555 E81.60943
G1 X92.035 Y94.512 E83.72995
G1 X92.613 Y94.153 E83.79350
G1 X109.015 Y110.555 E85.96153
G1 X109.951 Y110.555 E86.04907
G1 X93.088 Y93.692 E88.27800
G1 X93.485 Y93.152 E88.34062
G1 X110.888 Y110.555 E90.64091
G1 X111.824 Y110.555 E90.72844
G1 X93.784 Y92.515 E93.11296
G1 X93.952 Y91.746 E93.18651
G1 X112.761 Y110.555 E95.67267
G1 X113.697 Y110.555 E95.76020
G1 X93.926 Y90.783 E98.37363
G1 X93.475 Y89.396 E98.50995
G1 X114.634 Y110.555 E101.30673
G1 X115.571 Y110.555 E101.39427
G1 X94.412 Y89.396 E104.19105
G1 X95.348 Y89.396 E104.27859
G1 X116.373 Y110.420 E107.05762
G1 X116.828 Y109.939 E107.11954
G1 X96.285 Y89.396 E109.83488
G1 X97.221 Y89.396 E109.92241
G1 X116.929 Y109.104 E112.52738
G1 X116.929 Y108.167 E112.61491
G1 X98.158 Y89.396 E115.09608
G1 X99.094 Y89.396 E115.18362
G1 X116.929 Y107.230 E117.54100
G1 X116.929 Y106.294 E117.62853
G1 X100.031 Y89.396 E119.86212
G1 X100.968 Y89.396 E119.94965
G1 X116.929 Y105.357 E122.05944
G1 X116.929 Y104.421 E122.14698
G1 X101.904 Y89.396 E124.13297
G1 X106.587 Y89.396 F7800.000
G1 X106.617 Y89.426 E124.13691 F2700.000
G1 X106.291 Y90.037 E124.20163
G1 X105.650 Y89.396 E124.28637
G1 X104.714 Y89.396 E124.37390
G1 X106.080 Y90.762 E124.55455
G1 X106.027 Y91.646 E124.63725
G1 X103.777 Y89.396 E124.93464
G1 X102.841 Y89.396 E125.02218
G1 X106.413 Y92.969 E125.49442
G1 X107.933 Y94.488 F7800.000
G1 X116.929 Y103.484 E126.68352 F2700.000
G1 X116.929 Y102.548 E126.77105
G1 X109.244 Y94.862 E127.78689
G1 X110.137 Y94.819 E127.87049
G1 X116.929 Y101.611 E128.76823
G1 X116.929 Y100.675 E128.85577
G1 X110.860 Y94.605 E129.65800
G1 X111.470 Y94.279 E129.72269
G1 X116.929 Y99.738 E130.44423
G1 X116.929 Y98.801 E130.53176
G1 X111.988 Y93.861 E131.18484
G1 X112.418 Y93.354 E131.24695
G1 X116.929 Y97.865 E131.84324
G1 X116.929 Y96.928 E131.93078
G1 X112.754 Y92.753 E132.48263
G1 X112.975 Y92.037 E132.55265
G1 X116.929 Y95.992 E133.07535
G1 X116.929 Y95.055 E133.16289
G1 X113.021 Y91.147 E133.67951
G1 X112.715 Y89.905 E133.79902
G1 X116.929 Y94.119 E134.35597
G1 X116.929 Y93.182 E134.44351
G1 X113.143 Y89.396 E134.94397
G1 X114.079 Y89.396 E135.03151
G1 X116.929 Y92.245 E135.40818
G1 X116.929 Y91.309 E135.49571
G1 X115.016 Y89.396 E135.74859
G1 X115.953 Y89.396 E135.83612
G1 X116.929 Y90.372 E135.96521
G1 X116.929 Y89.436 E136.05274
G1 X116.889 Y89.396 E136.05803
G1 X87.339 Y89.816 F7800.000
G1 X86.919 Y89.396 E136.11355 F2700.000
G1 X85.983 Y89.396 E136.20109
G1 X87.084 Y90.497 E136.34667
G1 X86.977 Y91.327 E136.42484
G1 X85.046 Y89.396 E136.68005
G1 X84.109 Y89.396 E136.76758
G1 X87.123 Y92.409 E137.16593
M106 S224
M140 S30 ; set bed temperature
G1 F1800.000 E132.16593
G92 E0
G1 Z0.650 F7800.000
G1 X88.481 Y90.603 F7800.000
G1 E5.00000 F1800.000
G1 X88.623 Y90.296 E5.02067 F1800.000
G1 X88.898 Y89.922 E5.04892
G1 X89.247 Y89.617 E5.07716
G1 X89.653 Y89.394 E5.10541
G1 X90.097 Y89.263 E5.13366
G1 X90.560 Y89.232 E5.16190
G1 X90.683 Y89.245 E5.16949
G1 X91.018 Y89.300 E5.19016 F1800.000
G1 X91.451 Y89.465 E5.21841
G1 X91.838 Y89.720 E5.24665
G1 X92.161 Y90.052 E5.27491
G1 X92.231 Y90.155 E5.28249
G1 X92.406 Y90.446 E5.30316
G1 X92.560 Y90.883 E5.33141
G1 X92.616 Y91.343 E5.35966
G1 X92.608 Y91.467 E5.36725
G1 X92.572 Y91.804 E5.38792
G1 X92.430 Y92.245 E5.41617
G1 X92.141 Y92.713 E5.44968
G1 X91.879 Y92.986 E5.47278
G1 X91.552 Y93.216 E5.49713
G1 X91.397 Y93.299 E5.50783
G1 X91.020 Y93.441 E5.53241
G1 X90.646 Y93.503 E5.55554
G1 X90.239 Y93.493 E5.58033
G1 X90.067 Y93.471 E5.59090
G1 X89.696 Y93.365 E5.61444
G1 X89.342 Y93.184 E5.63867
G1 X89.198 Y93.084 E5.64932
G1 X88.898 Y92.818 E5.67382
G1 X88.658 Y92.504 E5.69785
G1 X88.457 Y92.087 E5.72609
G1 X88.350 Y91.636 E5.75434
G1 X88.343 Y91.512 E5.76193
G1 X88.343 Y91.173 E5.78260
G1 X88.453 Y90.673 E5.81381
G1 X88.941 Y90.800 F7800.000
G1 X89.060 Y90.542 E5.83116 F1260.000
G1 X89.272 Y90.257 E5.85279
G1 X89.540 Y90.024 E5.87441
G1 X89.851 Y89.855 E5.89604
G1 X90.262 Y89.749 E5.92189
G1 X90.546 Y89.733 E5.93924 F1260.000
G1 X90.897 Y89.787 E5.96087
G1 X91.227 Y89.915 E5.98250
G1 X91.574 Y90.159 E6.00835
