; generated by Slic3r 1.1.7 on 2014-11-03 at 21:03:32

; perimeters extrusion width = 0.50mm
; infill extrusion width = 1.02mm
; solid infill extrusion width = 0.85mm
; top infill extrusion width = 0.85mm

G21 ; set units to millimeters
M107
M190 S35 ; wait for bed temperature to be reached
M104 S210 ; set temperature
G28 ; home all axes
G1 Z5 F200; lift nozzle


M109 S210 ; wait for temperature to be reached
G90 ; use absolute coordinates
G92 E0
M82 ; use absolute distances for extrusion
G1 F1800.000 E-5.00000
G92 E0
G1 Z0.350 F7800.000
G1 X71.630 Y77.676 F7800.000
G1 E5.00000 F1800.000
G1 X73.384 Y76.190 E5.26297 F2700.000
G1 X74.504 Y75.667 E5.40439
G1 X75.236 Y75.439 E5.49200
G1 X75.736 Y75.317 E5.55090
G1 X76.182 Y75.235 E5.60273
G1 X77.146 Y75.126 E5.71375
G1 X77.775 Y75.103 E5.78575
G1 X122.552 Y75.111 E10.90739
G1 X123.003 Y75.135 E10.95902 F2700.000
G1 X123.518 Y75.191 E11.01830
G1 X124.255 Y75.315 E11.10387
G1 X125.389 Y75.629 E11.23835
G1 X125.496 Y75.667 E11.25137
G1 X127.494 Y76.803 E11.51434
G1 X128.987 Y78.552 E11.77731
G1 X129.796 Y80.704 E12.04028
G1 X129.911 Y81.935 E12.18169
G1 X129.903 Y113.173 E15.75472
G1 X129.853 Y115.863 E16.06254
G1 X129.826 Y116.088 E16.08844
G1 X129.304 Y117.984 E16.31329
G1 X129.150 Y118.333 E16.35694
G1 X127.770 Y120.346 E16.63615
G1 X127.506 Y120.610 E16.67881
G1 X125.493 Y121.990 E16.95800
G1 X125.144 Y122.144 E17.00166
G1 X123.362 Y122.651 E17.21351
G1 X122.954 Y122.702 E17.26056
G1 X122.229 Y122.741 E17.34363
G1 X80.568 Y122.743 E22.10886
G1 X76.948 Y122.689 E22.52294
G1 X75.692 Y122.464 E22.66890
G1 X73.479 Y121.406 E22.94954
G1 X73.098 Y121.127 E23.00347
G1 X71.296 Y119.141 E23.31026
G1 X71.068 Y118.755 E23.36151
G1 X70.417 Y117.264 E23.54753
G1 X70.381 Y117.142 E23.56213
G1 X70.109 Y115.465 E23.75644
G1 X70.089 Y81.935 E27.59169
G1 X70.486 Y79.670 E27.85466
G1 X71.593 Y77.741 E28.10906
G1 F1800.000 E23.10906
G92 E0
G1 X120.406 Y91.756 F7800.000
G1 E5.00000 F1800.000
G1 X120.018 Y92.052 E5.05575 F945.000
G1 X119.590 Y92.285 E5.11148
G1 X119.131 Y92.449 E5.16722
G1 X118.653 Y92.542 E5.22297
G1 X118.166 Y92.561 E5.27871
G1 X117.682 Y92.505 E5.33445
G1 X117.212 Y92.376 E5.39020
G1 X116.812 Y92.196 E5.44039
G1 X116.358 Y91.912 E5.50162
G1 X115.995 Y91.587 E5.55736
G1 X115.684 Y91.211 E5.61311
G1 X115.435 Y90.792 E5.66884
G1 X115.253 Y90.340 E5.72459
G1 X115.142 Y89.866 E5.78033
G1 X115.105 Y89.380 E5.83607
G1 X115.142 Y88.894 E5.89181
G1 X115.253 Y88.420 E5.94755
G1 X115.435 Y87.968 E6.00330
G1 X115.684 Y87.549 E6.05904
G1 X115.994 Y87.173 E6.11478
G1 X116.322 Y86.881 E6.16497
G1 X116.767 Y86.584 E6.22620
G1 X117.212 Y86.384 E6.28195
G1 X117.682 Y86.255 E6.33769
G1 X118.166 Y86.199 E6.39343
G1 X118.605 Y86.216 E6.44362
G1 X119.131 Y86.311 E6.50485 F945.000
G1 X119.590 Y86.475 E6.56060
G1 X120.018 Y86.708 E6.61634
G1 X120.406 Y87.004 E6.67208
G1 X120.744 Y87.355 E6.72782
G1 X121.024 Y87.753 E6.78356
G1 X121.240 Y88.190 E6.83931
G1 X121.387 Y88.655 E6.89505
G1 X121.462 Y89.136 E6.95079
G1 X121.462 Y89.624 E7.00653
G1 X121.387 Y90.105 E7.06227
G1 X121.240 Y90.570 E7.11802
G1 X121.024 Y91.007 E7.17376
G1 X120.744 Y91.405 E7.22950
G1 X120.458 Y91.702 E7.27666
G1 F1800.000 E2.27666
G92 E0
G1 X118.599 Y85.716 F7800.000
G1 X84.886 Y89.624 F7800.000
G1 E5.00000 F1800.000
G1 X84.811 Y90.105 E5.05574 F945.000
G1 X84.664 Y90.570 E5.11148
G1 X84.448 Y91.007 E5.16723
G1 X84.168 Y91.405 E5.22297
G1 X83.830 Y91.756 E5.27871
G1 X83.442 Y92.052 E5.33445
G1 X83.014 Y92.285 E5.39019
G1 X82.555 Y92.449 E5.44593
G1 X82.077 Y92.542 E5.50168
G1 X81.590 Y92.561 E5.55742
G1 X81.106 Y92.505 E5.61316
G1 X80.636 Y92.376 E5.66890
G1 X80.191 Y92.176 E5.72465
G1 X79.782 Y91.912 E5.78039
G1 X79.418 Y91.587 E5.83613
G1 X79.108 Y91.211 E5.89187
G1 X78.859 Y90.792 E5.94761
G1 X78.677 Y90.340 E6.00335
G1 X78.566 Y89.866 E6.05909
G1 X78.529 Y89.380 E6.11484
G1 X78.566 Y88.894 E6.17058
G1 X78.677 Y88.420 E6.22632
G1 X78.859 Y87.968 E6.28207
G1 X79.108 Y87.549 E6.33781
G1 X79.418 Y87.173 E6.39355
G1 X79.782 Y86.848 E6.44929
G1 X80.191 Y86.584 E6.50503
G1 X80.636 Y86.384 E6.56077
G1 X81.106 Y86.255 E6.61651
G1 X81.590 Y86.199 E6.67226
G1 X82.029 Y86.216 E6.72245
G1 X82.555 Y86.311 E6.78368 F945.000
G1 X83.014 Y86.475 E6.83942
G1 X83.442 Y86.708 E6.89517
G1 X83.830 Y87.004 E6.95090
G1 X84.168 Y87.355 E7.00665
G1 X84.448 Y87.753 E7.06239
G1 X84.664 Y88.190 E7.11813
G1 X84.811 Y88.655 E7.17388
G1 X84.886 Y89.136 E7.22962
G1 X84.886 Y89.549 E7.27678
G1 F1800.000 E2.27678
G92 E0
G1 X81.959 Y85.721 F7800.000
G1 X85.250 Y86.610 F7800.000
G1 E5.00000 F1800.000
G1 X86.067 Y86.252 E5.10198 F1350.000
G1 X86.675 Y85.877 E5.18368
G1 X87.384 Y85.285 E5.28933
G1 X87.562 Y85.175 E5.31328
G1 X87.754 Y85.090 E5.33723
G1 X87.955 Y85.032 E5.36118
G1 X88.162 Y85.003 E5.38513
G1 X88.372 Y85.003 E5.40908
G1 X88.579 Y85.032 E5.43303
G1 X88.780 Y85.090 E5.45697
G1 X88.972 Y85.175 E5.48093
G1 X89.150 Y85.285 E5.50487
G1 X89.859 Y85.877 E5.61051
G1 X90.467 Y86.252 E5.69222
G1 X91.121 Y86.538 E5.77392
G1 X91.809 Y86.730 E5.85564
G1 X92.517 Y86.823 E5.93728
G1 X93.231 Y86.816 E6.01899
G1 X93.938 Y86.708 E6.10072
G1 X94.621 Y86.503 E6.18238
G1 X95.270 Y86.203 E6.26408
G1 X95.870 Y85.815 E6.34579
G1 X96.409 Y85.347 E6.42749
G1 X96.877 Y84.808 E6.50919
G1 X97.373 Y84.039 E6.61386
G1 X97.503 Y83.885 E6.63683
G1 X97.652 Y83.751 E6.65981
G1 X97.818 Y83.637 E6.68279
G1 X97.998 Y83.547 E6.70577
G1 X98.187 Y83.481 E6.72875
G1 X98.384 Y83.441 E6.75173
G1 X98.640 Y83.424 E6.78107
G1 X101.360 Y83.424 E7.09211
G1 X101.616 Y83.441 E7.12145
G1 X101.813 Y83.481 E7.14443
G1 X102.002 Y83.547 E7.16741
G1 X102.182 Y83.637 E7.19039
G1 X102.348 Y83.751 E7.21337
G1 X102.497 Y83.885 E7.23635
G1 X102.627 Y84.039 E7.25933
G1 X103.123 Y84.808 E7.36399
G1 X103.591 Y85.347 E7.44568
G1 X104.130 Y85.815 E7.52739
G1 X104.730 Y86.203 E7.60909
G1 X105.258 Y86.447 E7.67565
G1 X105.379 Y86.503 E7.69080
G1 X106.063 Y86.708 E7.77250
G1 X106.768 Y86.816 E7.85416
G1 X107.483 Y86.823 E7.93589
G1 X108.191 Y86.730 E8.01760
G1 X108.879 Y86.539 E8.09925
G1 X109.533 Y86.252 E8.18095
G1 X110.141 Y85.877 E8.26264
G1 X110.850 Y85.285 E8.36831
G1 X111.028 Y85.175 E8.39226
G1 X111.220 Y85.090 E8.41621
G1 X111.421 Y85.032 E8.44015
G1 X111.628 Y85.003 E8.46411
G1 X111.838 Y85.003 E8.48806
G1 X112.045 Y85.032 E8.51200
G1 X112.246 Y85.090 E8.53595
G1 X112.438 Y85.175 E8.55990
G1 X112.616 Y85.285 E8.58385
G1 X113.325 Y85.877 E8.68949
G1 X113.933 Y86.252 E8.77121
G1 X114.721 Y86.597 E8.86964
G1 X114.254 Y87.383 E8.97417
G1 X113.997 Y88.022 E9.05300
G1 X113.840 Y88.693 E9.13182
G1 X113.787 Y89.380 E9.21064
G1 X113.840 Y90.067 E9.28946
G1 X113.997 Y90.738 E9.36829
G1 X114.254 Y91.377 E9.44712
G1 X114.606 Y91.970 E9.52592
G1 X115.045 Y92.501 E9.60476
G1 X115.805 Y93.178 E9.72116
G1 X84.285 Y93.178 E13.32636
G1 X85.185 Y92.244 E13.47468
G1 X85.581 Y91.680 E13.55350
G1 X85.887 Y91.063 E13.63235
G1 X86.095 Y90.406 E13.71116
G1 X86.200 Y89.725 E13.78998
G1 X86.200 Y89.035 E13.86880
G1 X86.095 Y88.355 E13.94761
G1 X85.887 Y87.697 E14.02646
G1 X85.581 Y87.080 E14.10528
G1 X85.293 Y86.671 E14.16245
G1 X83.940 Y86.171 F7800.000
G1 X84.593 Y86.085 E14.23782 F1350.000
G1 X85.192 Y85.918 E14.30887
G1 X85.761 Y85.669 E14.37997
G1 X86.290 Y85.342 E14.45106
G1 X86.999 Y84.752 E14.55657
G1 X87.254 Y84.593 E14.59099
G1 X87.529 Y84.471 E14.62540
G1 X87.818 Y84.388 E14.65982
G1 X88.116 Y84.346 E14.69424
G1 X88.417 Y84.346 E14.72866
G1 X88.715 Y84.388 E14.76308
G1 X89.005 Y84.471 E14.79750
G1 X89.280 Y84.593 E14.83191
G1 X89.535 Y84.752 E14.86633
G1 X90.244 Y85.342 E14.97183
G1 X90.773 Y85.669 E15.04293
G1 X91.342 Y85.918 E15.11402
G1 X91.941 Y86.085 E15.18512
G1 X92.557 Y86.166 E15.25617
G1 X93.178 Y86.159 E15.32727
G1 X93.793 Y86.066 E15.39837
G1 X94.388 Y85.887 E15.46944
G1 X94.952 Y85.626 E15.54053
G1 X95.474 Y85.289 E15.61163
G1 X95.943 Y84.881 E15.68271
G1 X96.351 Y84.412 E15.75380
G1 X96.844 Y83.647 E15.85791
G1 X97.031 Y83.427 E15.89092
G1 X97.245 Y83.233 E15.92394
G1 X97.483 Y83.070 E15.95696
G1 X97.741 Y82.940 E15.98999
G1 X98.014 Y82.846 E16.02300
G1 X98.297 Y82.789 E16.05602
G1 X98.618 Y82.767 E16.09289
G1 X101.382 Y82.767 E16.40894
G1 X101.703 Y82.789 E16.44582
G1 X101.986 Y82.846 E16.47884
G1 X102.259 Y82.940 E16.51186
G1 X102.517 Y83.070 E16.54487
G1 X102.755 Y83.233 E16.57790
G1 X102.969 Y83.427 E16.61092
G1 X103.156 Y83.647 E16.64394
G1 X103.649 Y84.412 E16.74803
G1 X104.057 Y84.881 E16.81912
G1 X104.526 Y85.289 E16.89022
G1 X105.048 Y85.626 E16.96130
G1 X105.534 Y85.851 E17.02255
G1 X106.207 Y86.066 E17.10340
G1 X106.822 Y86.159 E17.17447
G1 X107.443 Y86.166 E17.24558
G1 X108.059 Y86.085 E17.31667
G1 X108.658 Y85.918 E17.38773
G1 X109.227 Y85.669 E17.45882
G1 X109.756 Y85.342 E17.52990
G1 X110.465 Y84.752 E17.63542
G1 X110.720 Y84.593 E17.66984
G1 X110.995 Y84.471 E17.70426
G1 X111.285 Y84.388 E17.73867
G1 X111.583 Y84.346 E17.77309
G1 X111.884 Y84.346 E17.80751
G1 X112.182 Y84.388 E17.84193
G1 X112.471 Y84.471 E17.87635
G1 X112.746 Y84.593 E17.91076
G1 X113.002 Y84.752 E17.94518
G1 X113.710 Y85.342 E18.05068
G1 X114.239 Y85.669 E18.12179
G1 X114.808 Y85.918 E18.19287
G1 X115.407 Y86.085 E18.26396
G1 X116.122 Y86.179 E18.34648
G1 X115.520 Y86.716 E18.43881
G1 X115.145 Y87.170 E18.50608
G1 X114.845 Y87.675 E18.57337
G1 X114.625 Y88.221 E18.64065
G1 X114.491 Y88.794 E18.70794
G1 X114.446 Y89.380 E18.77522
G1 X114.491 Y89.966 E18.84250
G1 X114.625 Y90.539 E18.90978
G1 X114.845 Y91.085 E18.97707
G1 X115.145 Y91.590 E19.04434
G1 X115.208 Y91.667 E19.05566
G1 X115.520 Y92.044 E19.11163
G1 X115.959 Y92.436 E19.17891
G1 X116.453 Y92.755 E19.24619
G1 X116.989 Y92.996 E19.31347
G1 X117.557 Y93.152 E19.38076
G1 X118.141 Y93.219 E19.44804
G1 X118.729 Y93.197 E19.51532
G1 X119.306 Y93.085 E19.58261
G1 X119.860 Y92.886 E19.64990
G1 X120.376 Y92.605 E19.71716
G1 X120.844 Y92.248 E19.78445
G1 X121.252 Y91.825 E19.85173
G1 X121.591 Y91.343 E19.91902
G1 X121.832 Y90.857 E19.98112
G1 X122.237 Y90.951 E20.02877
G1 X122.237 Y93.837 E20.35880
G1 X77.763 Y93.837 E25.44576
G1 X77.764 Y90.969 E25.77377
G1 X78.189 Y90.887 E25.82332
G1 X78.269 Y91.085 E25.84773
G1 X78.569 Y91.590 E25.91501
G1 X78.944 Y92.044 E25.98229
G1 X79.383 Y92.436 E26.04957
G1 X79.877 Y92.755 E26.11685
G1 X79.967 Y92.796 E26.12817
G1 X80.413 Y92.996 E26.18414
G1 X80.981 Y93.152 E26.25142
G1 X81.565 Y93.219 E26.31870
G1 X82.153 Y93.197 E26.38598
G1 X82.730 Y93.085 E26.45327
G1 X83.284 Y92.886 E26.52055
G1 X83.800 Y92.605 E26.58782
G1 X84.268 Y92.248 E26.65512
G1 X84.676 Y91.825 E26.72239
G1 X85.015 Y91.343 E26.78967
G1 X85.276 Y90.816 E26.85697
G1 X85.453 Y90.255 E26.92424
G1 X85.543 Y89.674 E26.99152
G1 X85.543 Y89.086 E27.05880
G1 X85.453 Y88.505 E27.12608
G1 X85.423 Y88.410 E27.13740
G1 X85.276 Y87.944 E27.19338
G1 X85.015 Y87.417 E27.26066
G1 X84.676 Y86.936 E27.32792
G1 X83.992 Y86.225 E27.44079
G1 X80.016 Y85.222 F7800.000
G1 X79.562 Y85.426 E27.49777 F1350.000
G1 X78.983 Y85.800 E27.57658
G1 X78.417 Y86.305 E27.66328
G1 X78.413 Y83.430 E27.99206
G1 X78.881 Y83.751 E28.05700
G1 X79.031 Y83.885 E28.07998
G1 X79.161 Y84.039 E28.10296
G1 X79.656 Y84.808 E28.20762
G1 X79.967 Y85.165 E28.26181
G1 X81.320 Y85.515 F7800.000
G1 X80.413 Y85.764 E28.36942 F1350.000
G1 X79.876 Y86.005 E28.43671
G1 X79.383 Y86.324 E28.50398
G1 X78.944 Y86.716 E28.57127
G1 X78.569 Y87.170 E28.63855
G1 X78.269 Y87.675 E28.70582
G1 X78.189 Y87.873 E28.73026
G1 X77.764 Y87.791 E28.77979
G1 X77.755 Y82.756 E29.35570
G1 X78.237 Y82.789 E29.41099
G1 X78.520 Y82.846 E29.44401
G1 X78.793 Y82.940 E29.47703
G1 X79.051 Y83.070 E29.51005
G1 X79.289 Y83.233 E29.54307
G1 X79.503 Y83.427 E29.57609
G1 X79.690 Y83.647 E29.60911
G1 X80.183 Y84.412 E29.71321
G1 X80.591 Y84.881 E29.78429
G1 X81.264 Y85.466 E29.88628
G1 X120.000 Y85.203 F7800.000
G1 X120.344 Y84.808 E29.94613 F1350.000
G1 X120.839 Y84.039 E30.05079
G1 X120.969 Y83.885 E30.07376
G1 X121.119 Y83.751 E30.09674
G1 X121.587 Y83.431 E30.16161
G1 X121.580 Y86.247 E30.48371
G1 X120.735 Y85.602 E30.60532
G1 X120.066 Y85.238 E30.69235
G1 X118.643 Y85.547 F7800.000
G1 X119.409 Y84.881 E30.80846 F1350.000
G1 X119.817 Y84.412 E30.87956
G1 X120.310 Y83.647 E30.98366
G1 X120.497 Y83.427 E31.01667
G1 X120.711 Y83.233 E31.04969
G1 X120.949 Y83.070 E31.08272
G1 X121.207 Y82.940 E31.11574
G1 X121.480 Y82.846 E31.14875
G1 X121.763 Y82.789 E31.18178
G1 X122.245 Y82.756 E31.23703
G1 X122.233 Y87.802 E31.81411
G1 X121.828 Y87.896 E31.86173
G1 X121.591 Y87.417 E31.92291
G1 X121.252 Y86.935 E31.99018
G1 X120.844 Y86.512 E32.05748
G1 X120.377 Y86.155 E32.12474
G1 X119.860 Y85.874 E32.19203
G1 X119.306 Y85.675 E32.25932
G1 X118.716 Y85.561 E32.32801
G1 X122.903 Y82.183 F7800.000
G1 X122.894 Y93.801 E33.65685 F945.000
G1 X122.874 Y93.960 E33.67512
G1 X122.769 Y94.197 E33.70487
G1 X122.597 Y94.369 E33.73258
G1 X122.353 Y94.477 E33.76313
G1 X122.208 Y94.494 E33.77983
G1 X119.428 Y94.495 E34.09780
G1 X80.572 Y94.495 E38.54227
G1 X77.797 Y94.494 E38.85966
G1 X77.551 Y94.463 E38.88797
G1 X77.291 Y94.273 E38.92483
G1 X77.111 Y93.968 E38.96531
G1 X77.097 Y82.183 E40.31328
G1 X77.497 Y82.124 E40.35957
G1 X77.784 Y82.110 E40.39238
G1 X78.325 Y82.136 E40.45434
G1 X78.694 Y82.211 E40.49740
G1 X79.049 Y82.334 E40.54046
G1 X79.385 Y82.503 E40.58352
G1 X79.696 Y82.716 E40.62658
G1 X79.976 Y82.968 E40.66964
G1 X80.219 Y83.255 E40.71270
G1 X80.710 Y84.016 E40.81624
G1 X81.056 Y84.415 E40.87672
G1 X81.456 Y84.762 E40.93720
G1 X81.900 Y85.049 E40.99767
G1 X82.380 Y85.271 E41.05816
G1 X82.886 Y85.423 E41.11863
G1 X83.409 Y85.503 E41.17910
G1 X83.937 Y85.508 E41.23959
G1 X84.462 Y85.439 E41.30007
G1 X84.971 Y85.297 E41.36054
G1 X85.455 Y85.085 E41.42102
G1 X85.905 Y84.807 E41.48150
G1 X86.613 Y84.218 E41.58686
G1 X86.946 Y84.010 E41.63175
G1 X87.305 Y83.851 E41.67663
G1 X87.682 Y83.744 E41.72152
G1 X88.071 Y83.689 E41.76641
G1 X88.463 Y83.689 E41.81130
G1 X88.852 Y83.744 E41.85619
G1 X89.229 Y83.851 E41.90107
G1 X89.588 Y84.010 E41.94596
G1 X89.921 Y84.218 E41.99085
G1 X90.629 Y84.807 E42.09621
G1 X91.079 Y85.085 E42.15669
G1 X91.563 Y85.297 E42.21717
G1 X92.072 Y85.439 E42.27765
G1 X92.597 Y85.508 E42.33812
G1 X93.125 Y85.503 E42.39860
G1 X93.648 Y85.423 E42.45908
G1 X94.154 Y85.271 E42.51955
G1 X94.634 Y85.049 E42.58003
G1 X95.078 Y84.762 E42.64051
G1 X95.478 Y84.415 E42.70099
G1 X95.824 Y84.016 E42.76147
G1 X96.315 Y83.255 E42.86501
G1 X96.558 Y82.968 E42.90807
G1 X96.838 Y82.716 E42.95113
G1 X97.148 Y82.503 E42.99419
G1 X97.485 Y82.334 E43.03725
G1 X97.840 Y82.211 E43.08031
G1 X98.209 Y82.136 E43.12337
G1 X98.596 Y82.110 E43.16776
G1 X101.403 Y82.110 E43.48883
G1 X101.791 Y82.136 E43.53324
G1 X102.160 Y82.211 E43.57630
G1 X102.515 Y82.334 E43.61936
G1 X102.852 Y82.503 E43.66241
G1 X103.162 Y82.716 E43.70548
G1 X103.442 Y82.968 E43.74854
G1 X103.686 Y83.255 E43.79160
G1 X104.176 Y84.016 E43.89514
G1 X104.522 Y84.415 E43.95561
G1 X104.922 Y84.762 E44.01609
G1 X105.366 Y85.049 E44.07657
G1 X105.846 Y85.271 E44.13705
G1 X106.352 Y85.423 E44.19753
G1 X106.875 Y85.503 E44.25800
G1 X107.403 Y85.508 E44.31849
G1 X107.928 Y85.439 E44.37897
G1 X108.437 Y85.297 E44.43944
G1 X108.921 Y85.085 E44.49991
G1 X109.371 Y84.807 E44.56039
G1 X110.079 Y84.218 E44.66576
G1 X110.412 Y84.010 E44.71065
G1 X110.771 Y83.851 E44.75553
G1 X111.148 Y83.744 E44.80042
G1 X111.537 Y83.689 E44.84531
G1 X111.929 Y83.689 E44.89020
G1 X112.318 Y83.744 E44.93508
G1 X112.695 Y83.851 E44.97997
G1 X113.054 Y84.010 E45.02485
G1 X113.387 Y84.218 E45.06974
G1 X114.095 Y84.807 E45.17510
G1 X114.545 Y85.085 E45.23559
G1 X115.029 Y85.297 E45.29606
G1 X115.500 Y85.429 E45.35200
G1 X116.063 Y85.508 E45.41697
G1 X116.591 Y85.503 E45.47745
G1 X117.114 Y85.423 E45.53794
G1 X117.620 Y85.271 E45.59841
G1 X118.100 Y85.049 E45.65889
G1 X118.544 Y84.762 E45.71937
G1 X118.944 Y84.415 E45.77984
G1 X119.290 Y84.016 E45.84033
G1 X119.781 Y83.255 E45.94386
G1 X120.024 Y82.968 E45.98692
G1 X120.304 Y82.716 E46.02998
G1 X120.615 Y82.503 E46.07304
G1 X120.951 Y82.334 E46.11611
G1 X121.306 Y82.211 E46.15916
G1 X121.675 Y82.136 E46.20222
G1 X122.216 Y82.110 E46.26418
G1 X122.503 Y82.124 E46.29700
