; generated by Slic3r 1.1.7 on 2014-10-18 at 19:42:55

; perimeters extrusion width = 0.50mm
; infill extrusion width = 1.02mm
; solid infill extrusion width = 0.85mm
; top infill extrusion width = 0.85mm

G21 ; set units to millimeters
M107
M190 S35 ; wait for bed temperature to be reached
M104 S210 ; set temperature
G28 ; home all axes
G1 Z5 F300; lift nozzle


M109 S210 ; wait for temperature to be reached
G90 ; use absolute coordinates
G92 E0
M82 ; use absolute distances for extrusion
G1 F1800.000 E-5.00000
G92 E0
G1 Z0.350 F7800.000
G1 X90.809 Y88.997 F7800.000
G1 E5.00000 F1800.000
G1 X98.360 Y81.291 E6.20374 F1278.407
G1 X99.004 Y80.718 E6.29996
G1 X99.693 Y80.202 E6.39603
G1 X100.424 Y79.745 E6.49216
G1 X101.187 Y79.352 E6.58794
G1 X101.984 Y79.022 E6.68414
G1 X102.806 Y78.761 E6.78047
G1 X103.646 Y78.569 E6.87656
G1 X104.497 Y78.449 E6.97246
G1 X105.359 Y78.400 E7.06878
G1 X106.220 Y78.423 E7.16487
G1 X107.074 Y78.518 E7.26080 F1278.407
G1 X107.921 Y78.685 E7.35706
G1 X108.749 Y78.922 E7.45320
G1 X109.555 Y79.227 E7.54931
G1 X110.330 Y79.598 E7.64523
G1 X111.075 Y80.033 E7.74142
G1 X111.779 Y80.529 E7.83749
G1 X112.440 Y81.083 E7.93372
G1 X113.051 Y81.689 E8.02983
G1 X113.610 Y82.345 E8.12593
G1 X114.111 Y83.042 E8.22171
G1 X114.552 Y83.781 E8.31777
G1 X114.932 Y84.558 E8.41425
G1 X115.244 Y85.361 E8.51035
G1 X115.488 Y86.186 E8.60639
G1 X115.663 Y87.040 E8.70358
G1 X115.765 Y87.885 E8.79856
G1 X115.796 Y88.538 E8.87154
G1 X115.915 Y99.982 E10.14843
G1 X115.913 Y111.377 E11.41984
G1 X115.871 Y112.246 E11.51697
G1 X115.759 Y113.091 E11.61207
G1 X115.574 Y113.933 E11.70818
G1 X115.320 Y114.756 E11.80428
G1 X114.998 Y115.555 E11.90037
G1 X114.611 Y116.322 E11.99628
G1 X114.160 Y117.058 E12.09257
G1 X113.643 Y117.759 E12.18972
G1 X113.082 Y118.400 E12.28478
G1 X112.463 Y118.999 E12.38089
G1 X111.796 Y119.544 E12.47701
G1 X111.086 Y120.031 E12.57311
G1 X110.337 Y120.457 E12.66921
G1 X109.556 Y120.819 E12.76533
G1 X108.748 Y121.114 E12.86122
G1 X107.917 Y121.341 E12.95738
G1 X107.059 Y121.498 E13.05465
G1 X106.211 Y121.582 E13.14972
G1 X105.629 Y121.600 E13.21476
G1 X94.094 Y121.595 E14.50170
G1 X93.233 Y121.535 E14.59801
G1 X92.382 Y121.404 E14.69412
G1 X91.544 Y121.202 E14.79024
G1 X90.719 Y120.928 E14.88733
G1 X89.937 Y120.593 E14.98215
G1 X89.177 Y120.190 E15.07821
G1 X88.442 Y119.717 E15.17565
G1 X87.767 Y119.198 E15.27075
G1 X87.133 Y118.619 E15.36651
G1 X86.545 Y117.986 E15.46296
G1 X86.009 Y117.300 E15.56007
G1 X85.542 Y116.587 E15.65515
G1 X85.131 Y115.830 E15.75126
G1 X84.786 Y115.041 E15.84732
G1 X84.505 Y114.217 E15.94449
G1 X84.299 Y113.391 E16.03950
G1 X84.160 Y112.540 E16.13568
G1 X84.093 Y111.682 E16.23165
G1 X84.085 Y111.238 E16.28126
G1 X84.099 Y99.564 E17.58378
G1 X84.177 Y98.697 E17.68089
G1 X84.325 Y97.858 E17.77597
G1 X84.544 Y97.026 E17.87193
G1 X84.832 Y96.213 E17.96814
G1 X85.188 Y95.428 E18.06430
G1 X85.607 Y94.676 E18.16039
G1 X86.088 Y93.962 E18.25643
G1 X86.626 Y93.291 E18.35244
G1 X87.022 Y92.860 E18.41766
G1 X90.756 Y89.050 E19.01291
G1 F1800.000 E14.01291
G92 E0
G1 X96.095 Y101.829 F7800.000
G1 E5.00000 F1800.000
G1 X95.889 Y102.008 E5.03038 F600.000
G1 X95.665 Y102.163 E5.06077
G1 X95.426 Y102.293 E5.09115
G1 X95.174 Y102.395 E5.12153
G1 X94.939 Y102.462 E5.14872
G1 X94.643 Y102.514 E5.18227
G1 X94.371 Y102.529 E5.21265
G1 X94.099 Y102.514 E5.24304
G1 X93.831 Y102.469 E5.27342
G1 X93.569 Y102.395 E5.30379
G1 X93.316 Y102.293 E5.33418
G1 X93.077 Y102.163 E5.36455
G1 X92.853 Y102.008 E5.39494
G1 X92.669 Y101.848 E5.42214
G1 X92.463 Y101.629 E5.45569
G1 X92.302 Y101.410 E5.48606
G1 X92.166 Y101.174 E5.51645
G1 X92.057 Y100.924 E5.54683
G1 X91.975 Y100.665 E5.57720
G1 X91.929 Y100.425 E5.60440
G1 X91.901 Y100.126 E5.63794
G1 X91.908 Y99.854 E5.66833
G1 X91.946 Y99.584 E5.69871
G1 X92.012 Y99.320 E5.72909
G1 X92.108 Y99.065 E5.75947
G1 X92.231 Y98.822 E5.78986
G1 X92.380 Y98.594 E5.82024
G1 X92.553 Y98.384 E5.85061
G1 X92.748 Y98.194 E5.88099
G1 X92.941 Y98.044 E5.90819
G1 X93.195 Y97.884 E5.94174
G1 X93.441 Y97.768 E5.97212
G1 X93.699 Y97.680 E6.00250
G1 X93.964 Y97.620 E6.03288
G1 X94.235 Y97.590 E6.06327
G1 X94.507 Y97.590 E6.09365
G1 X94.750 Y97.617 E6.12083
G1 X95.044 Y97.680 E6.15439 F600.000
G1 X95.301 Y97.768 E6.18477
G1 X95.548 Y97.884 E6.21515
G1 X95.780 Y98.027 E6.24554
G1 X95.994 Y98.194 E6.27591
G1 X96.190 Y98.384 E6.30630
G1 X96.363 Y98.594 E6.33668
G1 X96.512 Y98.822 E6.36705
G1 X96.635 Y99.065 E6.39743
G1 X96.730 Y99.320 E6.42782
G1 X96.797 Y99.584 E6.45821
G1 X96.830 Y99.825 E6.48539
G1 X96.842 Y100.126 E6.51894
G1 X96.819 Y100.397 E6.54933
G1 X96.767 Y100.664 E6.57970
G1 X96.686 Y100.924 E6.61009
G1 X96.576 Y101.174 E6.64046
G1 X96.440 Y101.410 E6.67085
G1 X96.279 Y101.629 E6.70123
G1 X96.145 Y101.774 E6.72323
G1 F1800.000 E1.72323
G92 E0
G1 X94.755 Y97.316 F7800.000
G1 X96.670 Y102.393 F7800.000
G1 E5.00000 F1800.000
G1 X96.408 Y102.628 E5.03926 F600.000
G1 X95.951 Y102.931 E5.10049
G1 X95.450 Y103.155 E5.16173
G1 X95.187 Y103.234 E5.19237
G1 X94.918 Y103.291 E5.22301
G1 X94.371 Y103.337 E5.28425
G1 X93.824 Y103.291 E5.34547
G1 X93.556 Y103.234 E5.37611
G1 X93.293 Y103.155 E5.40676
G1 X92.791 Y102.931 E5.46800
G1 X92.334 Y102.628 E5.52922
G1 X92.126 Y102.448 E5.55987
G1 X91.759 Y102.040 E5.62110
G1 X91.603 Y101.815 E5.65174
G1 X91.465 Y101.577 E5.68239
G1 X91.253 Y101.071 E5.74362
G1 X91.127 Y100.537 E5.80485
G1 X91.098 Y100.264 E5.83550
G1 X91.110 Y99.715 E5.89673
G1 X91.150 Y99.443 E5.92737
G1 X91.213 Y99.176 E5.95801
G1 X91.404 Y98.662 E6.01924
G1 X91.679 Y98.186 E6.08048
G1 X91.845 Y97.968 E6.11112
G1 X92.229 Y97.575 E6.17235
G1 X92.444 Y97.405 E6.20299
G1 X92.913 Y97.121 E6.26423
G1 X93.164 Y97.009 E6.29487
G1 X93.423 Y96.919 E6.32551
G1 X93.960 Y96.804 E6.38675
G1 X94.509 Y96.781 E6.44797
G1 X94.782 Y96.804 E6.47862
G1 X95.319 Y96.918 E6.53985 F600.000
G1 X95.829 Y97.121 E6.60109
G1 X96.070 Y97.253 E6.63173
G1 X96.514 Y97.575 E6.69296
G1 X96.898 Y97.968 E6.75419
G1 X97.064 Y98.186 E6.78484
G1 X97.338 Y98.662 E6.84606
G1 X97.445 Y98.915 E6.87671
G1 X97.530 Y99.176 E6.90735
G1 X97.633 Y99.715 E6.96859
G1 X97.644 Y100.264 E7.02982
G1 X97.564 Y100.807 E7.09105
G1 X97.394 Y101.329 E7.15228
G1 X97.277 Y101.577 E7.18293
G1 X96.983 Y102.040 E7.24416
G1 X96.723 Y102.339 E7.28840
G1 F1800.000 E2.28840
G92 E0
G1 X95.214 Y97.057 F7800.000
G1 X94.507 Y108.846 F7800.000
G1 E5.00000 F1800.000
G1 X94.750 Y108.873 E5.02718 F600.000
G1 X95.044 Y108.935 E5.06074 F600.000
G1 X95.301 Y109.024 E5.09112
G1 X95.548 Y109.140 E5.12151
G1 X95.780 Y109.283 E5.15189
G1 X95.994 Y109.450 E5.18226
G1 X96.190 Y109.640 E5.21265
G1 X96.363 Y109.850 E5.24303
G1 X96.512 Y110.078 E5.27341
G1 X96.635 Y110.321 E5.30378
G1 X96.730 Y110.576 E5.33418
G1 X96.797 Y110.840 E5.36456
G1 X96.834 Y111.110 E5.39494
G1 X96.842 Y111.382 E5.42531
G1 X96.819 Y111.653 E5.45570
G1 X96.767 Y111.920 E5.48607
G1 X96.694 Y112.153 E5.51328
G1 X96.576 Y112.430 E5.54681
G1 X96.440 Y112.665 E5.57720
G1 X96.279 Y112.885 E5.60759
G1 X96.095 Y113.085 E5.63796
G1 X95.889 Y113.264 E5.66833
G1 X95.665 Y113.419 E5.69873
G1 X95.426 Y113.549 E5.72911
G1 X95.174 Y113.651 E5.75948
G1 X94.939 Y113.718 E5.78668
G1 X94.643 Y113.770 E5.82022
G1 X94.371 Y113.785 E5.85061
G1 X94.099 Y113.770 E5.88099
G1 X93.831 Y113.725 E5.91138
G1 X93.569 Y113.651 E5.94175
G1 X93.316 Y113.549 E5.97214
G1 X93.077 Y113.419 E6.00251
G1 X92.853 Y113.264 E6.03289
G1 X92.669 Y113.104 E6.06010
G1 X92.463 Y112.885 E6.09365
G1 X92.302 Y112.665 E6.12402
G1 X92.166 Y112.430 E6.15440
G1 X92.057 Y112.180 E6.18479
G1 X91.975 Y111.920 E6.21516
G1 X91.923 Y111.653 E6.24555
G1 X91.901 Y111.382 E6.27592
G1 X91.908 Y111.110 E6.30631
G1 X91.946 Y110.840 E6.33668
G1 X92.012 Y110.576 E6.36706
G1 X92.108 Y110.321 E6.39744
G1 X92.218 Y110.103 E6.42465
G1 X92.380 Y109.850 E6.45820
G1 X92.553 Y109.640 E6.48857
G1 X92.748 Y109.450 E6.51895
G1 X92.963 Y109.283 E6.54934
G1 X93.195 Y109.140 E6.57971
G1 X93.441 Y109.024 E6.61010
G1 X93.699 Y108.936 E6.64048
G1 X93.964 Y108.876 E6.67086
G1 X94.235 Y108.846 E6.70125
G1 X94.432 Y108.846 E6.72325
G1 X94.939 Y108.639 F7800.000
G1 X94.575 Y108.043 F7800.000
G1 X94.782 Y108.060 E6.74648 F600.000
G1 X95.319 Y108.174 E6.80770 F600.000
G1 X95.829 Y108.376 E6.86894
G1 X96.070 Y108.509 E6.89958
G1 X96.514 Y108.831 E6.96081
G1 X96.898 Y109.223 E7.02205
G1 X97.211 Y109.674 E7.08328
G1 X97.445 Y110.171 E7.14451
G1 X97.530 Y110.432 E7.17515
G1 X97.633 Y110.971 E7.23639
G1 X97.644 Y111.520 E7.29762
G1 X97.564 Y112.062 E7.35885
G1 X97.490 Y112.327 E7.38949
G1 X97.277 Y112.833 E7.45073
G1 X96.983 Y113.296 E7.51196
G1 X96.616 Y113.704 E7.57319
G1 X96.186 Y114.045 E7.63442
G1 X95.951 Y114.187 E7.66506
G1 X95.450 Y114.411 E7.72630
G1 X94.918 Y114.547 E7.78753
G1 X94.371 Y114.593 E7.84876
G1 X94.097 Y114.581 E7.87940
G1 X93.556 Y114.490 E7.94063
G1 X93.037 Y114.309 E8.00187
G1 X92.557 Y114.045 E8.06310
G1 X92.334 Y113.884 E8.09374
G1 X91.934 Y113.508 E8.15497
G1 X91.603 Y113.071 E8.21621
G1 X91.348 Y112.584 E8.27744
G1 X91.179 Y112.062 E8.33867
G1 X91.098 Y111.520 E8.39991
G1 X91.093 Y111.245 E8.43054
G1 X91.110 Y110.971 E8.46119
G1 X91.213 Y110.432 E8.52242
G1 X91.404 Y109.918 E8.58365
G1 X91.679 Y109.442 E8.64489
G1 X92.028 Y109.019 E8.70612
G1 X92.229 Y108.831 E8.73676
G1 X92.672 Y108.509 E8.79799
G1 X93.164 Y108.265 E8.85923
G1 X93.689 Y108.106 E8.92045
G1 X93.960 Y108.060 E8.95110
G1 X94.500 Y108.037 E9.01139
G1 X94.970 Y108.524 F7800.000
G1 F1800.000 E4.01139
G92 E0
G1 X103.258 Y110.623 F7800.000
G1 E5.00000 F1800.000
G1 X103.365 Y110.321 E5.03574 F600.000
G1 X103.488 Y110.078 E5.06613
G1 X103.637 Y109.850 E5.09652
G1 X103.810 Y109.640 E5.12689
G1 X104.006 Y109.450 E5.15727
G1 X104.221 Y109.283 E5.18766
G1 X104.452 Y109.140 E5.21803
G1 X104.699 Y109.024 E5.24842
G1 X104.956 Y108.936 E5.27879
G1 X105.222 Y108.876 E5.30918
G1 X105.493 Y108.846 E5.33956
G1 X105.765 Y108.846 E5.36994
G1 X106.007 Y108.873 E5.39712
G1 X106.301 Y108.935 E5.43068 F600.000
G1 X106.559 Y109.024 E5.46106
G1 X106.805 Y109.140 E5.49144
G1 X107.037 Y109.283 E5.52183
G1 X107.252 Y109.450 E5.55220
G1 X107.447 Y109.640 E5.58259
G1 X107.620 Y109.850 E5.61297
G1 X107.769 Y110.078 E5.64334
G1 X107.892 Y110.321 E5.67373
G1 X107.977 Y110.549 E5.70093
G1 X108.054 Y110.840 E5.73448
G1 X108.092 Y111.110 E5.76486
G1 X108.099 Y111.382 E5.79523
G1 X108.079 Y111.625 E5.82244
G1 X108.025 Y111.920 E5.85598
G1 X107.943 Y112.180 E5.88637
G1 X107.834 Y112.430 E5.91674
G1 X107.698 Y112.665 E5.94712
G1 X107.536 Y112.885 E5.97751
G1 X107.352 Y113.085 E6.00788
G1 X107.147 Y113.264 E6.03825
G1 X106.923 Y113.419 E6.06865
G1 X106.683 Y113.549 E6.09903
G1 X106.431 Y113.651 E6.12940
G1 X106.169 Y113.725 E6.15979
G1 X105.901 Y113.770 E6.19016
G1 X105.629 Y113.785 E6.22055
G1 X105.385 Y113.772 E6.24775
G1 X105.088 Y113.725 E6.28130
G1 X104.826 Y113.651 E6.31167
G1 X104.574 Y113.549 E6.34206
G1 X104.335 Y113.419 E6.37243
G1 X104.111 Y113.264 E6.40282
G1 X103.905 Y113.085 E6.43321
G1 X103.721 Y112.885 E6.46358
G1 X103.560 Y112.665 E6.49396
G1 X103.438 Y112.454 E6.52115
G1 X103.314 Y112.180 E6.55471
G1 X103.233 Y111.920 E6.58508
G1 X103.186 Y111.681 E6.61228
G1 X103.158 Y111.382 E6.64582
G1 X103.166 Y111.110 E6.67621
G1 X103.240 Y110.696 E6.72314
G1 F1800.000 E1.72314
G92 E0
G1 X106.135 Y108.601 F7800.000
G1 X102.489 Y110.373 F7800.000
G1 E5.00000 F1800.000
G1 X102.662 Y109.918 E5.05433 F600.000
G1 X102.789 Y109.674 E5.08498
G1 X103.102 Y109.223 E5.14622
G1 X103.486 Y108.831 E5.20745
G1 X103.930 Y108.509 E5.26868
G1 X104.422 Y108.265 E5.32992
G1 X104.947 Y108.106 E5.39114
G1 X105.491 Y108.037 E5.45238
G1 X106.040 Y108.060 E5.51361
G1 X106.577 Y108.174 E5.57484 F600.000
G1 X107.087 Y108.376 E5.63607
G1 X107.327 Y108.509 E5.66672
G1 X107.771 Y108.831 E5.72795
G1 X108.155 Y109.223 E5.78918
G1 X108.469 Y109.674 E5.85042
G1 X108.702 Y110.171 E5.91164
G1 X108.850 Y110.699 E5.97288
G1 X108.890 Y110.971 E6.00352
G1 X108.902 Y111.520 E6.06475
G1 X108.821 Y112.062 E6.12598
G1 X108.652 Y112.584 E6.18722
G1 X108.535 Y112.833 E6.21786
G1 X108.241 Y113.296 E6.27910
G1 X107.874 Y113.704 E6.34032
G1 X107.443 Y114.045 E6.40155
G1 X106.963 Y114.309 E6.46279
G1 X106.444 Y114.490 E6.52402
G1 X106.176 Y114.547 E6.55466
G1 X105.629 Y114.593 E6.61590
G1 X105.082 Y114.547 E6.67713
G1 X104.550 Y114.411 E6.73836
G1 X104.295 Y114.309 E6.76901
G1 X103.814 Y114.045 E6.83023
G1 X103.384 Y113.704 E6.89147
G1 X103.017 Y113.296 E6.95270
G1 X102.723 Y112.833 E7.01393
G1 X102.606 Y112.584 E7.04457
G1 X102.436 Y112.062 E7.10581
G1 X102.356 Y111.520 E7.16704
G1 X102.367 Y110.971 E7.22827
G1 X102.467 Y110.445 E7.28803
G1 X106.325 Y108.471 F7800.000
G1 F1800.000 E2.28803
G92 E0
G1 X105.901 Y102.514 F7800.000
G1 E5.00000 F1800.000
G1 X105.629 Y102.529 E5.03039 F600.000
G1 X105.385 Y102.516 E5.05759
G1 X105.088 Y102.469 E5.09114
G1 X104.826 Y102.395 E5.12151
G1 X104.574 Y102.293 E5.15190
G1 X104.335 Y102.163 E5.18227
G1 X104.111 Y102.008 E5.21265
G1 X103.905 Y101.829 E5.24305
G1 X103.721 Y101.629 E5.27342
G1 X103.560 Y101.410 E5.30380
G1 X103.424 Y101.174 E5.33418
G1 X103.314 Y100.924 E5.36457
G1 X103.233 Y100.665 E5.39494
G1 X103.181 Y100.397 E5.42533
G1 X103.158 Y100.126 E5.45570
G1 X103.166 Y99.854 E5.48609
G1 X103.203 Y99.584 E5.51646
G1 X103.270 Y99.320 E5.54684
G1 X103.365 Y99.065 E5.57722
G1 X103.488 Y98.822 E5.60761
G1 X103.637 Y98.594 E5.63799
G1 X103.810 Y98.384 E5.66837
G1 X104.006 Y98.194 E5.69874
G1 X104.221 Y98.027 E5.72913
G1 X104.452 Y97.884 E5.75951
G1 X104.699 Y97.768 E5.78989
G1 X104.956 Y97.680 E5.82027
G1 X105.222 Y97.620 E5.85066
G1 X105.493 Y97.590 E5.88104
G1 X105.765 Y97.590 E5.91142
G1 X106.007 Y97.617 E5.93860
G1 X106.301 Y97.680 E5.97216 F600.000
G1 X106.559 Y97.768 E6.00254
G1 X106.805 Y97.884 E6.03292
G1 X107.037 Y98.027 E6.06331
G1 X107.252 Y98.194 E6.09368
G1 X107.447 Y98.384 E6.12407
G1 X107.620 Y98.594 E6.15445
G1 X107.769 Y98.822 E6.18482
G1 X107.892 Y99.065 E6.21520
G1 X107.977 Y99.293 E6.24240
G1 X108.054 Y99.584 E6.27596
G1 X108.092 Y99.854 E6.30633
G1 X108.099 Y100.126 E6.33671
G1 X108.077 Y100.397 E6.36710
G1 X108.025 Y100.664 E6.39747
G1 X107.943 Y100.924 E6.42786
G1 X107.834 Y101.174 E6.45823
G1 X107.698 Y101.410 E6.48862
G1 X107.536 Y101.629 E6.51900
G1 X107.352 Y101.829 E6.54937
G1 X107.147 Y102.008 E6.57975
G1 X106.923 Y102.163 E6.61014
G1 X106.683 Y102.293 E6.64053
G1 X106.431 Y102.395 E6.67090
G1 X106.169 Y102.469 E6.70129
G1 X105.975 Y102.502 E6.72329
G1 F1800.000 E1.72329
G92 E0
G1 X106.046 Y97.319 F7800.000
G1 X106.002 Y103.313 F7800.000
G1 E5.00000 F1800.000
G1 X105.629 Y103.337 E5.04169 F600.000
G1 X105.354 Y103.326 E5.07233
G1 X105.082 Y103.291 E5.10297
G1 X104.550 Y103.155 E5.16421
G1 X104.049 Y102.931 E5.22544
G1 X103.592 Y102.628 E5.28667
G1 X103.384 Y102.448 E5.31732
G1 X103.017 Y102.040 E5.37855
G1 X102.723 Y101.577 E5.43978
G1 X102.606 Y101.329 E5.47042
G1 X102.436 Y100.807 E5.53165
G1 X102.356 Y100.264 E5.59289
G1 X102.350 Y99.989 E5.62352
G1 X102.408 Y99.443 E5.68476
G1 X102.470 Y99.176 E5.71541
G1 X102.662 Y98.662 E5.77663
G1 X102.936 Y98.186 E5.83787
G1 X103.102 Y97.967 E5.86851
G1 X103.486 Y97.575 E5.92974
G1 X103.930 Y97.253 E5.99097
G1 X104.171 Y97.121 E6.02162
G1 X104.681 Y96.919 E6.08285
G1 X105.218 Y96.804 E6.14408
G1 X105.766 Y96.781 E6.20531
G1 X106.040 Y96.804 E6.23596
G1 X106.577 Y96.918 E6.29718 F600.000
G1 X107.087 Y97.121 E6.35842
G1 X107.327 Y97.253 E6.38906
G1 X107.771 Y97.575 E6.45029
G1 X108.155 Y97.968 E6.51153
G1 X108.469 Y98.418 E6.57277
G1 X108.702 Y98.915 E6.63399
G1 X108.850 Y99.443 E6.69522
G1 X108.907 Y99.989 E6.75645
G1 X108.873 Y100.537 E6.81769
G1 X108.747 Y101.071 E6.87892
G1 X108.535 Y101.577 E6.94016
G1 X108.241 Y102.040 E7.00139
G1 X108.066 Y102.252 E7.03202
G1 X107.666 Y102.628 E7.09326
G1 X107.209 Y102.931 E7.15449
G1 X106.707 Y103.155 E7.21573
G1 X106.444 Y103.234 E7.24637
G1 X106.076 Y103.304 E7.28818
G1 F1800.000 E2.28818
G92 E0
G1 X106.440 Y97.104 F7800.000
G1 X105.783 Y91.140 F7800.000
G1 E5.00000 F1800.000
G1 X105.511 Y91.155 E5.03038 F600.000
G1 X105.239 Y91.140 E5.06077
G1 X104.970 Y91.095 E5.09116
G1 X104.709 Y91.021 E5.12152
